%
(1001)
(T1  D=0.125 CR=0. - ZMIN=-0.2697 - FLAT END MILL)
N10 G90 G94 G17 G91.1
N15 G20
(WHEN USING FUSION 360 FOR PERSONAL USE, THE FEEDRATE OF)
(RAPID MOVES IS REDUCED TO MATCH THE FEEDRATE OF CUTTING)
(MOVES, WHICH CAN INCREASE MACHINING TIME. UNRESTRICTED RAPID)
(MOVES ARE AVAILABLE WITH A FUSION 360 SUBSCRIPTION.)
N20 G53 G0 Z0.
(2D POCKET1)
N25 (T1 M6)
(FLAT END MILL D=0.125)
N30 S15000 M3
N35 G54
N40 G0 X-2.8005 Y2.5615
N45 Z0.5906
N50 G1 Z0.1969 F39.37
N55 Z0.1109
N60 X-2.8008 Z0.1082 F13.123
N65 X-2.8017 Z0.1056
N70 X-2.8031 Z0.1033
N75 X-2.805 Z0.1013
N80 X-2.8073 Z0.0998
N85 X-2.8099 Z0.0988
N90 X-2.8126 Z0.0984
N95 X-3.0142 Y2.562 Z0.0914
N100 X-3.0181 Y2.5619 Z0.0912
N105 X-3.0223 Z0.0911
N110 X-3.0263 Y2.5618 Z0.091
N115 X-3.03 Y2.5617 Z0.0908
N120 X-3.0335 Y2.5615 Z0.0907
N125 X-3.0366 Y2.5613 Z0.0906
N130 X-3.0395 Y2.5611 Z0.0905
N135 X-3.042 Y2.5608 Z0.0904
N140 X-3.0443 Y2.5605 Z0.0903
N145 X-3.0463 Y2.5602
N150 X-3.0479 Y2.5599 Z0.0902
N155 X-3.0492 Y2.5596
N160 X-3.0503 Y2.5593 Z0.0901
N165 X-3.0511 Y2.5591
N170 X-3.0521 Y2.5587 Z0.09
N175 X-3.0534 Y2.5582
N180 X-3.055 Y2.5574 Z0.0899
N185 X-3.057 Y2.5565
N190 X-3.0593 Y2.5553 Z0.0898
N195 X-3.062 Y2.5538 Z0.0897
N200 X-3.0642 Y2.5526 Z0.0896
N205 X-3.0651 Y2.5514 Z0.0895
N210 X-3.0654 Y2.5498
N215 X-3.0656 Y2.5479 Z0.0894
N220 X-3.0658 Y2.5457 Z0.0893
N225 X-3.066 Y2.5436 Z0.0892
N230 X-3.0658 Y2.5415
N235 X-3.0656 Y2.5393 Z0.0891
N240 X-3.0654 Y2.5374 Z0.089
N245 X-3.0651 Y2.5359
N250 X-3.0645 Y2.5349 Z0.0889
N255 X-3.0642 Y2.5346
N260 X-3.0619 Y2.5333 Z0.0888
N265 X-3.0593 Y2.5319 Z0.0887
N270 X-3.057 Y2.5307 Z0.0886
N275 X-3.0551 Y2.5298
N280 X-3.0534 Y2.529 Z0.0885
N285 X-3.0521 Y2.5285 Z0.0884
N290 X-3.0511 Y2.5281
N295 X-3.0503 Y2.5278
N300 X-3.0492 Y2.5276 Z0.0883
N305 X-3.0479 Y2.5273
N310 X-3.0463 Y2.527 Z0.0882
N315 X-3.0443 Y2.5267
N320 X-3.042 Y2.5264 Z0.0881
N325 X-3.0395 Y2.5261 Z0.088
N330 X-3.0366 Y2.5259 Z0.0879
N335 X-3.0334 Y2.5257 Z0.0878
N340 X-3.03 Y2.5255 Z0.0877
N345 X-3.0263 Y2.5254 Z0.0875
N350 X-3.0223 Y2.5253 Z0.0874
N355 X-3.0181 Y2.5252 Z0.0873
N360 X-3.0142 Z0.0871
N365 X-2.8985 Z0.0831
N370 G2 X-2.8163 Y2.443 Z0.0786 I0. J-0.0822
N375 G1 Y1.6598 Z0.0512
N380 G2 X-2.8985 Y1.5776 Z0.0467 I-0.0822 J0.
N385 G1 X-3.0142 Z0.0427
N390 X-3.0181 Z0.0425
N395 X-3.0223 Y1.5775 Z0.0424
N400 X-3.0263 Y1.5774 Z0.0422
N405 X-3.03 Y1.5773 Z0.0421
N410 X-3.0335 Y1.5771 Z0.042
N415 X-3.0366 Y1.5769 Z0.0419
N420 X-3.0395 Y1.5767 Z0.0418
N425 X-3.042 Y1.5765 Z0.0417
N430 X-3.0443 Y1.5762 Z0.0416
N435 X-3.0462 Y1.5759 Z0.0415
N440 X-3.0479 Y1.5755
N445 X-3.0492 Y1.5752 Z0.0414
N450 X-3.0503 Y1.575
N455 X-3.0511 Y1.5747
N460 X-3.0521 Y1.5743 Z0.0413
N465 X-3.0534 Y1.5738
N470 X-3.055 Y1.5731 Z0.0412
N475 X-3.057 Y1.5721 Z0.0411
N480 X-3.0593 Y1.5709
N485 X-3.062 Y1.5695 Z0.041
N490 X-3.0644 Y1.5681 Z0.0409
N495 X-3.0647 Y1.5678 Z0.0408
N500 X-3.0652 Y1.5671
N505 X-3.0654 Y1.5658
N510 X-3.0656 Y1.564 Z0.0407
N515 X-3.0658 Y1.5618 Z0.0406
N520 X-3.066 Y1.56
N525 X-3.0658 Y1.5581 Z0.0405
N530 X-3.0656 Y1.5559 Z0.0404
N535 X-3.0654 Y1.554
N540 X-3.0651 Y1.5525 Z0.0403
N545 X-3.0644 Y1.5515
N550 X-3.0619 Y1.5499 Z0.0402
N555 X-3.0593 Y1.5485 Z0.04
N560 X-3.057 Y1.5473
N565 X-3.0551 Y1.5464 Z0.0399
N570 X-3.0534 Y1.5456 Z0.0398
N575 X-3.0521 Y1.5451
N580 X-3.0511 Y1.5447 Z0.0397
N585 X-3.0503 Y1.5445
N590 X-3.0492 Y1.5442
N595 X-3.0479 Y1.5439 Z0.0396
N600 X-3.0462 Y1.5435
N605 X-3.0443 Y1.5432 Z0.0395
N610 X-3.0421 Y1.543 Z0.0394
N615 X-3.0395 Y1.5427 Z0.0393
N620 X-3.0366 Y1.5425 Z0.0392
N625 X-3.0334 Y1.5423 Z0.0391
N630 X-3.03 Y1.5421 Z0.039
N635 X-3.0263 Y1.542 Z0.0389
N640 X-3.0223 Y1.5419 Z0.0387
N645 X-3.0181 Y1.5418 Z0.0386
N650 X-3.0142 Z0.0384
N655 X-2.1487 Z0.0082
N660 Y1.8487 Z-0.0025
N665 Y1.8526 Z-0.0026
N670 X-2.1488 Y1.8568 Z-0.0028
N675 X-2.1489 Y1.8609 Z-0.0029
N680 X-2.149 Y1.8646 Z-0.0031
N685 X-2.1492 Y1.868 Z-0.0032
N690 X-2.1494 Y1.8711 Z-0.0033
N695 X-2.1496 Y1.874 Z-0.0034
N700 X-2.1498 Y1.8766 Z-0.0035
N705 X-2.1501 Y1.8788 Z-0.0036
N710 X-2.1504 Y1.8808
N715 X-2.1508 Y1.8824 Z-0.0037
N720 X-2.151 Y1.8838
N725 X-2.1513 Y1.8848 Z-0.0038
N730 X-2.1516 Y1.8856
N735 X-2.1519 Y1.8866
N740 X-2.1525 Y1.8879 Z-0.0039
N745 X-2.1532 Y1.8896 Z-0.004
N750 X-2.1542 Y1.8916
N755 X-2.1554 Y1.8939 Z-0.0041
N760 X-2.1568 Y1.8965 Z-0.0042
N765 X-2.1582 Y1.8989 Z-0.0043
N770 X-2.1592 Y1.8997 Z-0.0044
N775 X-2.1604 Y1.8999
N780 X-2.1623 Y1.9001 Z-0.0045
N785 X-2.1645 Y1.9004 Z-0.0046
N790 X-2.1663 Y1.9005
N795 X-2.1681 Y1.9004 Z-0.0047
N800 X-2.1704 Y1.9001 Z-0.0048
N805 X-2.1723 Y1.8999
N810 X-2.1738 Y1.8997 Z-0.0049
N815 X-2.1748 Y1.899
N820 X-2.1763 Y1.8965 Z-0.005
N825 X-2.1778 Y1.8939 Z-0.0051
N830 X-2.179 Y1.8915 Z-0.0052
N835 X-2.18 Y1.8896 Z-0.0053
N840 X-2.1807 Y1.8879 Z-0.0054
N845 X-2.1812 Y1.8866
N850 X-2.1816 Y1.8857
N855 X-2.1818 Y1.8848 Z-0.0055
N860 X-2.1821 Y1.8837
N865 X-2.1824 Y1.8824 Z-0.0056
N870 X-2.1827 Y1.8808
N875 X-2.183 Y1.8788 Z-0.0057
N880 X-2.1833 Y1.8766 Z-0.0058
N885 X-2.1836 Y1.874 Z-0.0059
N890 X-2.1838 Y1.8712 Z-0.006
N895 X-2.184 Y1.868 Z-0.0061
N900 X-2.1842 Y1.8645 Z-0.0062
N905 X-2.1843 Y1.8608 Z-0.0063
N910 X-2.1844 Y1.8568 Z-0.0065
N915 Y1.8526 Z-0.0066
N920 X-2.1845 Y1.8487 Z-0.0067
N925 Y1.6598 Z-0.0133
N930 G2 X-2.2667 Y1.5776 Z-0.0178 I-0.0822 J0.
N935 G1 X-2.6983 Z-0.0329
N940 G2 X-2.7805 Y1.6598 Z-0.0374 I0. J0.0822
N945 G1 Y2.443 Z-0.0648
N950 G2 X-2.6983 Y2.5252 Z-0.0693 I0.0822 J0.
N955 G1 X-2.5817 Z-0.0734
N960 X-2.5778 Z-0.0735
N965 X-2.5736 Y2.5253 Z-0.0736
N970 X-2.5696 Y2.5254 Z-0.0738
N975 X-2.5658 Y2.5255 Z-0.0739
N980 X-2.5624 Y2.5257 Z-0.074
N985 X-2.5593 Y2.5259 Z-0.0741
N990 X-2.5564 Y2.5261 Z-0.0742
N995 X-2.5538 Y2.5264 Z-0.0743
N1000 X-2.5516 Y2.5266 Z-0.0744
N1005 X-2.5496 Y2.527 Z-0.0745
N1010 X-2.548 Y2.5273
N1015 X-2.5466 Y2.5276 Z-0.0746
N1020 X-2.5456 Y2.5278
N1025 X-2.5448 Y2.5281 Z-0.0747
N1030 X-2.5438 Y2.5285
N1035 X-2.5424 Y2.529
N1040 X-2.5408 Y2.5298 Z-0.0748
N1045 X-2.5388 Y2.5307 Z-0.0749
N1050 X-2.5365 Y2.5319 Z-0.075
N1055 X-2.5339 Y2.5333 Z-0.0751
N1060 X-2.5316 Y2.5346 Z-0.0752
N1065 X-2.5314 Y2.5349
N1070 X-2.5307 Y2.5358
N1075 X-2.5305 Y2.5374 Z-0.0753
N1080 X-2.5303 Y2.5393
N1085 X-2.53 Y2.5415 Z-0.0754
N1090 X-2.5298 Y2.5436 Z-0.0755
N1095 X-2.53 Y2.5457 Z-0.0756
N1100 X-2.5303 Y2.5479
N1105 X-2.5305 Y2.5497 Z-0.0757
N1110 X-2.5307 Y2.551 Z-0.0758
N1115 X-2.5311 Y2.5516
N1120 X-2.5334 Y2.5529 Z-0.0759
N1125 X-2.536 Y2.5543 Z-0.076
N1130 X-2.5383 Y2.5555 Z-0.0761
N1135 X-2.5404 Y2.5565
N1140 X-2.542 Y2.5572 Z-0.0762
N1145 X-2.5434 Y2.5577 Z-0.0763
N1150 X-2.5444 Y2.5581
N1155 X-2.5453 Y2.5584
N1160 X-2.5464 Y2.5587 Z-0.0764
N1165 X-2.5478 Y2.559
N1170 X-2.5494 Y2.5593 Z-0.0765
N1175 X-2.5514 Y2.5596 Z-0.0766
N1180 X-2.5537 Y2.5599
N1185 X-2.5563 Y2.5601 Z-0.0767
N1190 X-2.5592 Y2.5604 Z-0.0768
N1195 X-2.5624 Y2.5605 Z-0.0769
N1200 X-2.5658 Y2.5607 Z-0.0771
N1205 X-2.5695 Y2.5608 Z-0.0772
N1210 X-2.5735 Y2.5609 Z-0.0773
N1215 X-2.5778 Y2.561 Z-0.0775
N1220 X-2.5818 Z-0.0776
N1225 X-3.0142 Y2.562 Z-0.0927
N1230 X-3.0181 Y2.5619 Z-0.0928
N1235 X-3.0223 Z-0.093
N1240 X-3.0263 Y2.5618 Z-0.0931
N1245 X-3.03 Y2.5617 Z-0.0933
N1250 X-3.0335 Y2.5615 Z-0.0934
N1255 X-3.0366 Y2.5613 Z-0.0935
N1260 X-3.0395 Y2.5611 Z-0.0936
N1265 X-3.042 Y2.5608 Z-0.0937
N1270 X-3.0443 Y2.5605 Z-0.0938
N1275 X-3.0463 Y2.5602
N1280 X-3.0479 Y2.5599 Z-0.0939
N1285 X-3.0492 Y2.5596
N1290 X-3.0503 Y2.5593 Z-0.094
N1295 X-3.0511 Y2.5591
N1300 X-3.0521 Y2.5587
N1305 X-3.0534 Y2.5582 Z-0.0941
N1310 X-3.055 Y2.5574 Z-0.0942
N1315 X-3.057 Y2.5565
N1320 X-3.0593 Y2.5553 Z-0.0943
N1325 X-3.062 Y2.5538 Z-0.0944
N1330 X-3.0642 Y2.5526 Z-0.0945
N1335 X-3.0651 Y2.5514 Z-0.0946
N1340 X-3.0654 Y2.5498
N1345 X-3.0656 Y2.5479 Z-0.0947
N1350 X-3.0658 Y2.5457 Z-0.0948
N1355 X-3.066 Y2.5436
N1360 X-3.0658 Y2.5415 Z-0.0949
N1365 X-3.0656 Y2.5393 Z-0.095
N1370 X-3.0654 Y2.5374 Z-0.0951
N1375 X-3.0651 Y2.5359
N1380 X-3.0645 Y2.5349 Z-0.0952
N1385 X-3.0642 Y2.5346
N1390 X-3.0619 Y2.5333 Z-0.0953
N1395 X-3.0593 Y2.5319 Z-0.0954
N1400 X-3.057 Y2.5307 Z-0.0955
N1405 X-3.0551 Y2.5298
N1410 X-3.0534 Y2.529 Z-0.0956
N1415 X-3.0521 Y2.5285
N1420 X-3.0511 Y2.5281 Z-0.0957
N1425 X-3.0503 Y2.5278
N1430 X-3.0492 Y2.5276 Z-0.0958
N1435 X-3.0479 Y2.5273
N1440 X-3.0463 Y2.527 Z-0.0959
N1445 X-3.0443 Y2.5267
N1450 X-3.042 Y2.5264 Z-0.096
N1455 X-3.0395 Y2.5261 Z-0.0961
N1460 X-3.0366 Y2.5259 Z-0.0962
N1465 X-3.0334 Y2.5257 Z-0.0963
N1470 X-3.03 Y2.5255 Z-0.0964
N1475 X-3.0263 Y2.5254 Z-0.0966
N1480 X-3.0223 Y2.5253 Z-0.0967
N1485 X-3.0181 Y2.5252 Z-0.0968
N1490 X-3.0142 Z-0.097
N1495 X-2.8985 Z-0.101
N1500 G2 X-2.8163 Y2.443 Z-0.1055 I0. J-0.0822
N1505 G1 Y1.6598 Z-0.1329
N1510 G2 X-2.8985 Y1.5776 Z-0.1374 I-0.0822 J0.
N1515 G1 X-3.0142 Z-0.1414
N1520 X-3.0181 Z-0.1416
N1525 X-3.0223 Y1.5775 Z-0.1417
N1530 X-3.0263 Y1.5774 Z-0.1418
N1535 X-3.03 Y1.5773 Z-0.142
N1540 X-3.0335 Y1.5771 Z-0.1421
N1545 X-3.0366 Y1.5769 Z-0.1422
N1550 X-3.0395 Y1.5767 Z-0.1423
N1555 X-3.042 Y1.5765 Z-0.1424
N1560 X-3.0443 Y1.5762 Z-0.1425
N1565 X-3.0462 Y1.5759
N1570 X-3.0479 Y1.5755 Z-0.1426
N1575 X-3.0492 Y1.5752 Z-0.1427
N1580 X-3.0503 Y1.575
N1585 X-3.0511 Y1.5747
N1590 X-3.0521 Y1.5743 Z-0.1428
N1595 X-3.0534 Y1.5738
N1600 X-3.055 Y1.5731 Z-0.1429
N1605 X-3.057 Y1.5721
N1610 X-3.0593 Y1.5709 Z-0.143
N1615 X-3.062 Y1.5695 Z-0.1431
N1620 X-3.0644 Y1.5681 Z-0.1432
N1625 X-3.0647 Y1.5678 Z-0.1433
N1630 X-3.0652 Y1.5671
N1635 X-3.0654 Y1.5658
N1640 X-3.0656 Y1.564 Z-0.1434
N1645 X-3.0658 Y1.5618 Z-0.1435
N1650 X-3.066 Y1.56
N1655 X-3.0658 Y1.5581 Z-0.1436
N1660 X-3.0656 Y1.5559 Z-0.1437
N1665 X-3.0654 Y1.554
N1670 X-3.0651 Y1.5525 Z-0.1438
N1675 X-3.0644 Y1.5515
N1680 X-3.0619 Y1.5499 Z-0.1439
N1685 X-3.0593 Y1.5485 Z-0.144
N1690 X-3.057 Y1.5473 Z-0.1441
N1695 X-3.0551 Y1.5464 Z-0.1442
N1700 X-3.0534 Y1.5456 Z-0.1443
N1705 X-3.0521 Y1.5451
N1710 X-3.0511 Y1.5447 Z-0.1444
N1715 X-3.0503 Y1.5445
N1720 X-3.0492 Y1.5442
N1725 X-3.0479 Y1.5439 Z-0.1445
N1730 X-3.0462 Y1.5435
N1735 X-3.0443 Y1.5432 Z-0.1446
N1740 X-3.0421 Y1.543 Z-0.1447
N1745 X-3.0395 Y1.5427 Z-0.1448
N1750 X-3.0366 Y1.5425 Z-0.1449
N1755 X-3.0334 Y1.5423 Z-0.145
N1760 X-3.03 Y1.5421 Z-0.1451
N1765 X-3.0263 Y1.542 Z-0.1452
N1770 X-3.0223 Y1.5419 Z-0.1454
N1775 X-3.0181 Y1.5418 Z-0.1455
N1780 X-3.0142 Z-0.1457
N1785 X-2.1487 Z-0.1759
N1790 Y1.8487 Z-0.1866
N1795 Y1.8526 Z-0.1867
N1800 X-2.1488 Y1.8568 Z-0.1869
N1805 X-2.1489 Y1.8609 Z-0.187
N1810 X-2.149 Y1.8646 Z-0.1872
N1815 X-2.1492 Y1.868 Z-0.1873
N1820 X-2.1494 Y1.8711 Z-0.1874
N1825 X-2.1496 Y1.874 Z-0.1875
N1830 X-2.1498 Y1.8766 Z-0.1876
N1835 X-2.1501 Y1.8788 Z-0.1877
N1840 X-2.1504 Y1.8808
N1845 X-2.1508 Y1.8824 Z-0.1878
N1850 X-2.151 Y1.8838
N1855 X-2.1513 Y1.8848 Z-0.1879
N1860 X-2.1516 Y1.8856
N1865 X-2.1519 Y1.8866
N1870 X-2.1525 Y1.8879 Z-0.188
N1875 X-2.1532 Y1.8896
N1880 X-2.1542 Y1.8916 Z-0.1881
N1885 X-2.1554 Y1.8939 Z-0.1882
N1890 X-2.1568 Y1.8965 Z-0.1883
N1895 X-2.1582 Y1.8989 Z-0.1884
N1900 X-2.1592 Y1.8997 Z-0.1885
N1905 X-2.1604 Y1.8999
N1910 X-2.1623 Y1.9001 Z-0.1886
N1915 X-2.1645 Y1.9004 Z-0.1887
N1920 X-2.1663 Y1.9005
N1925 X-2.1681 Y1.9004 Z-0.1888
N1930 X-2.1704 Y1.9001 Z-0.1889
N1935 X-2.1723 Y1.8999
N1940 X-2.1738 Y1.8997 Z-0.189
N1945 X-2.1748 Y1.899
N1950 X-2.1763 Y1.8965 Z-0.1891
N1955 X-2.1778 Y1.8939 Z-0.1892
N1960 X-2.179 Y1.8915 Z-0.1893
N1965 X-2.18 Y1.8896 Z-0.1894
N1970 X-2.1807 Y1.8879 Z-0.1895
N1975 X-2.1812 Y1.8866
N1980 X-2.1816 Y1.8857
N1985 X-2.1818 Y1.8848 Z-0.1896
N1990 X-2.1821 Y1.8837
N1995 X-2.1824 Y1.8824 Z-0.1897
N2000 X-2.1827 Y1.8808
N2005 X-2.183 Y1.8788 Z-0.1898
N2010 X-2.1833 Y1.8766 Z-0.1899
N2015 X-2.1836 Y1.874 Z-0.19
N2020 X-2.1838 Y1.8712 Z-0.1901
N2025 X-2.184 Y1.868 Z-0.1902
N2030 X-2.1842 Y1.8645 Z-0.1903
N2035 X-2.1843 Y1.8608 Z-0.1904
N2040 X-2.1844 Y1.8568 Z-0.1906
N2045 Y1.8526 Z-0.1907
N2050 X-2.1845 Y1.8487 Z-0.1908
N2055 Y1.6598 Z-0.1974
N2060 G2 X-2.2667 Y1.5776 Z-0.2019 I-0.0822 J0.
N2065 G1 X-2.6983 Z-0.217
N2070 G2 X-2.7805 Y1.6598 Z-0.2215 I0. J0.0822
N2075 G1 Y2.443 Z-0.2489
N2080 G2 X-2.6983 Y2.5252 Z-0.2534 I0.0822 J0.
N2085 G1 X-2.5817 Z-0.2575
N2090 X-2.5778 Z-0.2576
N2095 X-2.5736 Y2.5253 Z-0.2577
N2100 X-2.5696 Y2.5254 Z-0.2579
N2105 X-2.5658 Y2.5255 Z-0.258
N2110 X-2.5624 Y2.5257 Z-0.2581
N2115 X-2.5593 Y2.5259 Z-0.2582
N2120 X-2.5564 Y2.5261 Z-0.2583
N2125 X-2.5538 Y2.5264 Z-0.2584
N2130 X-2.5516 Y2.5266 Z-0.2585
N2135 X-2.5496 Y2.527 Z-0.2586
N2140 X-2.548 Y2.5273
N2145 X-2.5466 Y2.5276 Z-0.2587
N2150 X-2.5456 Y2.5278
N2155 X-2.5448 Y2.5281 Z-0.2588
N2160 X-2.5438 Y2.5285
N2165 X-2.5424 Y2.529
N2170 X-2.5408 Y2.5298 Z-0.2589
N2175 X-2.5388 Y2.5307 Z-0.259
N2180 X-2.5365 Y2.5319 Z-0.2591
N2185 X-2.5339 Y2.5333 Z-0.2592
N2190 X-2.5316 Y2.5346 Z-0.2593
N2195 X-2.5314 Y2.5349
N2200 X-2.5307 Y2.5358
N2205 X-2.5305 Y2.5374 Z-0.2594
N2210 X-2.5303 Y2.5393
N2215 X-2.53 Y2.5415 Z-0.2595
N2220 X-2.5298 Y2.5436 Z-0.2596
N2225 X-2.53 Y2.5457 Z-0.2597
N2230 X-2.5303 Y2.5479
N2235 X-2.5305 Y2.5497 Z-0.2598
N2240 X-2.5307 Y2.551 Z-0.2599
N2245 X-2.5311 Y2.5516
N2250 X-2.5334 Y2.5529 Z-0.26
N2255 X-2.536 Y2.5543 Z-0.2601
N2260 X-2.5383 Y2.5555 Z-0.2602
N2265 X-2.5404 Y2.5565
N2270 X-2.542 Y2.5572 Z-0.2603
N2275 X-2.5434 Y2.5577 Z-0.2604
N2280 X-2.5444 Y2.5581
N2285 X-2.5453 Y2.5584
N2290 X-2.5464 Y2.5587 Z-0.2605
N2295 X-2.5478 Y2.559
N2300 X-2.5494 Y2.5593 Z-0.2606
N2305 X-2.5514 Y2.5596
N2310 X-2.5537 Y2.5599 Z-0.2607
N2315 X-2.5563 Y2.5601 Z-0.2608
N2320 X-2.5592 Y2.5604 Z-0.2609
N2325 X-2.5624 Y2.5605 Z-0.261
N2330 X-2.5658 Y2.5607 Z-0.2612
N2335 X-2.5695 Y2.5608 Z-0.2613
N2340 X-2.5735 Y2.5609 Z-0.2614
N2345 X-2.5778 Y2.561 Z-0.2616
N2350 X-2.5818 Z-0.2617
N2355 X-2.8102 Y2.5615 Z-0.2697
N2360 X-3.0142 Y2.562 F39.37
N2365 X-3.0181 Y2.5619
N2370 X-3.0223
N2375 X-3.0263 Y2.5618
N2380 X-3.03 Y2.5617
N2385 X-3.0335 Y2.5615
N2390 X-3.0366 Y2.5613
N2395 X-3.0395 Y2.5611
N2400 X-3.042 Y2.5608
N2405 X-3.0443 Y2.5605
N2410 X-3.0463 Y2.5602
N2415 X-3.0479 Y2.5599
N2420 X-3.0492 Y2.5596
N2425 X-3.0503 Y2.5593
N2430 X-3.0511 Y2.5591
N2435 X-3.0521 Y2.5587
N2440 X-3.0534 Y2.5582
N2445 X-3.055 Y2.5574
N2450 X-3.057 Y2.5565
N2455 X-3.0593 Y2.5553
N2460 X-3.062 Y2.5538
N2465 X-3.0642 Y2.5526 F9.843
N2470 X-3.0651 Y2.5514
N2475 X-3.0654 Y2.5498
N2480 X-3.0656 Y2.5479 F39.37
N2485 X-3.0658 Y2.5457
N2490 X-3.066 Y2.5436
N2495 X-3.0658 Y2.5415
N2500 X-3.0656 Y2.5393
N2505 X-3.0654 Y2.5374 F9.843
N2510 X-3.0651 Y2.5359
N2515 X-3.0645 Y2.5349
N2520 X-3.0642 Y2.5346
N2525 X-3.0619 Y2.5333 F39.37
N2530 X-3.0593 Y2.5319
N2535 X-3.057 Y2.5307
N2540 X-3.0551 Y2.5298
N2545 X-3.0534 Y2.529
N2550 X-3.0521 Y2.5285
N2555 X-3.0511 Y2.5281
N2560 X-3.0503 Y2.5278
N2565 X-3.0492 Y2.5276
N2570 X-3.0479 Y2.5273
N2575 X-3.0463 Y2.527
N2580 X-3.0443 Y2.5267
N2585 X-3.042 Y2.5264
N2590 X-3.0395 Y2.5261
N2595 X-3.0366 Y2.5259
N2600 X-3.0334 Y2.5257
N2605 X-3.03 Y2.5255
N2610 X-3.0263 Y2.5254
N2615 X-3.0223 Y2.5253
N2620 X-3.0181 Y2.5252
N2625 X-3.0142
N2630 X-2.8985
N2635 G2 X-2.8163 Y2.443 I0. J-0.0822
N2640 G1 Y1.6598
N2645 G2 X-2.8985 Y1.5776 I-0.0822 J0.
N2650 G1 X-3.0142
N2655 X-3.0181
N2660 X-3.0223 Y1.5775
N2665 X-3.0263 Y1.5774
N2670 X-3.03 Y1.5773
N2675 X-3.0335 Y1.5771
N2680 X-3.0366 Y1.5769
N2685 X-3.0395 Y1.5767
N2690 X-3.042 Y1.5765
N2695 X-3.0443 Y1.5762
N2700 X-3.0462 Y1.5759
N2705 X-3.0479 Y1.5755
N2710 X-3.0492 Y1.5752
N2715 X-3.0503 Y1.575
N2720 X-3.0511 Y1.5747
N2725 X-3.0521 Y1.5743
N2730 X-3.0534 Y1.5738
N2735 X-3.055 Y1.5731
N2740 X-3.057 Y1.5721
N2745 X-3.0593 Y1.5709
N2750 X-3.062 Y1.5695
N2755 X-3.0644 Y1.5681 F9.843
N2760 X-3.0647 Y1.5678
N2765 X-3.0652 Y1.5671
N2770 X-3.0654 Y1.5658
N2775 X-3.0656 Y1.564 F39.37
N2780 X-3.0658 Y1.5618
N2785 X-3.066 Y1.56
N2790 X-3.0658 Y1.5581
N2795 X-3.0656 Y1.5559
N2800 X-3.0654 Y1.554 F9.843
N2805 X-3.0651 Y1.5525
N2810 X-3.0644 Y1.5515
N2815 X-3.0619 Y1.5499 F39.37
N2820 X-3.0593 Y1.5485
N2825 X-3.057 Y1.5473
N2830 X-3.0551 Y1.5464
N2835 X-3.0534 Y1.5456
N2840 X-3.0521 Y1.5451
N2845 X-3.0511 Y1.5447
N2850 X-3.0503 Y1.5445
N2855 X-3.0492 Y1.5442
N2860 X-3.0479 Y1.5439
N2865 X-3.0462 Y1.5435
N2870 X-3.0443 Y1.5432
N2875 X-3.0421 Y1.543
N2880 X-3.0395 Y1.5427
N2885 X-3.0366 Y1.5425
N2890 X-3.0334 Y1.5423
N2895 X-3.03 Y1.5421
N2900 X-3.0263 Y1.542
N2905 X-3.0223 Y1.5419
N2910 X-3.0181 Y1.5418
N2915 X-3.0142
N2920 X-2.1737
N2925 X-2.1487 F9.843
N2930 Y1.8487 F39.37
N2935 Y1.8526
N2940 X-2.1488 Y1.8568
N2945 X-2.1489 Y1.8609
N2950 X-2.149 Y1.8646
N2955 X-2.1492 Y1.868
N2960 X-2.1494 Y1.8711
N2965 X-2.1496 Y1.874
N2970 X-2.1498 Y1.8766
N2975 X-2.1501 Y1.8788
N2980 X-2.1504 Y1.8808
N2985 X-2.1508 Y1.8824
N2990 X-2.151 Y1.8838
N2995 X-2.1513 Y1.8848
N3000 X-2.1516 Y1.8856
N3005 X-2.1519 Y1.8866
N3010 X-2.1525 Y1.8879
N3015 X-2.1532 Y1.8896
N3020 X-2.1542 Y1.8916
N3025 X-2.1554 Y1.8939
N3030 X-2.1568 Y1.8965
N3035 X-2.1582 Y1.8989 F9.843
N3040 X-2.1592 Y1.8997
N3045 X-2.1604 Y1.8999
N3050 X-2.1623 Y1.9001 F39.37
N3055 X-2.1645 Y1.9004
N3060 X-2.1663 Y1.9005
N3065 X-2.1681 Y1.9004
N3070 X-2.1704 Y1.9001
N3075 X-2.1723 Y1.8999 F9.843
N3080 X-2.1738 Y1.8997
N3085 X-2.1748 Y1.899
N3090 X-2.1763 Y1.8965 F39.37
N3095 X-2.1778 Y1.8939
N3100 X-2.179 Y1.8915
N3105 X-2.18 Y1.8896
N3110 X-2.1807 Y1.8879
N3115 X-2.1812 Y1.8866
N3120 X-2.1816 Y1.8857
N3125 X-2.1818 Y1.8848
N3130 X-2.1821 Y1.8837
N3135 X-2.1824 Y1.8824
N3140 X-2.1827 Y1.8808
N3145 X-2.183 Y1.8788
N3150 X-2.1833 Y1.8766
N3155 X-2.1836 Y1.874
N3160 X-2.1838 Y1.8712
N3165 X-2.184 Y1.868
N3170 X-2.1842 Y1.8645
N3175 X-2.1843 Y1.8608
N3180 X-2.1844 Y1.8568
N3185 Y1.8526
N3190 X-2.1845 Y1.8487
N3195 Y1.6598
N3200 G2 X-2.2667 Y1.5776 I-0.0822 J0.
N3205 G1 X-2.6983
N3210 G2 X-2.7805 Y1.6598 I0. J0.0822
N3215 G1 Y2.443
N3220 G2 X-2.6983 Y2.5252 I0.0822 J0.
N3225 G1 X-2.5817
N3230 X-2.5778
N3235 X-2.5736 Y2.5253
N3240 X-2.5696 Y2.5254
N3245 X-2.5658 Y2.5255
N3250 X-2.5624 Y2.5257
N3255 X-2.5593 Y2.5259
N3260 X-2.5564 Y2.5261
N3265 X-2.5538 Y2.5264
N3270 X-2.5516 Y2.5266
N3275 X-2.5496 Y2.527
N3280 X-2.548 Y2.5273
N3285 X-2.5466 Y2.5276
N3290 X-2.5456 Y2.5278
N3295 X-2.5448 Y2.5281
N3300 X-2.5438 Y2.5285
N3305 X-2.5424 Y2.529
N3310 X-2.5408 Y2.5298
N3315 X-2.5388 Y2.5307
N3320 X-2.5365 Y2.5319
N3325 X-2.5339 Y2.5333
N3330 X-2.5316 Y2.5346 F9.843
N3335 X-2.5314 Y2.5349
N3340 X-2.5307 Y2.5358
N3345 X-2.5305 Y2.5374
N3350 X-2.5303 Y2.5393 F39.37
N3355 X-2.53 Y2.5415
N3360 X-2.5298 Y2.5436
N3365 X-2.53 Y2.5457
N3370 X-2.5303 Y2.5479 F9.843
N3375 X-2.5305 Y2.5497
N3380 X-2.5307 Y2.551
N3385 X-2.5311 Y2.5516
N3390 X-2.5334 Y2.5529 F39.37
N3395 X-2.536 Y2.5543
N3400 X-2.5383 Y2.5555
N3405 X-2.5404 Y2.5565
N3410 X-2.542 Y2.5572
N3415 X-2.5434 Y2.5577
N3420 X-2.5444 Y2.5581
N3425 X-2.5453 Y2.5584
N3430 X-2.5464 Y2.5587
N3435 X-2.5478 Y2.559
N3440 X-2.5494 Y2.5593
N3445 X-2.5514 Y2.5596
N3450 X-2.5537 Y2.5599
N3455 X-2.5563 Y2.5601
N3460 X-2.5592 Y2.5604
N3465 X-2.5624 Y2.5605
N3470 X-2.5658 Y2.5607
N3475 X-2.5695 Y2.5608
N3480 X-2.5735 Y2.5609
N3485 X-2.5778 Y2.561
N3490 X-2.5818
N3495 X-2.8102 Y2.5615
N3500 X-2.8126 Y2.5613 Z-0.2692
N3505 X-2.8149 Y2.5606 Z-0.2687
N3510 X-2.8167 Y2.5597 Z-0.2674
N3515 X-2.8183 Y2.5586 Z-0.266
N3520 X-2.8202 Y2.5566 Z-0.262
N3525 X-2.8207 Y2.5558 Z-0.2572
N3530 Z0.5906
N3535 X-1.3967 Y1.8205
N3540 Z0.1969
N3545 Z0.1109
N3550 G19 G3 Y1.8325 Z0.0984 J0.0125 K0. F13.123
N3555 G1 Y2.443 Z0.0771
N3560 G17 G2 X-1.3145 Y2.5252 Z0.0726 I0.0822 J0.
N3565 G1 X-1.1129 Z0.0656
N3570 X-1.109 Z0.0654
N3575 X-1.1048 Y2.5253 Z0.0653
N3580 X-1.1008 Y2.5254 Z0.0651
N3585 X-1.0971 Y2.5255 Z0.065
N3590 X-1.0937 Y2.5257 Z0.0649
N3595 X-1.0905 Y2.5259 Z0.0648
N3600 X-1.0876 Y2.5261 Z0.0647
N3605 X-1.0851 Y2.5264 Z0.0646
N3610 X-1.0829 Y2.5266 Z0.0645
N3615 X-1.0809 Y2.527 Z0.0644
N3620 X-1.0792 Y2.5273
N3625 X-1.0779 Y2.5276 Z0.0643
N3630 X-1.0768 Y2.5278
N3635 X-1.076 Y2.5281
N3640 X-1.075 Y2.5285 Z0.0642
N3645 X-1.0737 Y2.529
N3650 X-1.0721 Y2.5298 Z0.0641
N3655 X-1.0701 Y2.5307 Z0.064
N3660 X-1.0678 Y2.5319 Z0.0639
N3665 X-1.0652 Y2.5333 Z0.0638
N3670 X-1.0629 Y2.5346
N3675 X-1.0627 Y2.5349 Z0.0637
N3680 X-1.062 Y2.5358
N3685 X-1.0618 Y2.5374 Z0.0636
N3690 X-1.0615 Y2.5393
N3695 X-1.0613 Y2.5415 Z0.0635
N3700 X-1.0611 Y2.5436 Z0.0634
N3705 X-1.0613 Y2.5457
N3710 X-1.0615 Y2.5479 Z0.0633
N3715 X-1.0617 Y2.5497 Z0.0632
N3720 X-1.0619 Y2.551
N3725 X-1.0624 Y2.5516 Z0.0631
N3730 X-1.0646 Y2.5529 Z0.063
N3735 X-1.0673 Y2.5543 Z0.0629
N3740 X-1.0696 Y2.5555
N3745 X-1.0716 Y2.5565 Z0.0628
N3750 X-1.0733 Y2.5572 Z0.0627
N3755 X-1.0746 Y2.5577
N3760 X-1.0756 Y2.5581 Z0.0626
N3765 X-1.0766 Y2.5584
N3770 X-1.0777 Y2.5587 Z0.0625
N3775 X-1.079 Y2.559
N3780 X-1.0807 Y2.5593 Z0.0624
N3785 X-1.0827 Y2.5596
N3790 X-1.085 Y2.5599 Z0.0623
N3795 X-1.0875 Y2.5601 Z0.0622
N3800 X-1.0904 Y2.5604 Z0.0621
N3805 X-1.0936 Y2.5605 Z0.062
N3810 X-1.0971 Y2.5607 Z0.0619
N3815 X-1.1008 Y2.5608 Z0.0617
N3820 X-1.1048 Y2.5609 Z0.0616
N3825 X-1.109 Y2.561 Z0.0614
N3830 X-1.113 Z0.0613
N3835 X-1.7163 Y2.562 Z0.0402
N3840 X-1.7202 Y2.5619 Z0.0401
N3845 X-1.7245 Z0.04
N3850 X-1.7284 Y2.5618 Z0.0398
N3855 X-1.7321 Y2.5617 Z0.0397
N3860 X-1.7356 Y2.5615 Z0.0396
N3865 X-1.7388 Y2.5613 Z0.0395
N3870 X-1.7416 Y2.5611 Z0.0394
N3875 X-1.7442 Y2.5608 Z0.0393
N3880 X-1.7464 Y2.5605 Z0.0392
N3885 X-1.7484 Y2.5602 Z0.0391
N3890 X-1.75 Y2.5599
N3895 X-1.7514 Y2.5596 Z0.039
N3900 X-1.7524 Y2.5593
N3905 X-1.7533 Y2.5591 Z0.0389
N3910 X-1.7543 Y2.5587
N3915 X-1.7556 Y2.5582
N3920 X-1.7572 Y2.5574 Z0.0388
N3925 X-1.7592 Y2.5565 Z0.0387
N3930 X-1.7615 Y2.5553 Z0.0386
N3935 X-1.7641 Y2.5538 Z0.0385
N3940 X-1.7664 Y2.5526 Z0.0384
N3945 X-1.7673 Y2.5514
N3950 X-1.7675 Y2.5498 Z0.0383
N3955 X-1.7677 Y2.5479
N3960 X-1.768 Y2.5456 Z0.0382
N3965 X-1.7682 Y2.5436 Z0.0381
N3970 X-1.768 Y2.5415 Z0.038
N3975 X-1.7677 Y2.5393
N3980 X-1.7675 Y2.5374 Z0.0379
N3985 X-1.7673 Y2.5359 Z0.0378
N3990 X-1.7666 Y2.5349
N3995 X-1.7664 Y2.5346
N4000 X-1.7641 Y2.5333 Z0.0377
N4005 X-1.7615 Y2.5319 Z0.0376
N4010 X-1.7592 Y2.5307 Z0.0375
N4015 X-1.7572 Y2.5298 Z0.0374
N4020 X-1.7556 Y2.529
N4025 X-1.7542 Y2.5285 Z0.0373
N4030 X-1.7533 Y2.5281
N4035 X-1.7524 Y2.5278 Z0.0372
N4040 X-1.7514 Y2.5276
N4045 X-1.7501 Y2.5273
N4050 X-1.7484 Y2.527 Z0.0371
N4055 X-1.7464 Y2.5267 Z0.037
N4060 X-1.7442 Y2.5264 Z0.0369
N4065 X-1.7416 Y2.5261
N4070 X-1.7387 Y2.5259 Z0.0368
N4075 X-1.7356 Y2.5257 Z0.0366
N4080 X-1.7322 Y2.5255 Z0.0365
N4085 X-1.7284 Y2.5254 Z0.0364
N4090 X-1.7244 Y2.5253 Z0.0363
N4095 X-1.7202 Y2.5252 Z0.0361
N4100 X-1.7163 Z0.036
N4105 X-1.5147 Z0.0289
N4110 G2 X-1.4325 Y2.443 Z0.0244 I0. J-0.0822
N4115 G1 Y1.6598 Z-0.0029
N4120 G2 X-1.5147 Y1.5776 Z-0.0074 I-0.0822 J0.
N4125 G1 X-1.7163 Z-0.0145
N4130 X-1.7202 Z-0.0146
N4135 X-1.7245 Y1.5775 Z-0.0148
N4140 X-1.7284 Y1.5774 Z-0.0149
N4145 X-1.7321 Y1.5773 Z-0.015
N4150 X-1.7356 Y1.5771 Z-0.0151
N4155 X-1.7388 Y1.5769 Z-0.0153
N4160 X-1.7416 Y1.5767 Z-0.0154
N4165 X-1.7442 Y1.5765
N4170 X-1.7464 Y1.5762 Z-0.0155
N4175 X-1.7484 Y1.5759 Z-0.0156
N4180 X-1.75 Y1.5755 Z-0.0157
N4185 X-1.7514 Y1.5752
N4190 X-1.7524 Y1.575
N4195 X-1.7533 Y1.5747 Z-0.0158
N4200 X-1.7543 Y1.5743
N4205 X-1.7556 Y1.5738 Z-0.0159
N4210 X-1.7572 Y1.5731
N4215 X-1.7592 Y1.5721 Z-0.016
N4220 X-1.7615 Y1.5709 Z-0.0161
N4225 X-1.7641 Y1.5695 Z-0.0162
N4230 X-1.7665 Y1.5681 Z-0.0163
N4235 X-1.7668 Y1.5678
N4240 X-1.7673 Y1.5671
N4245 X-1.7675 Y1.5658 Z-0.0164
N4250 X-1.7677 Y1.564
N4255 X-1.768 Y1.5618 Z-0.0165
N4260 X-1.7682 Y1.56 Z-0.0166
N4265 X-1.768 Y1.5581
N4270 X-1.7677 Y1.5559 Z-0.0167
N4275 X-1.7675 Y1.554 Z-0.0168
N4280 X-1.7673 Y1.5525
N4285 X-1.7666 Y1.5515 Z-0.0169
N4290 X-1.7641 Y1.5499 Z-0.017
N4295 X-1.7615 Y1.5485 Z-0.0171
N4300 X-1.7592 Y1.5473 Z-0.0172
N4305 X-1.7572 Y1.5464 Z-0.0173
N4310 X-1.7556 Y1.5456
N4315 X-1.7542 Y1.5451 Z-0.0174
N4320 X-1.7533 Y1.5447
N4325 X-1.7524 Y1.5445
N4330 X-1.7514 Y1.5442 Z-0.0175
N4335 X-1.75 Y1.5439
N4340 X-1.7484 Y1.5435 Z-0.0176
N4345 X-1.7464 Y1.5432 Z-0.0177
N4350 X-1.7442 Y1.543
N4355 X-1.7416 Y1.5427 Z-0.0178
N4360 X-1.7387 Y1.5425 Z-0.0179
N4365 X-1.7356 Y1.5423 Z-0.018
N4370 X-1.7321 Y1.5421 Z-0.0182
N4375 X-1.7284 Y1.542 Z-0.0183
N4380 X-1.7245 Y1.5419 Z-0.0184
N4385 X-1.7202 Y1.5418 Z-0.0186
N4390 X-1.7163 Z-0.0187
N4395 X-1.1129 Z-0.0398
N4400 X-1.109 Z-0.0399
N4405 X-1.1048 Y1.5419 Z-0.0401
N4410 X-1.1008 Y1.542 Z-0.0402
N4415 X-1.0971 Y1.5421 Z-0.0403
N4420 X-1.0937 Y1.5423 Z-0.0405
N4425 X-1.0905 Y1.5425 Z-0.0406
N4430 X-1.0876 Y1.5427 Z-0.0407
N4435 X-1.0851 Y1.543 Z-0.0408
N4440 X-1.0828 Y1.5432
N4445 X-1.0809 Y1.5435 Z-0.0409
N4450 X-1.0792 Y1.5439 Z-0.041
N4455 X-1.0779 Y1.5442
N4460 X-1.0768 Y1.5445
N4465 X-1.076 Y1.5447 Z-0.0411
N4470 X-1.075 Y1.5451
N4475 X-1.0737 Y1.5456 Z-0.0412
N4480 X-1.0721 Y1.5464
N4485 X-1.0701 Y1.5473 Z-0.0413
N4490 X-1.0678 Y1.5485 Z-0.0414
N4495 X-1.0652 Y1.5499 Z-0.0415
N4500 X-1.0627 Y1.5513 Z-0.0416
N4505 X-1.0625 Y1.5516
N4510 X-1.0619 Y1.5523
N4515 X-1.0618 Y1.5536 Z-0.0417
N4520 X-1.0615 Y1.5554 Z-0.0418
N4525 X-1.0613 Y1.5576
N4530 X-1.0611 Y1.5594 Z-0.0419
N4535 X-1.0613 Y1.5613 Z-0.042
N4540 X-1.0615 Y1.5635
N4545 X-1.0618 Y1.5654 Z-0.0421
N4550 X-1.062 Y1.5669 Z-0.0422
N4555 X-1.0627 Y1.5679
N4560 X-1.0652 Y1.5695 Z-0.0423
N4565 X-1.0678 Y1.5709 Z-0.0424
N4570 X-1.0701 Y1.5721 Z-0.0425
N4575 X-1.0721 Y1.5731 Z-0.0426
N4580 X-1.0737 Y1.5738
N4585 X-1.075 Y1.5743 Z-0.0427
N4590 X-1.076 Y1.5747
N4595 X-1.0768 Y1.575 Z-0.0428
N4600 X-1.0779 Y1.5752
N4605 X-1.0792 Y1.5755
N4610 X-1.0809 Y1.5759 Z-0.0429
N4615 X-1.0828 Y1.5762 Z-0.043
N4620 X-1.0851 Y1.5765
N4625 X-1.0877 Y1.5767 Z-0.0431
N4630 X-1.0905 Y1.5769 Z-0.0432
N4635 X-1.0936 Y1.5771 Z-0.0433
N4640 X-1.0971 Y1.5773 Z-0.0435
N4645 X-1.1008 Y1.5774 Z-0.0436
N4650 X-1.1048 Y1.5775 Z-0.0437
N4655 X-1.109 Y1.5776 Z-0.0439
N4660 X-1.1129 Z-0.044
N4665 X-1.3145 Z-0.0511
N4670 G2 X-1.3967 Y1.6598 Z-0.0556 I0. J0.0822
N4675 G1 Y2.443 Z-0.0829
N4680 G2 X-1.3145 Y2.5252 Z-0.0874 I0.0822 J0.
N4685 G1 X-1.1129 Z-0.0945
N4690 X-1.109 Z-0.0946
N4695 X-1.1048 Y2.5253 Z-0.0947
N4700 X-1.1008 Y2.5254 Z-0.0949
N4705 X-1.0971 Y2.5255 Z-0.095
N4710 X-1.0937 Y2.5257 Z-0.0951
N4715 X-1.0905 Y2.5259 Z-0.0952
N4720 X-1.0876 Y2.5261 Z-0.0953
N4725 X-1.0851 Y2.5264 Z-0.0954
N4730 X-1.0829 Y2.5266 Z-0.0955
N4735 X-1.0809 Y2.527 Z-0.0956
N4740 X-1.0792 Y2.5273
N4745 X-1.0779 Y2.5276 Z-0.0957
N4750 X-1.0768 Y2.5278
N4755 X-1.076 Y2.5281 Z-0.0958
N4760 X-1.075 Y2.5285
N4765 X-1.0737 Y2.529
N4770 X-1.0721 Y2.5298 Z-0.0959
N4775 X-1.0701 Y2.5307 Z-0.096
N4780 X-1.0678 Y2.5319 Z-0.0961
N4785 X-1.0652 Y2.5333 Z-0.0962
N4790 X-1.0629 Y2.5346 Z-0.0963
N4795 X-1.0627 Y2.5349
N4800 X-1.062 Y2.5358
N4805 X-1.0618 Y2.5374 Z-0.0964
N4810 X-1.0615 Y2.5393
N4815 X-1.0613 Y2.5415 Z-0.0965
N4820 X-1.0611 Y2.5436 Z-0.0966
N4825 X-1.0613 Y2.5457 Z-0.0967
N4830 X-1.0615 Y2.5479 Z-0.0968
N4835 X-1.0617 Y2.5497
N4840 X-1.0619 Y2.551 Z-0.0969
N4845 X-1.0624 Y2.5516
N4850 X-1.0646 Y2.5529 Z-0.097
N4855 X-1.0673 Y2.5543 Z-0.0971
N4860 X-1.0696 Y2.5555 Z-0.0972
N4865 X-1.0716 Y2.5565 Z-0.0973
N4870 X-1.0733 Y2.5572
N4875 X-1.0746 Y2.5577 Z-0.0974
N4880 X-1.0756 Y2.5581
N4885 X-1.0766 Y2.5584
N4890 X-1.0777 Y2.5587 Z-0.0975
N4895 X-1.079 Y2.559
N4900 X-1.0807 Y2.5593 Z-0.0976
N4905 X-1.0827 Y2.5596 Z-0.0977
N4910 X-1.085 Y2.5599
N4915 X-1.0875 Y2.5601 Z-0.0978
N4920 X-1.0904 Y2.5604 Z-0.0979
N4925 X-1.0936 Y2.5605 Z-0.098
N4930 X-1.0971 Y2.5607 Z-0.0982
N4935 X-1.1008 Y2.5608 Z-0.0983
N4940 X-1.1048 Y2.5609 Z-0.0984
N4945 X-1.109 Y2.561 Z-0.0986
N4950 X-1.113 Z-0.0987
N4955 X-1.7163 Y2.562 Z-0.1198
N4960 X-1.7202 Y2.5619 Z-0.1199
N4965 X-1.7245 Z-0.1201
N4970 X-1.7284 Y2.5618 Z-0.1202
N4975 X-1.7321 Y2.5617 Z-0.1203
N4980 X-1.7356 Y2.5615 Z-0.1205
N4985 X-1.7388 Y2.5613 Z-0.1206
N4990 X-1.7416 Y2.5611 Z-0.1207
N4995 X-1.7442 Y2.5608 Z-0.1208
N5000 X-1.7464 Y2.5605
N5005 X-1.7484 Y2.5602 Z-0.1209
N5010 X-1.75 Y2.5599 Z-0.121
N5015 X-1.7514 Y2.5596
N5020 X-1.7524 Y2.5593 Z-0.1211
N5025 X-1.7533 Y2.5591
N5030 X-1.7543 Y2.5587
N5035 X-1.7556 Y2.5582 Z-0.1212
N5040 X-1.7572 Y2.5574
N5045 X-1.7592 Y2.5565 Z-0.1213
N5050 X-1.7615 Y2.5553 Z-0.1214
N5055 X-1.7641 Y2.5538 Z-0.1215
N5060 X-1.7664 Y2.5526 Z-0.1216
N5065 X-1.7673 Y2.5514
N5070 X-1.7675 Y2.5498 Z-0.1217
N5075 X-1.7677 Y2.5479 Z-0.1218
N5080 X-1.768 Y2.5456
N5085 X-1.7682 Y2.5436 Z-0.1219
N5090 X-1.768 Y2.5415 Z-0.122
N5095 X-1.7677 Y2.5393 Z-0.1221
N5100 X-1.7675 Y2.5374
N5105 X-1.7673 Y2.5359 Z-0.1222
N5110 X-1.7666 Y2.5349
N5115 X-1.7664 Y2.5346
N5120 X-1.7641 Y2.5333 Z-0.1223
N5125 X-1.7615 Y2.5319 Z-0.1224
N5130 X-1.7592 Y2.5307 Z-0.1225
N5135 X-1.7572 Y2.5298 Z-0.1226
N5140 X-1.7556 Y2.529 Z-0.1227
N5145 X-1.7542 Y2.5285
N5150 X-1.7533 Y2.5281 Z-0.1228
N5155 X-1.7524 Y2.5278
N5160 X-1.7514 Y2.5276
N5165 X-1.7501 Y2.5273 Z-0.1229
N5170 X-1.7484 Y2.527
N5175 X-1.7464 Y2.5267 Z-0.123
N5180 X-1.7442 Y2.5264 Z-0.1231
N5185 X-1.7416 Y2.5261 Z-0.1232
N5190 X-1.7387 Y2.5259 Z-0.1233
N5195 X-1.7356 Y2.5257 Z-0.1234
N5200 X-1.7322 Y2.5255 Z-0.1235
N5205 X-1.7284 Y2.5254 Z-0.1236
N5210 X-1.7244 Y2.5253 Z-0.1238
N5215 X-1.7202 Y2.5252 Z-0.1239
N5220 X-1.7163 Z-0.1241
N5225 X-1.5147 Z-0.1311
N5230 G2 X-1.4325 Y2.443 Z-0.1356 I0. J-0.0822
N5235 G1 Y1.6598 Z-0.163
N5240 G2 X-1.5147 Y1.5776 Z-0.1675 I-0.0822 J0.
N5245 G1 X-1.7163 Z-0.1745
N5250 X-1.7202 Z-0.1746
N5255 X-1.7245 Y1.5775 Z-0.1748
N5260 X-1.7284 Y1.5774 Z-0.1749
N5265 X-1.7321 Y1.5773 Z-0.1751
N5270 X-1.7356 Y1.5771 Z-0.1752
N5275 X-1.7388 Y1.5769 Z-0.1753
N5280 X-1.7416 Y1.5767 Z-0.1754
N5285 X-1.7442 Y1.5765 Z-0.1755
N5290 X-1.7464 Y1.5762 Z-0.1756
N5295 X-1.7484 Y1.5759
N5300 X-1.75 Y1.5755 Z-0.1757
N5305 X-1.7514 Y1.5752
N5310 X-1.7524 Y1.575 Z-0.1758
N5315 X-1.7533 Y1.5747
N5320 X-1.7543 Y1.5743
N5325 X-1.7556 Y1.5738 Z-0.1759
N5330 X-1.7572 Y1.5731
N5335 X-1.7592 Y1.5721 Z-0.176
N5340 X-1.7615 Y1.5709 Z-0.1761
N5345 X-1.7641 Y1.5695 Z-0.1762
N5350 X-1.7665 Y1.5681 Z-0.1763
N5355 X-1.7668 Y1.5678
N5360 X-1.7673 Y1.5671 Z-0.1764
N5365 X-1.7675 Y1.5658
N5370 X-1.7677 Y1.564 Z-0.1765
N5375 X-1.768 Y1.5618
N5380 X-1.7682 Y1.56 Z-0.1766
N5385 X-1.768 Y1.5581 Z-0.1767
N5390 X-1.7677 Y1.5559 Z-0.1768
N5395 X-1.7675 Y1.554
N5400 X-1.7673 Y1.5525 Z-0.1769
N5405 X-1.7666 Y1.5515
N5410 X-1.7641 Y1.5499 Z-0.177
N5415 X-1.7615 Y1.5485 Z-0.1771
N5420 X-1.7592 Y1.5473 Z-0.1772
N5425 X-1.7572 Y1.5464 Z-0.1773
N5430 X-1.7556 Y1.5456 Z-0.1774
N5435 X-1.7542 Y1.5451
N5440 X-1.7533 Y1.5447
N5445 X-1.7524 Y1.5445 Z-0.1775
N5450 X-1.7514 Y1.5442
N5455 X-1.75 Y1.5439 Z-0.1776
N5460 X-1.7484 Y1.5435
N5465 X-1.7464 Y1.5432 Z-0.1777
N5470 X-1.7442 Y1.543 Z-0.1778
N5475 X-1.7416 Y1.5427 Z-0.1779
N5480 X-1.7387 Y1.5425 Z-0.178
N5485 X-1.7356 Y1.5423 Z-0.1781
N5490 X-1.7321 Y1.5421 Z-0.1782
N5495 X-1.7284 Y1.542 Z-0.1783
N5500 X-1.7245 Y1.5419 Z-0.1785
N5505 X-1.7202 Y1.5418 Z-0.1786
N5510 X-1.7163 Z-0.1787
N5515 X-1.1129 Z-0.1998
N5520 X-1.109 Z-0.1999
N5525 X-1.1048 Y1.5419 Z-0.2001
N5530 X-1.1008 Y1.542 Z-0.2002
N5535 X-1.0971 Y1.5421 Z-0.2004
N5540 X-1.0937 Y1.5423 Z-0.2005
N5545 X-1.0905 Y1.5425 Z-0.2006
N5550 X-1.0876 Y1.5427 Z-0.2007
N5555 X-1.0851 Y1.543 Z-0.2008
N5560 X-1.0828 Y1.5432 Z-0.2009
N5565 X-1.0809 Y1.5435
N5570 X-1.0792 Y1.5439 Z-0.201
N5575 X-1.0779 Y1.5442
N5580 X-1.0768 Y1.5445 Z-0.2011
N5585 X-1.076 Y1.5447
N5590 X-1.075 Y1.5451
N5595 X-1.0737 Y1.5456 Z-0.2012
N5600 X-1.0721 Y1.5464 Z-0.2013
N5605 X-1.0701 Y1.5473
N5610 X-1.0678 Y1.5485 Z-0.2014
N5615 X-1.0652 Y1.5499 Z-0.2015
N5620 X-1.0627 Y1.5513 Z-0.2016
N5625 X-1.0625 Y1.5516
N5630 X-1.0619 Y1.5523 Z-0.2017
N5635 X-1.0618 Y1.5536
N5640 X-1.0615 Y1.5554 Z-0.2018
N5645 X-1.0613 Y1.5576 Z-0.2019
N5650 X-1.0611 Y1.5594
N5655 X-1.0613 Y1.5613 Z-0.202
N5660 X-1.0615 Y1.5635 Z-0.2021
N5665 X-1.0618 Y1.5654
N5670 X-1.062 Y1.5669 Z-0.2022
N5675 X-1.0627 Y1.5679
N5680 X-1.0652 Y1.5695 Z-0.2023
N5685 X-1.0678 Y1.5709 Z-0.2024
N5690 X-1.0701 Y1.5721 Z-0.2025
N5695 X-1.0721 Y1.5731 Z-0.2026
N5700 X-1.0737 Y1.5738 Z-0.2027
N5705 X-1.075 Y1.5743
N5710 X-1.076 Y1.5747
N5715 X-1.0768 Y1.575 Z-0.2028
N5720 X-1.0779 Y1.5752
N5725 X-1.0792 Y1.5755 Z-0.2029
N5730 X-1.0809 Y1.5759
N5735 X-1.0828 Y1.5762 Z-0.203
N5740 X-1.0851 Y1.5765 Z-0.2031
N5745 X-1.0877 Y1.5767 Z-0.2032
N5750 X-1.0905 Y1.5769 Z-0.2033
N5755 X-1.0936 Y1.5771 Z-0.2034
N5760 X-1.0971 Y1.5773 Z-0.2035
N5765 X-1.1008 Y1.5774 Z-0.2036
N5770 X-1.1048 Y1.5775 Z-0.2038
N5775 X-1.109 Y1.5776 Z-0.2039
N5780 X-1.1129 Z-0.204
N5785 X-1.3145 Z-0.2111
N5790 G2 X-1.3967 Y1.6598 Z-0.2156 I0. J0.0822
N5795 G1 Y2.443 Z-0.2429
N5800 G2 X-1.3145 Y2.5252 Z-0.2474 I0.0822 J0.
N5805 G1 X-1.1129 Z-0.2545
N5810 X-1.109 Z-0.2546
N5815 X-1.1048 Y2.5253 Z-0.2548
N5820 X-1.1008 Y2.5254 Z-0.2549
N5825 X-1.0971 Y2.5255 Z-0.255
N5830 X-1.0937 Y2.5257 Z-0.2552
N5835 X-1.0905 Y2.5259 Z-0.2553
N5840 X-1.0876 Y2.5261 Z-0.2554
N5845 X-1.0851 Y2.5264 Z-0.2555
N5850 X-1.0829 Y2.5266
N5855 X-1.0809 Y2.527 Z-0.2556
N5860 X-1.0792 Y2.5273 Z-0.2557
N5865 X-1.0779 Y2.5276
N5870 X-1.0768 Y2.5278 Z-0.2558
N5875 X-1.076 Y2.5281
N5880 X-1.075 Y2.5285
N5885 X-1.0737 Y2.529 Z-0.2559
N5890 X-1.0721 Y2.5298
N5895 X-1.0701 Y2.5307 Z-0.256
N5900 X-1.0678 Y2.5319 Z-0.2561
N5905 X-1.0652 Y2.5333 Z-0.2562
N5910 X-1.0629 Y2.5346 Z-0.2563
N5915 X-1.0627 Y2.5349
N5920 X-1.062 Y2.5358
N5925 X-1.0618 Y2.5374 Z-0.2564
N5930 X-1.0615 Y2.5393 Z-0.2565
N5935 X-1.0613 Y2.5415 Z-0.2566
N5940 X-1.0611 Y2.5436
N5945 X-1.0613 Y2.5457 Z-0.2567
N5950 X-1.0615 Y2.5479 Z-0.2568
N5955 X-1.0617 Y2.5497
N5960 X-1.0619 Y2.551 Z-0.2569
N5965 X-1.0624 Y2.5516
N5970 X-1.0646 Y2.5529 Z-0.257
N5975 X-1.0673 Y2.5543 Z-0.2571
N5980 X-1.0696 Y2.5555 Z-0.2572
N5985 X-1.0716 Y2.5565 Z-0.2573
N5990 X-1.0733 Y2.5572
N5995 X-1.0746 Y2.5577 Z-0.2574
N6000 X-1.0756 Y2.5581
N6005 X-1.0766 Y2.5584 Z-0.2575
N6010 X-1.0777 Y2.5587
N6015 X-1.079 Y2.559
N6020 X-1.0807 Y2.5593 Z-0.2576
N6025 X-1.0827 Y2.5596 Z-0.2577
N6030 X-1.085 Y2.5599 Z-0.2578
N6035 X-1.0875 Y2.5601
N6040 X-1.0904 Y2.5604 Z-0.258
N6045 X-1.0936 Y2.5605 Z-0.2581
N6050 X-1.0971 Y2.5607 Z-0.2582
N6055 X-1.1008 Y2.5608 Z-0.2583
N6060 X-1.1048 Y2.5609 Z-0.2585
N6065 X-1.109 Y2.561 Z-0.2586
N6070 X-1.113 Z-0.2587
N6075 X-1.4264 Y2.5615 Z-0.2697
N6080 X-1.7163 Y2.562 F39.37
N6085 X-1.7202 Y2.5619
N6090 X-1.7245
N6095 X-1.7284 Y2.5618
N6100 X-1.7321 Y2.5617
N6105 X-1.7356 Y2.5615
N6110 X-1.7388 Y2.5613
N6115 X-1.7416 Y2.5611
N6120 X-1.7442 Y2.5608
N6125 X-1.7464 Y2.5605
N6130 X-1.7484 Y2.5602
N6135 X-1.75 Y2.5599
N6140 X-1.7514 Y2.5596
N6145 X-1.7524 Y2.5593
N6150 X-1.7533 Y2.5591
N6155 X-1.7543 Y2.5587
N6160 X-1.7556 Y2.5582
N6165 X-1.7572 Y2.5574
N6170 X-1.7592 Y2.5565
N6175 X-1.7615 Y2.5553
N6180 X-1.7641 Y2.5538
N6185 X-1.7664 Y2.5526 F9.843
N6190 X-1.7673 Y2.5514
N6195 X-1.7675 Y2.5498
N6200 X-1.7677 Y2.5479 F39.37
N6205 X-1.768 Y2.5456
N6210 X-1.7682 Y2.5436
N6215 X-1.768 Y2.5415
N6220 X-1.7677 Y2.5393
N6225 X-1.7675 Y2.5374 F9.843
N6230 X-1.7673 Y2.5359
N6235 X-1.7666 Y2.5349
N6240 X-1.7664 Y2.5346
N6245 X-1.7641 Y2.5333 F39.37
N6250 X-1.7615 Y2.5319
N6255 X-1.7592 Y2.5307
N6260 X-1.7572 Y2.5298
N6265 X-1.7556 Y2.529
N6270 X-1.7542 Y2.5285
N6275 X-1.7533 Y2.5281
N6280 X-1.7524 Y2.5278
N6285 X-1.7514 Y2.5276
N6290 X-1.7501 Y2.5273
N6295 X-1.7484 Y2.527
N6300 X-1.7464 Y2.5267
N6305 X-1.7442 Y2.5264
N6310 X-1.7416 Y2.5261
N6315 X-1.7387 Y2.5259
N6320 X-1.7356 Y2.5257
N6325 X-1.7322 Y2.5255
N6330 X-1.7284 Y2.5254
N6335 X-1.7244 Y2.5253
N6340 X-1.7202 Y2.5252
N6345 X-1.7163
N6350 X-1.5147
N6355 G2 X-1.4325 Y2.443 I0. J-0.0822
N6360 G1 Y1.6598
N6365 G2 X-1.5147 Y1.5776 I-0.0822 J0.
N6370 G1 X-1.7163
N6375 X-1.7202
N6380 X-1.7245 Y1.5775
N6385 X-1.7284 Y1.5774
N6390 X-1.7321 Y1.5773
N6395 X-1.7356 Y1.5771
N6400 X-1.7388 Y1.5769
N6405 X-1.7416 Y1.5767
N6410 X-1.7442 Y1.5765
N6415 X-1.7464 Y1.5762
N6420 X-1.7484 Y1.5759
N6425 X-1.75 Y1.5755
N6430 X-1.7514 Y1.5752
N6435 X-1.7524 Y1.575
N6440 X-1.7533 Y1.5747
N6445 X-1.7543 Y1.5743
N6450 X-1.7556 Y1.5738
N6455 X-1.7572 Y1.5731
N6460 X-1.7592 Y1.5721
N6465 X-1.7615 Y1.5709
N6470 X-1.7641 Y1.5695
N6475 X-1.7665 Y1.5681 F9.843
N6480 X-1.7668 Y1.5678
N6485 X-1.7673 Y1.5671
N6490 X-1.7675 Y1.5658
N6495 X-1.7677 Y1.564 F39.37
N6500 X-1.768 Y1.5618
N6505 X-1.7682 Y1.56
N6510 X-1.768 Y1.5581
N6515 X-1.7677 Y1.5559
N6520 X-1.7675 Y1.554 F9.843
N6525 X-1.7673 Y1.5525
N6530 X-1.7666 Y1.5515
N6535 X-1.7641 Y1.5499 F39.37
N6540 X-1.7615 Y1.5485
N6545 X-1.7592 Y1.5473
N6550 X-1.7572 Y1.5464
N6555 X-1.7556 Y1.5456
N6560 X-1.7542 Y1.5451
N6565 X-1.7533 Y1.5447
N6570 X-1.7524 Y1.5445
N6575 X-1.7514 Y1.5442
N6580 X-1.75 Y1.5439
N6585 X-1.7484 Y1.5435
N6590 X-1.7464 Y1.5432
N6595 X-1.7442 Y1.543
N6600 X-1.7416 Y1.5427
N6605 X-1.7387 Y1.5425
N6610 X-1.7356 Y1.5423
N6615 X-1.7321 Y1.5421
N6620 X-1.7284 Y1.542
N6625 X-1.7245 Y1.5419
N6630 X-1.7202 Y1.5418
N6635 X-1.7163
N6640 X-1.1129
N6645 X-1.109
N6650 X-1.1048 Y1.5419
N6655 X-1.1008 Y1.542
N6660 X-1.0971 Y1.5421
N6665 X-1.0937 Y1.5423
N6670 X-1.0905 Y1.5425
N6675 X-1.0876 Y1.5427
N6680 X-1.0851 Y1.543
N6685 X-1.0828 Y1.5432
N6690 X-1.0809 Y1.5435
N6695 X-1.0792 Y1.5439
N6700 X-1.0779 Y1.5442
N6705 X-1.0768 Y1.5445
N6710 X-1.076 Y1.5447
N6715 X-1.075 Y1.5451
N6720 X-1.0737 Y1.5456
N6725 X-1.0721 Y1.5464
N6730 X-1.0701 Y1.5473
N6735 X-1.0678 Y1.5485
N6740 X-1.0652 Y1.5499
N6745 X-1.0627 Y1.5513 F9.843
N6750 X-1.0625 Y1.5516
N6755 X-1.0619 Y1.5523
N6760 X-1.0618 Y1.5536
N6765 X-1.0615 Y1.5554 F39.37
N6770 X-1.0613 Y1.5576
N6775 X-1.0611 Y1.5594
N6780 X-1.0613 Y1.5613
N6785 X-1.0615 Y1.5635
N6790 X-1.0618 Y1.5654 F9.843
N6795 X-1.062 Y1.5669
N6800 X-1.0627 Y1.5679
N6805 X-1.0652 Y1.5695 F39.37
N6810 X-1.0678 Y1.5709
N6815 X-1.0701 Y1.5721
N6820 X-1.0721 Y1.5731
N6825 X-1.0737 Y1.5738
N6830 X-1.075 Y1.5743
N6835 X-1.076 Y1.5747
N6840 X-1.0768 Y1.575
N6845 X-1.0779 Y1.5752
N6850 X-1.0792 Y1.5755
N6855 X-1.0809 Y1.5759
N6860 X-1.0828 Y1.5762
N6865 X-1.0851 Y1.5765
N6870 X-1.0877 Y1.5767
N6875 X-1.0905 Y1.5769
N6880 X-1.0936 Y1.5771
N6885 X-1.0971 Y1.5773
N6890 X-1.1008 Y1.5774
N6895 X-1.1048 Y1.5775
N6900 X-1.109 Y1.5776
N6905 X-1.1129
N6910 X-1.3145
N6915 G2 X-1.3967 Y1.6598 I0. J0.0822
N6920 G1 Y2.443
N6925 G2 X-1.3145 Y2.5252 I0.0822 J0.
N6930 G1 X-1.1129
N6935 X-1.109
N6940 X-1.1048 Y2.5253
N6945 X-1.1008 Y2.5254
N6950 X-1.0971 Y2.5255
N6955 X-1.0937 Y2.5257
N6960 X-1.0905 Y2.5259
N6965 X-1.0876 Y2.5261
N6970 X-1.0851 Y2.5264
N6975 X-1.0829 Y2.5266
N6980 X-1.0809 Y2.527
N6985 X-1.0792 Y2.5273
N6990 X-1.0779 Y2.5276
N6995 X-1.0768 Y2.5278
N7000 X-1.076 Y2.5281
N7005 X-1.075 Y2.5285
N7010 X-1.0737 Y2.529
N7015 X-1.0721 Y2.5298
N7020 X-1.0701 Y2.5307
N7025 X-1.0678 Y2.5319
N7030 X-1.0652 Y2.5333
N7035 X-1.0629 Y2.5346 F9.843
N7040 X-1.0627 Y2.5349
N7045 X-1.062 Y2.5358
N7050 X-1.0618 Y2.5374
N7055 X-1.0615 Y2.5393 F39.37
N7060 X-1.0613 Y2.5415
N7065 X-1.0611 Y2.5436
N7070 X-1.0613 Y2.5457
N7075 X-1.0615 Y2.5479 F9.843
N7080 X-1.0617 Y2.5497
N7085 X-1.0619 Y2.551
N7090 X-1.0624 Y2.5516
N7095 X-1.0646 Y2.5529 F39.37
N7100 X-1.0673 Y2.5543
N7105 X-1.0696 Y2.5555
N7110 X-1.0716 Y2.5565
N7115 X-1.0733 Y2.5572
N7120 X-1.0746 Y2.5577
N7125 X-1.0756 Y2.5581
N7130 X-1.0766 Y2.5584
N7135 X-1.0777 Y2.5587
N7140 X-1.079 Y2.559
N7145 X-1.0807 Y2.5593
N7150 X-1.0827 Y2.5596
N7155 X-1.085 Y2.5599
N7160 X-1.0875 Y2.5601
N7165 X-1.0904 Y2.5604
N7170 X-1.0936 Y2.5605
N7175 X-1.0971 Y2.5607
N7180 X-1.1008 Y2.5608
N7185 X-1.1048 Y2.5609
N7190 X-1.109 Y2.561
N7195 X-1.113
N7200 X-1.4264 Y2.5615
N7205 X-1.4288 Y2.5613 Z-0.2692
N7210 X-1.4311 Y2.5606 Z-0.2687
N7215 X-1.4329 Y2.5597 Z-0.2674
N7220 X-1.4346 Y2.5585 Z-0.266
N7225 X-1.4364 Y2.5566 Z-0.262
N7230 X-1.437 Y2.5558 Z-0.2572
N7235 Z0.5906
N7240 X-0.5054 Y2.3587
N7245 Z0.1969
N7250 Z0.1109
N7255 X-0.5045 Y2.3584 Z0.1062 F13.123
N7260 X-0.502 Y2.3577 Z0.1022
N7265 X-0.4982 Y2.3569 Z0.0995
N7270 X-0.4936 Y2.3563 Z0.0984
N7275 G3 X-0.4817 Y2.4744 Z0.0919 I0.0059 J0.0591
N7280 X-0.4936 Y2.3563 Z0.0854 I-0.0059 J-0.0591
N7285 X-0.4817 Y2.4744 Z0.0789 I0.0059 J0.0591
N7290 X-0.4936 Y2.3563 Z0.0724 I-0.0059 J-0.0591
N7295 X-0.4817 Y2.4744 Z0.0659 I0.0059 J0.0591
N7300 X-0.4936 Y2.3563 Z0.0593 I-0.0059 J-0.0591
N7305 X-0.4817 Y2.4744 Z0.0528 I0.0059 J0.0591
N7310 X-0.4936 Y2.3563 Z0.0463 I-0.0059 J-0.0591
N7315 X-0.4817 Y2.4744 Z0.0398 I0.0059 J0.0591
N7320 X-0.4936 Y2.3563 Z0.0333 I-0.0059 J-0.0591
N7325 X-0.4817 Y2.4744 Z0.0268 I0.0059 J0.0591
N7330 X-0.4936 Y2.3563 Z0.0203 I-0.0059 J-0.0591
N7335 X-0.4817 Y2.4744 Z0.0137 I0.0059 J0.0591
N7340 X-0.4936 Y2.3563 Z0.0072 I-0.0059 J-0.0591
N7345 X-0.4817 Y2.4744 Z0.0007 I0.0059 J0.0591
N7350 X-0.4936 Y2.3563 Z-0.0058 I-0.0059 J-0.0591
N7355 X-0.4817 Y2.4744 Z-0.0123 I0.0059 J0.0591
N7360 X-0.4936 Y2.3563 Z-0.0188 I-0.0059 J-0.0591
N7365 X-0.4817 Y2.4744 Z-0.0253 I0.0059 J0.0591
N7370 X-0.4936 Y2.3563 Z-0.0319 I-0.0059 J-0.0591
N7375 X-0.4817 Y2.4744 Z-0.0384 I0.0059 J0.0591
N7380 X-0.4936 Y2.3563 Z-0.0449 I-0.0059 J-0.0591
N7385 X-0.4817 Y2.4744 Z-0.0514 I0.0059 J0.0591
N7390 X-0.4936 Y2.3563 Z-0.0579 I-0.0059 J-0.0591
N7395 X-0.4817 Y2.4744 Z-0.0644 I0.0059 J0.0591
N7400 X-0.4936 Y2.3563 Z-0.0709 I-0.0059 J-0.0591
N7405 X-0.4817 Y2.4744 Z-0.0774 I0.0059 J0.0591
N7410 X-0.4936 Y2.3563 Z-0.084 I-0.0059 J-0.0591
N7415 X-0.4817 Y2.4744 Z-0.0905 I0.0059 J0.0591
N7420 X-0.4936 Y2.3563 Z-0.097 I-0.0059 J-0.0591
N7425 X-0.4817 Y2.4744 Z-0.1035 I0.0059 J0.0591
N7430 X-0.4936 Y2.3563 Z-0.11 I-0.0059 J-0.0591
N7435 X-0.4817 Y2.4744 Z-0.1165 I0.0059 J0.0591
N7440 X-0.4936 Y2.3563 Z-0.123 I-0.0059 J-0.0591
N7445 X-0.4817 Y2.4744 Z-0.1296 I0.0059 J0.0591
N7450 X-0.4936 Y2.3563 Z-0.1361 I-0.0059 J-0.0591
N7455 X-0.4817 Y2.4744 Z-0.1426 I0.0059 J0.0591
N7460 X-0.4936 Y2.3563 Z-0.1491 I-0.0059 J-0.0591
N7465 X-0.4817 Y2.4744 Z-0.1556 I0.0059 J0.0591
N7470 X-0.4936 Y2.3563 Z-0.1621 I-0.0059 J-0.0591
N7475 X-0.4817 Y2.4744 Z-0.1686 I0.0059 J0.0591
N7480 X-0.4936 Y2.3563 Z-0.1752 I-0.0059 J-0.0591
N7485 X-0.4817 Y2.4744 Z-0.1817 I0.0059 J0.0591
N7490 X-0.4936 Y2.3563 Z-0.1882 I-0.0059 J-0.0591
N7495 X-0.4817 Y2.4744 Z-0.1947 I0.0059 J0.0591
N7500 X-0.4936 Y2.3563 Z-0.2012 I-0.0059 J-0.0591
N7505 X-0.4817 Y2.4744 Z-0.2077 I0.0059 J0.0591
N7510 X-0.4936 Y2.3563 Z-0.2142 I-0.0059 J-0.0591
N7515 X-0.4817 Y2.4744 Z-0.2208 I0.0059 J0.0591
N7520 X-0.4936 Y2.3563 Z-0.2273 I-0.0059 J-0.0591
N7525 X-0.4817 Y2.4744 Z-0.2338 I0.0059 J0.0591
N7530 X-0.4936 Y2.3563 Z-0.2403 I-0.0059 J-0.0591
N7535 X-0.4817 Y2.4744 Z-0.2468 I0.0059 J0.0591
N7540 X-0.4936 Y2.3563 Z-0.2533 I-0.0059 J-0.0591
N7545 X-0.4817 Y2.4744 Z-0.2598 I0.0059 J0.0591
N7550 X-0.4936 Y2.3563 Z-0.2664 I-0.0059 J-0.0591
N7555 X-0.4284 Y2.4116 Z-0.2697 I0.0059 J0.0591
N7560 X-0.4768 Y2.4662 I-0.0515 J0.0031
N7565 X-0.5314 Y2.4178 I-0.0031 J-0.0515
N7570 X-0.5322 Y2.3926 I0.4029 J-0.0252 F39.37
N7575 X-0.5213 Y2.3856 I0.0077 J0.
N7580 G2 X-0.4788 Y2.3974 I0.0563 J-0.1204
N7585 G3 X-0.4732 Y2.409 I-0.0008 J0.0075
N7590 G1 X-0.5365 Y2.5083
N7595 X-0.5376 Y2.5095 F9.843
N7600 X-0.5391 Y2.5103
N7605 X-0.5408 Y2.5106
N7610 X-0.5421 F39.37
N7615 X-0.5438 Y2.5104 F9.843
N7620 X-0.5453 Y2.5095
N7625 X-0.5464 Y2.5082
N7630 X-0.5471 Y2.5066
N7635 X-0.5472 Y2.5049
N7640 X-0.5466 Y2.5032
N7645 G2 X-0.5351 Y2.474 I-0.1506 J-0.0765 F39.37
N7650 X-0.5307 Y2.443 I-0.1062 J-0.031
N7655 X-0.5314 Y2.4178 I-0.4037 J0.
N7660 G1 X-0.5312 Y2.4154 Z-0.2692
N7665 X-0.5305 Y2.4131 Z-0.2687
N7670 X-0.5296 Y2.4113 Z-0.2674
N7675 X-0.5285 Y2.4097 Z-0.266
N7680 X-0.5265 Y2.4078 Z-0.262
N7685 X-0.5257 Y2.4073 Z-0.2572
N7690 Z0.1969
N7695 X0.1592 Y1.6579
N7700 Z0.1109
N7705 Y1.6588 Z0.1062 F13.123
N7710 X0.159 Y1.6614 Z0.1022
N7715 X0.1585 Y1.6653 Z0.0995
N7720 X0.1575 Y1.6698 Z0.0984
N7725 G3 X0.0422 Y1.6414 Z0.0919 I-0.0576 J-0.0142
N7730 X0.1575 Y1.6698 Z0.0854 I0.0576 J0.0142
N7735 X0.0422 Y1.6414 Z0.0789 I-0.0576 J-0.0142
N7740 X0.1575 Y1.6698 Z0.0724 I0.0576 J0.0142
N7745 X0.0422 Y1.6414 Z0.0659 I-0.0576 J-0.0142
N7750 X0.1575 Y1.6698 Z0.0593 I0.0576 J0.0142
N7755 X0.0422 Y1.6414 Z0.0528 I-0.0576 J-0.0142
N7760 X0.1575 Y1.6698 Z0.0463 I0.0576 J0.0142
N7765 X0.0422 Y1.6414 Z0.0398 I-0.0576 J-0.0142
N7770 X0.1575 Y1.6698 Z0.0333 I0.0576 J0.0142
N7775 X0.0422 Y1.6414 Z0.0268 I-0.0576 J-0.0142
N7780 X0.1575 Y1.6698 Z0.0203 I0.0576 J0.0142
N7785 X0.0422 Y1.6414 Z0.0137 I-0.0576 J-0.0142
N7790 X0.1575 Y1.6698 Z0.0072 I0.0576 J0.0142
N7795 X0.0422 Y1.6414 Z0.0007 I-0.0576 J-0.0142
N7800 X0.1575 Y1.6698 Z-0.0058 I0.0576 J0.0142
N7805 X0.0422 Y1.6414 Z-0.0123 I-0.0576 J-0.0142
N7810 X0.1575 Y1.6698 Z-0.0188 I0.0576 J0.0142
N7815 X0.0422 Y1.6414 Z-0.0253 I-0.0576 J-0.0142
N7820 X0.1575 Y1.6698 Z-0.0319 I0.0576 J0.0142
N7825 X0.0422 Y1.6414 Z-0.0384 I-0.0576 J-0.0142
N7830 X0.1575 Y1.6698 Z-0.0449 I0.0576 J0.0142
N7835 X0.0422 Y1.6414 Z-0.0514 I-0.0576 J-0.0142
N7840 X0.1575 Y1.6698 Z-0.0579 I0.0576 J0.0142
N7845 X0.0422 Y1.6414 Z-0.0644 I-0.0576 J-0.0142
N7850 X0.1575 Y1.6698 Z-0.0709 I0.0576 J0.0142
N7855 X0.0422 Y1.6414 Z-0.0774 I-0.0576 J-0.0142
N7860 X0.1575 Y1.6698 Z-0.084 I0.0576 J0.0142
N7865 X0.0422 Y1.6414 Z-0.0905 I-0.0576 J-0.0142
N7870 X0.1575 Y1.6698 Z-0.097 I0.0576 J0.0142
N7875 X0.0422 Y1.6414 Z-0.1035 I-0.0576 J-0.0142
N7880 X0.1575 Y1.6698 Z-0.11 I0.0576 J0.0142
N7885 X0.0422 Y1.6414 Z-0.1165 I-0.0576 J-0.0142
N7890 X0.1575 Y1.6698 Z-0.123 I0.0576 J0.0142
N7895 X0.0422 Y1.6414 Z-0.1296 I-0.0576 J-0.0142
N7900 X0.1575 Y1.6698 Z-0.1361 I0.0576 J0.0142
N7905 X0.0422 Y1.6414 Z-0.1426 I-0.0576 J-0.0142
N7910 X0.1575 Y1.6698 Z-0.1491 I0.0576 J0.0142
N7915 X0.0422 Y1.6414 Z-0.1556 I-0.0576 J-0.0142
N7920 X0.1575 Y1.6698 Z-0.1621 I0.0576 J0.0142
N7925 X0.0422 Y1.6414 Z-0.1686 I-0.0576 J-0.0142
N7930 X0.1575 Y1.6698 Z-0.1752 I0.0576 J0.0142
N7935 X0.0422 Y1.6414 Z-0.1817 I-0.0576 J-0.0142
N7940 X0.1575 Y1.6698 Z-0.1882 I0.0576 J0.0142
N7945 X0.0422 Y1.6414 Z-0.1947 I-0.0576 J-0.0142
N7950 X0.1575 Y1.6698 Z-0.2012 I0.0576 J0.0142
N7955 X0.0422 Y1.6414 Z-0.2077 I-0.0576 J-0.0142
N7960 X0.1575 Y1.6698 Z-0.2142 I0.0576 J0.0142
N7965 X0.0422 Y1.6414 Z-0.2208 I-0.0576 J-0.0142
N7970 X0.1575 Y1.6698 Z-0.2273 I0.0576 J0.0142
N7975 X0.0422 Y1.6414 Z-0.2338 I-0.0576 J-0.0142
N7980 X0.1575 Y1.6698 Z-0.2403 I0.0576 J0.0142
N7985 X0.0422 Y1.6414 Z-0.2468 I-0.0576 J-0.0142
N7990 X0.1575 Y1.6698 Z-0.2533 I0.0576 J0.0142
N7995 X0.0422 Y1.6414 Z-0.2598 I-0.0576 J-0.0142
N8000 X0.1575 Y1.6698 Z-0.2664 I0.0576 J0.0142
N8005 X0.0835 Y1.7127 Z-0.2697 I-0.0576 J-0.0142
N8010 G2 X0.0615 Y1.7083 I-0.0367 J0.1278 F39.37
N8015 G3 X0.056 Y1.6967 I0.0008 J-0.0075
N8020 G1 X0.1058 Y1.6188
N8025 X0.1069 Y1.6176 F9.843
N8030 X0.1083 Y1.6168
N8035 X0.1098 Y1.6165
N8040 X0.1114 Y1.6167
N8045 X0.1129 Y1.6174
N8050 X0.114 Y1.6185
N8055 X0.1148 Y1.6199
N8060 X0.115 Y1.6215
N8065 Y1.7136 F39.37
N8070 G3 X0.1041 Y1.7205 I-0.0076 J0.
N8075 G2 X0.0835 Y1.7127 I-0.0573 J0.12
N8080 X0.033 Y1.7336 I-0.0121 J0.0421
N8085 G3 X-0.0027 Y1.7749 I-0.1148 J-0.0634
N8090 G2 X-0.0225 Y1.7963 I0.0495 J0.0656
N8095 G1 X-0.4967 Y2.5401
N8100 X-0.5101 Y2.5612 F9.843
N8105 X-0.6959 Y2.562 F39.37
N8110 X-0.6997 Y2.5619
N8115 X-0.704
N8120 X-0.7079 Y2.5618
N8125 X-0.7116 Y2.5617
N8130 X-0.7151 Y2.5615
N8135 X-0.7183 Y2.5613
N8140 X-0.7211 Y2.5611
N8145 X-0.7237 Y2.5608
N8150 X-0.7259 Y2.5605
N8155 X-0.7279 Y2.5602
N8160 X-0.7295 Y2.5599
N8165 X-0.7308 Y2.5596
N8170 X-0.7319 Y2.5593
N8175 X-0.7328 Y2.5591
N8180 X-0.7338 Y2.5587
N8185 X-0.735 Y2.5582
N8190 X-0.7367 Y2.5574
N8195 X-0.7387 Y2.5565
N8200 X-0.741 Y2.5553
N8205 X-0.7436 Y2.5538
N8210 X-0.7459 Y2.5526 F9.843
N8215 X-0.7468 Y2.5514
N8220 X-0.747 Y2.5498
N8225 X-0.7472 Y2.5479 F39.37
N8230 X-0.7475 Y2.5456
N8235 X-0.7477 Y2.5436
N8240 X-0.7475 Y2.5415
N8245 X-0.7472 Y2.5393
N8250 X-0.747 Y2.5374 F9.843
N8255 X-0.7468 Y2.5359
N8260 X-0.7461 Y2.5349
N8265 X-0.7459 Y2.5346
N8270 X-0.7436 Y2.5333 F39.37
N8275 X-0.741 Y2.5319
N8280 X-0.7387 Y2.5307
N8285 X-0.7367 Y2.5298
N8290 X-0.7351 Y2.529
N8295 X-0.7337 Y2.5285
N8300 X-0.7327 Y2.5281
N8305 X-0.7319 Y2.5278
N8310 X-0.7309 Y2.5276
N8315 X-0.7296 Y2.5273
N8320 X-0.7279 Y2.527
N8325 X-0.7259 Y2.5266
N8330 X-0.7237 Y2.5264
N8335 X-0.7211 Y2.5261
N8340 X-0.7182 Y2.5259
N8345 X-0.7151 Y2.5257
N8350 X-0.7117 Y2.5255
N8355 X-0.7079 Y2.5254
N8360 X-0.7039 Y2.5253
N8365 X-0.6997 Y2.5252
N8370 X-0.6958
N8375 X-0.6651
N8380 G2 X-0.5829 Y2.443 I0. J-0.0822
N8385 G1 Y1.6598
N8390 G2 X-0.6628 Y1.5776 I-0.0822 J0.
N8395 G1 X-0.6669 Y1.5775
N8400 X-0.6708 Y1.5774
N8405 X-0.6743 Y1.5773
N8410 X-0.6776 Y1.5771
N8415 X-0.6806 Y1.5769
N8420 X-0.6833 Y1.5767
N8425 X-0.6856 Y1.5765
N8430 X-0.6876 Y1.5763
N8435 X-0.6894 Y1.576
N8440 X-0.6908 Y1.5757
N8445 X-0.6918 Y1.5755
N8450 X-0.6925 Y1.5753
N8455 X-0.693 Y1.5752
N8460 X-0.6939 Y1.5748
N8465 X-0.6948 Y1.5744
N8470 X-0.6961 Y1.5738
N8475 X-0.6977 Y1.5729
N8480 X-0.6996 Y1.5718
N8485 X-0.7018 Y1.5705
N8490 X-0.7041 Y1.5691 F9.843
N8495 X-0.705 Y1.5679
N8500 X-0.7058 Y1.5669
N8505 X-0.706 Y1.5655 F39.37
N8510 X-0.7062 Y1.5636
N8515 X-0.7065 Y1.5615
N8520 X-0.7066 Y1.5599
N8525 X-0.7065 Y1.5581
N8530 X-0.7062 Y1.5559
N8535 X-0.706 Y1.554 F9.843
N8540 X-0.7058 Y1.5525
N8545 X-0.7051 Y1.5515
N8550 X-0.7026 Y1.5499 F39.37
N8555 X-0.6999 Y1.5485
N8560 X-0.6976 Y1.5473
N8565 X-0.6957 Y1.5464
N8570 X-0.694 Y1.5456
N8575 X-0.6927 Y1.5451
N8580 X-0.6918 Y1.5447
N8585 X-0.6909 Y1.5445
N8590 X-0.6899 Y1.5442
N8595 X-0.6885 Y1.5439
N8600 X-0.6869 Y1.5436
N8605 X-0.6849 Y1.5432
N8610 X-0.6827 Y1.543
N8615 X-0.6801 Y1.5427
N8620 X-0.6772 Y1.5425
N8625 X-0.6741 Y1.5423
N8630 X-0.6706 Y1.5421
N8635 X-0.6669 Y1.542
N8640 X-0.6629 Y1.5419
N8645 X-0.6587 Y1.5418
N8650 X-0.6548
N8655 X-0.3932
N8660 X-0.3893
N8665 X-0.3851 Y1.5419
N8670 X-0.3811 Y1.542
N8675 X-0.3774 Y1.5421
N8680 X-0.374 Y1.5423
N8685 X-0.3708 Y1.5425
N8690 X-0.3679 Y1.5427
N8695 X-0.3653 Y1.543
N8700 X-0.3631 Y1.5432
N8705 X-0.3612 Y1.5435
N8710 X-0.3595 Y1.5439
N8715 X-0.3582 Y1.5442
N8720 X-0.3571 Y1.5444
N8725 X-0.3562 Y1.5447
N8730 X-0.3553 Y1.5451
N8735 X-0.354 Y1.5456
N8740 X-0.3523 Y1.5464
N8745 X-0.3504 Y1.5473
N8750 X-0.3481 Y1.5485
N8755 X-0.3455 Y1.5499
N8760 X-0.343 Y1.5513 F9.843
N8765 X-0.3422 Y1.5523
N8770 X-0.342 Y1.5536
N8775 X-0.3418 Y1.5554 F39.37
N8780 X-0.3415 Y1.5576
N8785 X-0.3414 Y1.5594
N8790 X-0.3416 Y1.5613
N8795 X-0.3418 Y1.5635
N8800 X-0.342 Y1.5654 F9.843
N8805 X-0.3422 Y1.5669
N8810 X-0.3429 Y1.5679
N8815 X-0.3454 Y1.5695 F39.37
N8820 X-0.3481 Y1.5709
N8825 X-0.3504 Y1.5721
N8830 X-0.3524 Y1.5731
N8835 X-0.354 Y1.5738
N8840 X-0.3553 Y1.5743
N8845 X-0.3562 Y1.5747
N8850 X-0.3571 Y1.575
N8855 X-0.3582 Y1.5752
N8860 X-0.3595 Y1.5755
N8865 X-0.3612 Y1.5759
N8870 X-0.3631 Y1.5762
N8875 X-0.3654 Y1.5765
N8880 X-0.3679 Y1.5767
N8885 X-0.3708 Y1.5769
N8890 X-0.3739 Y1.5771
N8895 X-0.3774 Y1.5773
N8900 X-0.3811 Y1.5774
N8905 X-0.3851 Y1.5775
N8910 X-0.3893 Y1.5776
N8915 X-0.3932
N8920 X-0.4649
N8925 G2 X-0.5471 Y1.6598 I0. J0.0822
N8930 G1 Y2.2653
N8935 G2 X-0.3957 Y2.3095 I0.0822 J0.
N8940 G1 X0.0813 Y1.5629
N8945 X0.0947 Y1.5418 F9.843
N8950 X0.1408 F39.37
N8955 X0.1658 F9.843
N8960 Y2.443 F39.37
N8965 G2 X0.2455 Y2.5252 I0.0822 J0.
N8970 G1 X0.2496 Y2.5253
N8975 X0.2534 Y2.5254
N8980 X0.2569 Y2.5255
N8985 X0.2602 Y2.5257
N8990 X0.2631 Y2.5259
N8995 X0.2657 Y2.5261
N9000 X0.268 Y2.5263
N9005 X0.27 Y2.5266
N9010 X0.2716 Y2.5268
N9015 X0.2729 Y2.5271
N9020 X0.2739 Y2.5273
N9025 X0.2746 Y2.5275
N9030 X0.2758 Y2.5279
N9035 X0.2767 Y2.5283
N9040 X0.2779 Y2.5289
N9045 X0.2795 Y2.5298
N9050 X0.2814 Y2.5309
N9055 X0.2836 Y2.5322
N9060 X0.2857 Y2.5336 F9.843
N9065 X0.2867 Y2.5348
N9070 X0.2876 Y2.5359
N9075 X0.2879 Y2.5377 F39.37
N9080 X0.2881 Y2.5396
N9085 X0.2883 Y2.5418
N9090 X0.2885 Y2.5437
N9095 X0.2883 Y2.5457
N9100 X0.2881 Y2.5479 F9.843
N9105 X0.2879 Y2.5497
N9110 X0.2877 Y2.551
N9115 X0.2872 Y2.5516
N9120 X0.285 Y2.5529 F39.37
N9125 X0.2823 Y2.5543
N9130 X0.28 Y2.5555
N9135 X0.278 Y2.5565
N9140 X0.2763 Y2.5572
N9145 X0.275 Y2.5577
N9150 X0.274 Y2.5581
N9155 X0.2731 Y2.5584
N9160 X0.2719 Y2.5587
N9165 X0.2706 Y2.559
N9170 X0.2689 Y2.5593
N9175 X0.2669 Y2.5596
N9180 X0.2646 Y2.5599
N9185 X0.2621 Y2.5601
N9190 X0.2592 Y2.5604
N9195 X0.256 Y2.5605
N9200 X0.2525 Y2.5607
N9205 X0.2489 Y2.5608
N9210 X0.2449 Y2.5609
N9215 X0.2406 Y2.561
N9220 X0.2365
N9225 X-0.025 Y2.562
N9230 X-0.0288 Y2.5619
N9235 X-0.0331
N9240 X-0.037 Y2.5618
N9245 X-0.0407 Y2.5617
N9250 X-0.0442 Y2.5615
N9255 X-0.0474 Y2.5613
N9260 X-0.0502 Y2.5611
N9265 X-0.0528 Y2.5608
N9270 X-0.055 Y2.5605
N9275 X-0.057 Y2.5602
N9280 X-0.0586 Y2.5599
N9285 X-0.0599 Y2.5596
N9290 X-0.061 Y2.5593
N9295 X-0.0619 Y2.5591
N9300 X-0.0629 Y2.5587
N9305 X-0.0641 Y2.5582
N9310 X-0.0658 Y2.5574
N9315 X-0.0678 Y2.5565
N9320 X-0.0701 Y2.5553
N9325 X-0.0727 Y2.5538
N9330 X-0.075 Y2.5526 F9.843
N9335 X-0.0759 Y2.5514
N9340 X-0.0761 Y2.5498
N9345 X-0.0763 Y2.5479 F39.37
N9350 X-0.0766 Y2.5457
N9355 X-0.0768 Y2.5436
N9360 X-0.0766 Y2.5415
N9365 X-0.0763 Y2.5393
N9370 X-0.0761 Y2.5374 F9.843
N9375 X-0.0759 Y2.5359
N9380 X-0.0752 Y2.5349
N9385 X-0.0727 Y2.5333 F39.37
N9390 X-0.0701 Y2.5319
N9395 X-0.0678 Y2.5307
N9400 X-0.0658 Y2.5298
N9405 X-0.0642 Y2.529
N9410 X-0.0628 Y2.5285
N9415 X-0.0619 Y2.5281
N9420 X-0.061 Y2.5278
N9425 X-0.06 Y2.5276
N9430 X-0.0587 Y2.5273
N9435 X-0.057 Y2.527
N9440 X-0.055 Y2.5267
N9445 X-0.0528 Y2.5264
N9450 X-0.0502 Y2.5261
N9455 X-0.0473 Y2.5259
N9460 X-0.0442 Y2.5257
N9465 X-0.0408 Y2.5255
N9470 X-0.037 Y2.5254
N9475 X-0.033 Y2.5253
N9480 X-0.0288 Y2.5252
N9485 X-0.0249
N9490 X0.0468
N9495 G2 X0.129 Y2.443 I0. J-0.0822
N9500 G1 Y1.8405
N9505 G2 X-0.0027 Y1.7749 I-0.0822 J0.
N9510 G1 X-0.0048 Y1.7761 Z-0.2692
N9515 X-0.007 Y1.777 Z-0.2687
N9520 X-0.009 Y1.7773 Z-0.2674
N9525 X-0.011 Y1.7774 Z-0.266
N9530 X-0.0137 Y1.7769 Z-0.262
N9535 X-0.0146 Y1.7766 Z-0.2572
N9540 Z0.5906
N9545 X0.6492 Y1.923
N9550 Z0.1969
N9555 Z0.1109
N9560 G19 G3 Y1.935 Z0.0984 J0.0125 K0. F13.123
N9565 G1 Y2.443 Z0.0807
N9570 G17 G2 X0.7314 Y2.5252 Z0.0762 I0.0822 J0.
N9575 G1 X0.8031 Z0.0737
N9580 X0.807 Z0.0735
N9585 X0.8112 Y2.5253 Z0.0734
N9590 X0.8152 Y2.5254 Z0.0733
N9595 X0.8189 Y2.5255 Z0.0731
N9600 X0.8223 Y2.5257 Z0.073
N9605 X0.8255 Y2.5259 Z0.0729
N9610 X0.8284 Y2.5261 Z0.0728
N9615 X0.8309 Y2.5264 Z0.0727
N9620 X0.8332 Y2.5266 Z0.0726
N9625 X0.8352 Y2.527
N9630 X0.8368 Y2.5273 Z0.0725
N9635 X0.8381 Y2.5276 Z0.0724
N9640 X0.8392 Y2.5278
N9645 X0.84 Y2.5281
N9650 X0.841 Y2.5285 Z0.0723
N9655 X0.8423 Y2.529
N9660 X0.844 Y2.5298 Z0.0722
N9665 X0.8459 Y2.5307
N9670 X0.8482 Y2.5319 Z0.0721
N9675 X0.8508 Y2.5333 Z0.072
N9680 X0.8531 Y2.5346 Z0.0719
N9685 X0.8534 Y2.5349
N9690 X0.854 Y2.5358 Z0.0718
N9695 X0.8543 Y2.5374
N9700 X0.8545 Y2.5393 Z0.0717
N9705 X0.8547 Y2.5415 Z0.0716
N9710 X0.8549 Y2.5436 Z0.0715
N9715 X0.8547 Y2.5457
N9720 X0.8545 Y2.5479 Z0.0714
N9725 X0.8543 Y2.5497 Z0.0713
N9730 X0.854 Y2.5513
N9735 X0.8533 Y2.5523 Z0.0712
N9740 X0.8509 Y2.5538 Z0.0711
N9745 X0.8482 Y2.5553 Z0.071
N9750 X0.8459 Y2.5565 Z0.0709
N9755 X0.8439 Y2.5574
N9760 X0.8423 Y2.5582 Z0.0708
N9765 X0.841 Y2.5587 Z0.0707
N9770 X0.84 Y2.5591
N9775 X0.8392 Y2.5593
N9780 X0.8381 Y2.5596 Z0.0706
N9785 X0.8368 Y2.5599
N9790 X0.8352 Y2.5602 Z0.0705
N9795 X0.8332 Y2.5605
N9800 X0.8309 Y2.5608 Z0.0704
N9805 X0.8284 Y2.5611 Z0.0703
N9810 X0.8255 Y2.5613 Z0.0702
N9815 X0.8224 Y2.5615 Z0.0701
N9820 X0.8189 Y2.5617 Z0.07
N9825 X0.8152 Y2.5618 Z0.0698
N9830 X0.8112 Y2.5619 Z0.0697
N9835 X0.807 Z0.0695
N9840 X0.8032 Y2.562 Z0.0694
N9845 X0.5415 Y2.561 Z0.0603
N9850 X0.5373 Z0.0601
N9855 X0.5331 Y2.5609 Z0.06
N9860 X0.5291 Y2.5608 Z0.0598
N9865 X0.5253 Y2.5607 Z0.0597
N9870 X0.5219 Y2.5606 Z0.0596
N9875 X0.5187 Y2.5604 Z0.0595
N9880 X0.5158 Y2.5602 Z0.0594
N9885 X0.5132 Y2.5599 Z0.0593
N9890 X0.5108 Y2.5596 Z0.0592
N9895 X0.5089 Y2.5593 Z0.0591
N9900 X0.5072 Y2.559
N9905 X0.5057 Y2.5587 Z0.059
N9910 X0.5046 Y2.5584
N9915 X0.5037 Y2.5582 Z0.0589
N9920 X0.5027 Y2.5578
N9925 X0.5014 Y2.5573
N9930 X0.4998 Y2.5565 Z0.0588
N9935 X0.4978 Y2.5556 Z0.0587
N9940 X0.4955 Y2.5544 Z0.0586
N9945 X0.4928 Y2.553 Z0.0585
N9950 X0.4909 Y2.5519 Z0.0584
N9955 X0.4905 Y2.5514
N9960 X0.4903 Y2.5499
N9965 X0.49 Y2.5481 Z0.0583
N9970 X0.4898 Y2.5458 Z0.0582
N9975 X0.4896 Y2.5438
N9980 X0.4898 Y2.5418 Z0.0581
N9985 X0.4901 Y2.5396 Z0.058
N9990 X0.4903 Y2.5377 Z0.0579
N9995 X0.4905 Y2.5363
N10000 X0.4914 Y2.5348 Z0.0578
N10005 X0.4923 Y2.5337
N10010 X0.4945 Y2.5323 Z0.0577
N10015 X0.4967 Y2.531 Z0.0576
N10020 X0.4986 Y2.5299 Z0.0575
N10025 X0.5002 Y2.529
N10030 X0.5015 Y2.5284 Z0.0574
N10035 X0.5024 Y2.528
N10040 X0.503 Y2.5277
N10045 X0.5038 Y2.5275 Z0.0573
N10050 X0.5045 Y2.5273
N10055 X0.5055 Y2.5271
N10060 X0.5069 Y2.5268 Z0.0572
N10065 X0.5086 Y2.5266
N10070 X0.5107 Y2.5263 Z0.0571
N10075 X0.513 Y2.5261 Z0.057
N10080 X0.5157 Y2.5259 Z0.0569
N10085 X0.5186 Y2.5257 Z0.0568
N10090 X0.5219 Y2.5255 Z0.0567
N10095 X0.5255 Y2.5254 Z0.0566
N10100 X0.5293 Y2.5253 Z0.0564
N10105 X0.5334 Y2.5252 Z0.0563
N10110 G2 X0.6134 Y2.443 Z0.0519 I-0.0023 J-0.0822
N10115 G1 Y1.8766 Z0.0321
N10120 X0.6135 Y1.8697 Z0.0318
N10125 X0.6137 Y1.862 Z0.0316
N10130 X0.6139 Y1.8545 Z0.0313
N10135 X0.6142 Y1.8472 Z0.031
N10140 X0.6145 Y1.8401 Z0.0308
N10145 X0.6149 Y1.8332 Z0.0306
N10150 X0.6154 Y1.8265 Z0.0303
N10155 X0.6159 Y1.8201 Z0.0301
N10160 X0.6166 Y1.8138 Z0.0299
N10165 X0.6173 Y1.8078 Z0.0297
N10170 X0.6182 Y1.8019 Z0.0295
N10175 X0.6191 Y1.7963 Z0.0293
N10180 X0.6202 Y1.7909 Z0.0291
N10185 X0.6214 Y1.7856 Z0.0289
N10190 X0.6229 Y1.7801 Z0.0287
N10195 X0.6245 Y1.7744 Z0.0285
N10200 X0.6263 Y1.7685 Z0.0283
N10205 X0.6283 Y1.7624 Z0.028
N10210 X0.6305 Y1.7562 Z0.0278
N10215 X0.6329 Y1.7497 Z0.0276
N10220 X0.6354 Y1.743 Z0.0273
N10225 X0.6381 Y1.7361 Z0.0271
N10230 X0.6408 Y1.7291 Z0.0268
N10235 X0.6413 Y1.7278 Z0.0267
N10240 X0.6416 Y1.7274
N10245 X0.645 Y1.7216 Z0.0265
N10250 X0.6484 Y1.7159 Z0.0263
N10255 X0.6518 Y1.7103 Z0.026
N10260 X0.6551 Y1.7049 Z0.0258
N10265 X0.6584 Y1.6996 Z0.0256
N10270 X0.6617 Y1.6945 Z0.0254
N10275 X0.6649 Y1.6896 Z0.0252
N10280 X0.6681 Y1.6848 Z0.025
N10285 X0.6714 Y1.6802 Z0.0248
N10290 X0.6745 Y1.6758 Z0.0246
N10295 X0.6778 Y1.6715 Z0.0244
N10300 X0.6812 Y1.6672 Z0.0242
N10305 X0.6847 Y1.6629 Z0.024
N10310 X0.6883 Y1.6585 Z0.0238
N10315 X0.6922 Y1.654 Z0.0236
N10320 X0.6962 Y1.6496 Z0.0234
N10325 X0.7003 Y1.645 Z0.0232
N10330 X0.7045 Y1.6404 Z0.023
N10335 X0.7089 Y1.6358 Z0.0227
N10340 X0.7134 Y1.631 Z0.0225
N10345 X0.718 Y1.6262 Z0.0223
N10350 X0.7227 Y1.6213 Z0.022
N10355 X0.7253 Y1.6185 Z0.0219
N10360 X0.7285 Y1.6157 Z0.0218
N10365 X0.7339 Y1.611 Z0.0215
N10370 X0.7391 Y1.6064 Z0.0213
N10375 X0.7442 Y1.6019 Z0.021
N10380 X0.7492 Y1.5976 Z0.0208
N10385 X0.7541 Y1.5935 Z0.0206
N10390 X0.759 Y1.5895 Z0.0204
N10395 X0.7638 Y1.5857 Z0.0201
N10400 X0.7684 Y1.5821 Z0.0199
N10405 X0.773 Y1.5787 Z0.0197
N10410 X0.7775 Y1.5755 Z0.0195
N10415 X0.782 Y1.5725 Z0.0194
N10420 X0.7865 Y1.5696 Z0.0192
N10425 X0.7912 Y1.5668 Z0.019
N10430 X0.7961 Y1.5639 Z0.0188
N10435 X0.8013 Y1.561 Z0.0186
N10440 X0.8066 Y1.5582 Z0.0184
N10445 X0.8122 Y1.5553 Z0.0181
N10450 X0.8179 Y1.5525 Z0.0179
N10455 X0.8238 Y1.5496 Z0.0177
N10460 X0.83 Y1.5467 Z0.0175
N10465 X0.8362 Y1.5437 Z0.0172
N10470 X0.8427 Y1.5407 Z0.017
N10475 X0.8455 Y1.5394 Z0.0169
N10480 X0.8484 Y1.5384 Z0.0167
N10485 X0.8553 Y1.5361 Z0.0165
N10490 X0.862 Y1.5338 Z0.0162
N10495 X0.8685 Y1.5317 Z0.016
N10500 X0.8749 Y1.5296 Z0.0158
N10505 X0.8811 Y1.5277 Z0.0155
N10510 X0.8872 Y1.5259 Z0.0153
N10515 X0.8931 Y1.5243 Z0.0151
N10520 X0.8989 Y1.5227 Z0.0149
N10525 X0.9046 Y1.5214 Z0.0147
N10530 X0.9101 Y1.5201 Z0.0145
N10535 X0.9155 Y1.5191 Z0.0143
N10540 X0.921 Y1.5181 Z0.0141
N10545 X0.9266 Y1.5173 Z0.0139
N10550 X0.9324 Y1.5165 Z0.0137
N10555 X0.9384 Y1.5158 Z0.0135
N10560 X0.9445 Y1.5152 Z0.0133
N10565 X0.9509 Y1.5147 Z0.0131
N10570 X0.9574 Y1.5142 Z0.0128
N10575 X0.9642 Y1.5138 Z0.0126
N10580 X0.971 Y1.5134 Z0.0124
N10585 X0.9781 Y1.5131 Z0.0121
N10590 X0.9853 Y1.5127 Z0.0119
N10595 X0.9872 Z0.0118
N10600 X0.9967 Y1.5135 Z0.0115
N10605 X1.0112 Y1.5149 Z0.011
N10610 X1.0253 Y1.5163 Z0.0105
N10615 X1.0391 Y1.5179 Z0.01
N10620 X1.0524 Y1.5196 Z0.0095
N10625 X1.0653 Y1.5215 Z0.009
N10630 X1.0777 Y1.5237 Z0.0086
N10635 X1.0896 Y1.5261 Z0.0082
N10640 X1.101 Y1.5288 Z0.0078
N10645 X1.1118 Y1.5318 Z0.0074
N10650 X1.1222 Y1.5352 Z0.007
N10655 X1.132 Y1.5389 Z0.0066
N10660 X1.1416 Y1.543 Z0.0063
N10665 X1.1513 Y1.5478 Z0.0059
N10670 X1.1612 Y1.5532 Z0.0055
N10675 X1.1712 Y1.5591 Z0.0051
N10680 X1.1815 Y1.5656 Z0.0047
N10685 X1.1919 Y1.5727 Z0.0042
N10690 X1.2024 Y1.5803 Z0.0038
N10695 X1.2132 Y1.5883 Z0.0033
N10700 X1.2242 Y1.5968 Z0.0028
N10705 X1.2353 Y1.6056 Z0.0023
N10710 X1.2467 Y1.6147 Z0.0018
N10715 X1.2523 Y1.6193 Z0.0016
N10720 X1.257 Y1.6248 Z0.0013
N10725 X1.2663 Y1.6358 Z0.0008
N10730 X1.2753 Y1.6466 Z0.0003
N10735 X1.2839 Y1.6572 Z-0.0002
N10740 X1.2921 Y1.6677 Z-0.0006
N10745 X1.2999 Y1.678 Z-0.0011
N10750 X1.307 Y1.688 Z-0.0015
N10755 X1.3137 Y1.6979 Z-0.0019
N10760 X1.3197 Y1.7077 Z-0.0023
N10765 X1.3252 Y1.7172 Z-0.0027
N10770 X1.33 Y1.7266 Z-0.0031
N10775 X1.3342 Y1.7359 Z-0.0034
N10780 X1.3379 Y1.7453 Z-0.0038
N10785 X1.3413 Y1.7553 Z-0.0042
N10790 X1.3443 Y1.7659 Z-0.0045
N10795 X1.3471 Y1.777 Z-0.0049
N10800 X1.3496 Y1.7886 Z-0.0054
N10805 X1.3518 Y1.8008 Z-0.0058
N10810 X1.3538 Y1.8135 Z-0.0062
N10815 X1.3556 Y1.8266 Z-0.0067
N10820 X1.3572 Y1.8402 Z-0.0072
N10825 X1.3587 Y1.8542 Z-0.0077
N10830 X1.3601 Y1.8686 Z-0.0082
N10835 X1.3611 Y1.8795 Z-0.0086
N10840 Y2.443 Z-0.0282
N10845 G2 X1.441 Y2.5252 Z-0.0327 I0.0822 J0.
N10850 G1 X1.4451 Y2.5253 Z-0.0328
N10855 X1.4489 Y2.5254 Z-0.0329
N10860 X1.4525 Y2.5255 Z-0.0331
N10865 X1.4558 Y2.5257 Z-0.0332
N10870 X1.4588 Y2.5259 Z-0.0333
N10875 X1.4614 Y2.5261 Z-0.0334
N10880 X1.4638 Y2.5263 Z-0.0335
N10885 X1.4658 Y2.5266
N10890 X1.4675 Y2.5268 Z-0.0336
N10895 X1.4689 Y2.5271
N10900 X1.47 Y2.5273 Z-0.0337
N10905 X1.4707 Y2.5275
N10910 X1.4711 Y2.5276
N10915 X1.472 Y2.528
N10920 X1.4729 Y2.5284 Z-0.0338
N10925 X1.4742 Y2.529
N10930 X1.4758 Y2.5299 Z-0.0339
N10935 X1.4778 Y2.531 Z-0.034
N10940 X1.48 Y2.5323 Z-0.0341
N10945 X1.4821 Y2.5337 Z-0.0342
N10950 X1.483 Y2.5348
N10955 X1.4839 Y2.5359 Z-0.0343
N10960 X1.4841 Y2.5377
N10965 X1.4844 Y2.5396 Z-0.0344
N10970 X1.4846 Y2.5418 Z-0.0345
N10975 X1.4848 Y2.5437
N10980 X1.4846 Y2.5457 Z-0.0346
N10985 X1.4844 Y2.5479 Z-0.0347
N10990 X1.4842 Y2.5497
N10995 X1.484 Y2.551 Z-0.0348
N11000 X1.4835 Y2.5516
N11005 X1.4813 Y2.5529 Z-0.0349
N11010 X1.4786 Y2.5543 Z-0.035
N11015 X1.4763 Y2.5555 Z-0.0351
N11020 X1.4743 Y2.5565 Z-0.0352
N11025 X1.4726 Y2.5572
N11030 X1.4713 Y2.5577 Z-0.0353
N11035 X1.4703 Y2.5581
N11040 X1.4693 Y2.5584 Z-0.0354
N11045 X1.4682 Y2.5587
N11050 X1.4669 Y2.559
N11055 X1.4652 Y2.5593 Z-0.0355
N11060 X1.4632 Y2.5596 Z-0.0356
N11065 X1.4609 Y2.5599 Z-0.0357
N11070 X1.4584 Y2.5601
N11075 X1.4555 Y2.5604 Z-0.0359
N11080 X1.4523 Y2.5605 Z-0.036
N11085 X1.4488 Y2.5607 Z-0.0361
N11090 X1.4451 Y2.5608 Z-0.0362
N11095 X1.4411 Y2.5609 Z-0.0364
N11100 X1.4369 Y2.561 Z-0.0365
N11105 X1.4328 Z-0.0366
N11110 X1.1713 Y2.562 Z-0.0458
N11115 X1.1675 Y2.5619 Z-0.0459
N11120 X1.1632 Z-0.0461
N11125 X1.1593 Y2.5618 Z-0.0462
N11130 X1.1555 Y2.5617 Z-0.0463
N11135 X1.1521 Y2.5615 Z-0.0464
N11140 X1.1489 Y2.5613 Z-0.0466
N11145 X1.1461 Y2.5611 Z-0.0467
N11150 X1.1435 Y2.5608
N11155 X1.1412 Y2.5605 Z-0.0468
N11160 X1.1393 Y2.5602 Z-0.0469
N11165 X1.1377 Y2.5599 Z-0.047
N11170 X1.1364 Y2.5596
N11175 X1.1353 Y2.5593
N11180 X1.1344 Y2.5591 Z-0.0471
N11185 X1.1334 Y2.5587
N11190 X1.1321 Y2.5582 Z-0.0472
N11195 X1.1305 Y2.5574
N11200 X1.1285 Y2.5565 Z-0.0473
N11205 X1.1262 Y2.5553 Z-0.0474
N11210 X1.1236 Y2.5538 Z-0.0475
N11215 X1.1213 Y2.5526 Z-0.0476
N11220 X1.1204 Y2.5514
N11225 X1.1202 Y2.5498 Z-0.0477
N11230 X1.1199 Y2.5479 Z-0.0478
N11235 X1.1197 Y2.5457
N11240 X1.1195 Y2.5436 Z-0.0479
N11245 X1.1197 Y2.5415 Z-0.048
N11250 X1.1199 Y2.5393 Z-0.0481
N11255 X1.1202 Y2.5374
N11260 X1.1204 Y2.5359 Z-0.0482
N11265 X1.1211 Y2.5349
N11270 X1.1236 Y2.5333 Z-0.0483
N11275 X1.1262 Y2.5319 Z-0.0484
N11280 X1.1285 Y2.5307 Z-0.0485
N11285 X1.1305 Y2.5298 Z-0.0486
N11290 X1.1321 Y2.529 Z-0.0487
N11295 X1.1335 Y2.5285
N11300 X1.1344 Y2.5281
N11305 X1.1353 Y2.5278 Z-0.0488
N11310 X1.1363 Y2.5276
N11315 X1.1376 Y2.5273 Z-0.0489
N11320 X1.1393 Y2.527
N11325 X1.1412 Y2.5267 Z-0.049
N11330 X1.1435 Y2.5264 Z-0.0491
N11335 X1.1461 Y2.5261 Z-0.0492
N11340 X1.149 Y2.5259 Z-0.0493
N11345 X1.1521 Y2.5257 Z-0.0494
N11350 X1.1555 Y2.5255 Z-0.0495
N11355 X1.1593 Y2.5254 Z-0.0496
N11360 X1.1633 Y2.5253 Z-0.0498
N11365 X1.1675 Y2.5252 Z-0.0499
N11370 X1.1714 Z-0.05
N11375 X1.2431 Z-0.0525
N11380 G2 X1.3253 Y2.443 Z-0.0571 I0. J-0.0822
N11385 G1 Y1.858 Z-0.0775
N11390 X1.3252 Y1.8544 Z-0.0776
N11395 X1.325 Y1.8501 Z-0.0778
N11400 X1.3248 Y1.8457 Z-0.0779
N11405 Y1.8453
N11410 X1.3246 Y1.841 Z-0.0781
N11415 X1.3245 Y1.8404
N11420 X1.3243 Y1.8361 Z-0.0782
N11425 X1.3242 Y1.8352 Z-0.0783
N11430 X1.3239 Y1.8309 Z-0.0784
N11435 X1.3238 Y1.8299 Z-0.0785
N11440 X1.3235 Y1.8257 Z-0.0786
N11445 X1.3234 Y1.8243 Z-0.0787
N11450 X1.3229 Y1.8201 Z-0.0788
N11455 X1.3228 Y1.8185 Z-0.0789
N11460 X1.3223 Y1.8143 Z-0.079
N11465 X1.322 Y1.8125 Z-0.0791
N11470 X1.3214 Y1.8083 Z-0.0792
N11475 X1.3211 Y1.8064 Z-0.0793
N11480 X1.3205 Y1.8022 Z-0.0794
N11485 X1.3201 Y1.8001 Z-0.0795
N11490 X1.3193 Y1.7959 Z-0.0797
N11495 X1.3187 Y1.7934 Z-0.0798
N11500 X1.3178 Y1.7894 Z-0.0799
N11505 X1.3172 Y1.7868 Z-0.08
N11510 X1.3161 Y1.7827 Z-0.0801
N11515 X1.3154 Y1.78 Z-0.0802
N11520 X1.3142 Y1.776 Z-0.0804
N11525 X1.3135 Y1.7737 Z-0.0805
N11530 X1.3121 Y1.7697 Z-0.0806
N11535 X1.3114 Y1.7675 Z-0.0807
N11540 X1.3099 Y1.7635 Z-0.0808
N11545 X1.3093 Y1.7617 Z-0.0809
N11550 X1.3077 Y1.7578 Z-0.0811
N11555 X1.3071 Y1.7561
N11560 X1.3055 Y1.7522 Z-0.0813
N11565 X1.3049 Y1.7508
N11570 X1.3032 Y1.7469 Z-0.0815
N11575 X1.3027 Y1.7459
N11580 X1.301 Y1.742 Z-0.0817
N11585 X1.3005 Y1.741
N11590 X1.2987 Y1.7371 Z-0.0818
N11595 X1.2984 Y1.7366 Z-0.0819
N11600 X1.2966 Y1.7327 Z-0.082
N11605 X1.2964 Y1.7322
N11610 X1.2945 Y1.7284 Z-0.0822
N11615 X1.2925 Y1.7243 Z-0.0823
N11620 G2 X1.2861 Y1.7134 Z-0.0828 I-0.0739 J0.0361
N11625 G1 X1.2827 Y1.7085 Z-0.083
N11630 X1.2792 Y1.7035 Z-0.0832
N11635 X1.2789 Y1.7032
N11640 X1.2755 Y1.6983 Z-0.0834
N11645 X1.2751 Y1.6978 Z-0.0835
N11650 X1.2717 Y1.693 Z-0.0837
N11655 X1.2712 Y1.6923
N11660 X1.2677 Y1.6876 Z-0.0839
N11665 X1.267 Y1.6867
N11670 X1.2635 Y1.682 Z-0.0841
N11675 X1.2627 Y1.6809 Z-0.0842
N11680 X1.259 Y1.6763 Z-0.0844
N11685 X1.2581 Y1.6751
N11690 X1.2544 Y1.6706 Z-0.0846
N11695 X1.2532 Y1.6692 Z-0.0847
N11700 X1.2494 Y1.6647 Z-0.0849
N11705 X1.2481 Y1.6632 Z-0.085
N11710 X1.2442 Y1.6589 Z-0.0852
N11715 X1.2427 Y1.6572 Z-0.0853
N11720 X1.2387 Y1.653 Z-0.0855
N11725 X1.237 Y1.6512 Z-0.0856
N11730 X1.2329 Y1.6471 Z-0.0858
N11735 X1.2309 Y1.6452 Z-0.0859
N11740 X1.2267 Y1.6413 Z-0.0861
N11745 X1.2248 Y1.6395
N11750 X1.2204 Y1.6357 Z-0.0863
N11755 X1.2187 Y1.6342 Z-0.0864
N11760 X1.2142 Y1.6305 Z-0.0866
N11765 X1.2125 Y1.6292 Z-0.0867
N11770 X1.2079 Y1.6256 Z-0.0869
N11775 X1.2065 Y1.6244 Z-0.087
N11780 X1.2018 Y1.6209 Z-0.0872
N11785 X1.2005 Y1.62
N11790 X1.1957 Y1.6165 Z-0.0874
N11795 X1.1946 Y1.6158 Z-0.0875
N11800 X1.1898 Y1.6124 Z-0.0877
N11805 X1.1888 Y1.6117
N11810 X1.1839 Y1.6084 Z-0.0879
N11815 X1.1832 Y1.6079 Z-0.088
N11820 X1.1783 Y1.6047 Z-0.0882
N11825 X1.1777 Y1.6043
N11830 X1.1728 Y1.6011 Z-0.0884
N11835 X1.1724 Y1.6009
N11840 X1.1674 Y1.5977 Z-0.0886
N11845 X1.1622 Y1.5944 Z-0.0888
N11850 G2 X1.1526 Y1.5891 Z-0.0892 I-0.0441 J0.0693
N11855 G1 X1.1474 Y1.5867 Z-0.0894
N11860 X1.1419 Y1.5842 Z-0.0896
N11865 X1.1363 Y1.5817 Z-0.0899
N11870 X1.1358 Y1.5814
N11875 X1.1305 Y1.5791 Z-0.0901
N11880 X1.1297 Y1.5787
N11885 X1.1244 Y1.5764 Z-0.0903
N11890 X1.1235 Y1.576
N11895 X1.1182 Y1.5738 Z-0.0905
N11900 X1.117 Y1.5733 Z-0.0906
N11905 X1.1117 Y1.5712 Z-0.0908
N11910 X1.1104 Y1.5707
N11915 X1.105 Y1.5687 Z-0.091
N11920 X1.1034 Y1.5681 Z-0.0911
N11925 X1.098 Y1.5662 Z-0.0913
N11930 X1.0961 Y1.5655 Z-0.0914
N11935 X1.0907 Y1.5638 Z-0.0916
N11940 X1.0887 Y1.5631
N11945 X1.0833 Y1.5615 Z-0.0918
N11950 X1.081 Y1.5609 Z-0.0919
N11955 X1.0756 Y1.5594 Z-0.0921
N11960 X1.0731 Y1.5588 Z-0.0922
N11965 X1.0676 Y1.5575 Z-0.0924
N11970 X1.0652 Y1.557 Z-0.0925
N11975 X1.0597 Y1.5558 Z-0.0927
N11980 X1.0576 Y1.5554 Z-0.0928
N11985 X1.052 Y1.5544 Z-0.093
N11990 X1.0501 Y1.5541
N11995 X1.0445 Y1.5533 Z-0.0932
N12000 X1.0428 Y1.553 Z-0.0933
N12005 X1.0371 Y1.5523 Z-0.0935
N12010 X1.0357 Y1.5521
N12015 X1.03 Y1.5514 Z-0.0937
N12020 X1.0287 Y1.5513 Z-0.0938
N12025 X1.023 Y1.5507 Z-0.094
N12030 X1.0219 Y1.5506
N12035 X1.0162 Y1.5501 Z-0.0942
N12040 X1.0154
N12045 X1.0097 Y1.5497 Z-0.0944
N12050 X1.0091 Y1.5496 Z-0.0945
N12055 X1.0033 Y1.5492 Z-0.0947
N12060 X1.0029
N12065 X0.9971 Y1.5488 Z-0.0949
N12070 X0.9912 Y1.5485 Z-0.0951
N12075 G2 X0.9795 Y1.5486 Z-0.0955 I-0.0049 J0.082
N12080 G1 X0.9712 Y1.5493 Z-0.0958
N12085 X0.9625 Y1.55 Z-0.0961
N12090 X0.9619 Y1.5501
N12095 X0.9536 Y1.5509 Z-0.0964
N12100 X0.9527
N12105 X0.9444 Y1.5518 Z-0.0967
N12110 X0.9432 Y1.5519 Z-0.0968
N12115 X0.935 Y1.5529 Z-0.0971
N12120 X0.9334 Y1.5531
N12125 X0.9252 Y1.5543 Z-0.0974
N12130 X0.9234 Y1.5546 Z-0.0975
N12135 X0.9153 Y1.5559 Z-0.0978
N12140 X0.9131 Y1.5563
N12145 X0.905 Y1.5578 Z-0.0981
N12150 X0.9025 Y1.5583 Z-0.0982
N12155 X0.8946 Y1.5601 Z-0.0985
N12160 X0.8917 Y1.5608 Z-0.0986
N12165 X0.8839 Y1.5628 Z-0.0989
N12170 X0.8808 Y1.5637 Z-0.099
N12175 X0.8731 Y1.5661 Z-0.0993
N12180 X0.8696 Y1.5672 Z-0.0994
N12185 X0.862 Y1.5699 Z-0.0997
N12190 X0.8584 Y1.5712 Z-0.0998
N12195 X0.851 Y1.5743 Z-0.1001
N12200 X0.8475 Y1.5758 Z-0.1002
N12205 X0.8402 Y1.5791 Z-0.1005
N12210 X0.8373 Y1.5806 Z-0.1006
N12215 X0.8301 Y1.5843 Z-0.1009
N12220 X0.8274 Y1.5857 Z-0.101
N12225 X0.8203 Y1.5897 Z-0.1013
N12230 X0.818 Y1.591 Z-0.1014
N12235 X0.811 Y1.5952 Z-0.1017
N12240 X0.8091 Y1.5964 Z-0.1018
N12245 X0.8022 Y1.6008 Z-0.102
N12250 X0.8005 Y1.6019 Z-0.1021
N12255 X0.7937 Y1.6065 Z-0.1024
N12260 X0.7924 Y1.6074
N12265 X0.7856 Y1.6121 Z-0.1027
N12270 X0.7846 Y1.6129 Z-0.1028
N12275 X0.7779 Y1.6177 Z-0.1031
N12280 X0.7771 Y1.6183
N12285 X0.7704 Y1.6233 Z-0.1034
N12290 X0.7699 Y1.6236
N12295 X0.7632 Y1.6287 Z-0.1037
N12300 X0.7563 Y1.6339 Z-0.104
N12305 G2 X0.7461 Y1.6432 Z-0.1045 I0.0498 J0.0654
N12310 G1 X0.7408 Y1.6488 Z-0.1048
N12315 X0.7353 Y1.6548 Z-0.105
N12320 X0.7349 Y1.6552 Z-0.1051
N12325 X0.7297 Y1.6609 Z-0.1053
N12330 X0.7291 Y1.6616 Z-0.1054
N12335 X0.724 Y1.6673 Z-0.1056
N12340 X0.7231 Y1.6683 Z-0.1057
N12345 X0.7181 Y1.6741 Z-0.106
N12350 X0.717 Y1.6754
N12355 X0.7122 Y1.6812 Z-0.1063
N12360 X0.711 Y1.6827
N12365 X0.7063 Y1.6887 Z-0.1066
N12370 X0.7048 Y1.6906 Z-0.1067
N12375 X0.7004 Y1.6966 Z-0.107
N12380 X0.6988 Y1.6989 Z-0.1071
N12385 X0.6946 Y1.705 Z-0.1073
N12390 X0.6928 Y1.7076 Z-0.1074
N12395 X0.6889 Y1.7138 Z-0.1077
N12400 X0.687 Y1.7169 Z-0.1078
N12405 X0.6834 Y1.7232 Z-0.1081
N12410 X0.6815 Y1.7267 Z-0.1082
N12415 X0.6782 Y1.7333 Z-0.1085
N12420 X0.6763 Y1.7372 Z-0.1086
N12425 X0.6733 Y1.7438 Z-0.1089
N12430 X0.6717 Y1.7477 Z-0.109
N12435 X0.6691 Y1.7545 Z-0.1093
N12440 X0.6677 Y1.7582 Z-0.1094
N12445 X0.6654 Y1.7652 Z-0.1097
N12450 X0.6644 Y1.7684 Z-0.1098
N12455 X0.6624 Y1.7755 Z-0.11
N12460 X0.6616 Y1.7784 Z-0.1101
N12465 X0.6598 Y1.7856 Z-0.1104
N12470 X0.6592 Y1.7882 Z-0.1105
N12475 X0.6576 Y1.7955 Z-0.1107
N12480 X0.6572 Y1.7977 Z-0.1108
N12485 X0.6558 Y1.8051 Z-0.1111
N12490 X0.6555 Y1.8069 Z-0.1112
N12495 X0.6543 Y1.8144 Z-0.1114
N12500 X0.654 Y1.8158 Z-0.1115
N12505 X0.6529 Y1.8233 Z-0.1117
N12510 X0.6528 Y1.8244 Z-0.1118
N12515 X0.6518 Y1.8319 Z-0.112
N12520 X0.6517 Y1.8326 Z-0.1121
N12525 X0.6507 Y1.8402 Z-0.1123
N12530 Y1.8406
N12535 X0.6498 Y1.8482 Z-0.1126
N12540 X0.6493 Y1.8531 Z-0.1128
N12545 X0.6492 Y1.858 Z-0.113
N12550 Y2.443 Z-0.1334
N12555 G2 X0.7314 Y2.5252 Z-0.1379 I0.0822 J0.
N12560 G1 X0.8031 Z-0.1404
N12565 X0.807 Z-0.1405
N12570 X0.8112 Y2.5253 Z-0.1407
N12575 X0.8152 Y2.5254 Z-0.1408
N12580 X0.8189 Y2.5255 Z-0.1409
N12585 X0.8223 Y2.5257 Z-0.1411
N12590 X0.8255 Y2.5259 Z-0.1412
N12595 X0.8284 Y2.5261 Z-0.1413
N12600 X0.8309 Y2.5264 Z-0.1414
N12605 X0.8332 Y2.5266
N12610 X0.8352 Y2.527 Z-0.1415
N12615 X0.8368 Y2.5273 Z-0.1416
N12620 X0.8381 Y2.5276
N12625 X0.8392 Y2.5278 Z-0.1417
N12630 X0.84 Y2.5281
N12635 X0.841 Y2.5285
N12640 X0.8423 Y2.529 Z-0.1418
N12645 X0.844 Y2.5298
N12650 X0.8459 Y2.5307 Z-0.1419
N12655 X0.8482 Y2.5319 Z-0.142
N12660 X0.8508 Y2.5333 Z-0.1421
N12665 X0.8531 Y2.5346 Z-0.1422
N12670 X0.8534 Y2.5349
N12675 X0.854 Y2.5358 Z-0.1423
N12680 X0.8543 Y2.5374
N12685 X0.8545 Y2.5393 Z-0.1424
N12690 X0.8547 Y2.5415 Z-0.1425
N12695 X0.8549 Y2.5436
N12700 X0.8547 Y2.5457 Z-0.1426
N12705 X0.8545 Y2.5479 Z-0.1427
N12710 X0.8543 Y2.5497
N12715 X0.854 Y2.5513 Z-0.1428
N12720 X0.8533 Y2.5523
N12725 X0.8509 Y2.5538 Z-0.1429
N12730 X0.8482 Y2.5553 Z-0.143
N12735 X0.8459 Y2.5565 Z-0.1431
N12740 X0.8439 Y2.5574 Z-0.1432
N12745 X0.8423 Y2.5582 Z-0.1433
N12750 X0.841 Y2.5587
N12755 X0.84 Y2.5591 Z-0.1434
N12760 X0.8392 Y2.5593
N12765 X0.8381 Y2.5596
N12770 X0.8368 Y2.5599 Z-0.1435
N12775 X0.8352 Y2.5602
N12780 X0.8332 Y2.5605 Z-0.1436
N12785 X0.8309 Y2.5608 Z-0.1437
N12790 X0.8284 Y2.5611 Z-0.1438
N12795 X0.8255 Y2.5613 Z-0.1439
N12800 X0.8224 Y2.5615 Z-0.144
N12805 X0.8189 Y2.5617 Z-0.1441
N12810 X0.8152 Y2.5618 Z-0.1442
N12815 X0.8112 Y2.5619 Z-0.1444
N12820 X0.807 Z-0.1445
N12825 X0.8032 Y2.562 Z-0.1447
N12830 X0.5415 Y2.561 Z-0.1538
N12835 X0.5373 Z-0.1539
N12840 X0.5331 Y2.5609 Z-0.1541
N12845 X0.5291 Y2.5608 Z-0.1542
N12850 X0.5253 Y2.5607 Z-0.1544
N12855 X0.5219 Y2.5606 Z-0.1545
N12860 X0.5187 Y2.5604 Z-0.1546
N12865 X0.5158 Y2.5602 Z-0.1547
N12870 X0.5132 Y2.5599 Z-0.1548
N12875 X0.5108 Y2.5596 Z-0.1549
N12880 X0.5089 Y2.5593
N12885 X0.5072 Y2.559 Z-0.155
N12890 X0.5057 Y2.5587
N12895 X0.5046 Y2.5584 Z-0.1551
N12900 X0.5037 Y2.5582
N12905 X0.5027 Y2.5578 Z-0.1552
N12910 X0.5014 Y2.5573
N12915 X0.4998 Y2.5565 Z-0.1553
N12920 X0.4978 Y2.5556
N12925 X0.4955 Y2.5544 Z-0.1554
N12930 X0.4928 Y2.553 Z-0.1555
N12935 X0.4909 Y2.5519 Z-0.1556
N12940 X0.4905 Y2.5514
N12945 X0.4903 Y2.5499 Z-0.1557
N12950 X0.49 Y2.5481 Z-0.1558
N12955 X0.4898 Y2.5458
N12960 X0.4896 Y2.5438 Z-0.1559
N12965 X0.4898 Y2.5418 Z-0.156
N12970 X0.4901 Y2.5396 Z-0.1561
N12975 X0.4903 Y2.5377
N12980 X0.4905 Y2.5363 Z-0.1562
N12985 X0.4914 Y2.5348
N12990 X0.4923 Y2.5337 Z-0.1563
N12995 X0.4945 Y2.5323 Z-0.1564
N13000 X0.4967 Y2.531 Z-0.1565
N13005 X0.4986 Y2.5299
N13010 X0.5002 Y2.529 Z-0.1566
N13015 X0.5015 Y2.5284 Z-0.1567
N13020 X0.5024 Y2.528
N13025 X0.503 Y2.5277
N13030 X0.5038 Y2.5275
N13035 X0.5045 Y2.5273 Z-0.1568
N13040 X0.5055 Y2.5271
N13045 X0.5069 Y2.5268 Z-0.1569
N13050 X0.5086 Y2.5266
N13055 X0.5107 Y2.5263 Z-0.157
N13060 X0.513 Y2.5261 Z-0.1571
N13065 X0.5157 Y2.5259 Z-0.1572
N13070 X0.5186 Y2.5257 Z-0.1573
N13075 X0.5219 Y2.5255 Z-0.1574
N13080 X0.5255 Y2.5254 Z-0.1575
N13085 X0.5293 Y2.5253 Z-0.1576
N13090 X0.5334 Y2.5252 Z-0.1578
N13095 G2 X0.6134 Y2.443 Z-0.1622 I-0.0023 J-0.0822
N13100 G1 Y1.8766 Z-0.182
N13105 X0.6135 Y1.8697 Z-0.1822
N13110 X0.6137 Y1.862 Z-0.1825
N13115 X0.6139 Y1.8545 Z-0.1828
N13120 X0.6142 Y1.8472 Z-0.183
N13125 X0.6145 Y1.8401 Z-0.1833
N13130 X0.6149 Y1.8332 Z-0.1835
N13135 X0.6154 Y1.8265 Z-0.1837
N13140 X0.6159 Y1.8201 Z-0.184
N13145 X0.6166 Y1.8138 Z-0.1842
N13150 X0.6173 Y1.8078 Z-0.1844
N13155 X0.6182 Y1.8019 Z-0.1846
N13160 X0.6191 Y1.7963 Z-0.1848
N13165 X0.6202 Y1.7909 Z-0.185
N13170 X0.6214 Y1.7856 Z-0.1852
N13175 X0.6229 Y1.7801 Z-0.1854
N13180 X0.6245 Y1.7744 Z-0.1856
N13185 X0.6263 Y1.7685 Z-0.1858
N13190 X0.6283 Y1.7624 Z-0.186
N13195 X0.6305 Y1.7562 Z-0.1863
N13200 X0.6329 Y1.7497 Z-0.1865
N13205 X0.6354 Y1.743 Z-0.1868
N13210 X0.6381 Y1.7361 Z-0.187
N13215 X0.6408 Y1.7291 Z-0.1873
N13220 X0.6413 Y1.7278
N13225 X0.6416 Y1.7274
N13230 X0.645 Y1.7216 Z-0.1876
N13235 X0.6484 Y1.7159 Z-0.1878
N13240 X0.6518 Y1.7103 Z-0.188
N13245 X0.6551 Y1.7049 Z-0.1883
N13250 X0.6584 Y1.6996 Z-0.1885
N13255 X0.6617 Y1.6945 Z-0.1887
N13260 X0.6649 Y1.6896 Z-0.1889
N13265 X0.6681 Y1.6848 Z-0.1891
N13270 X0.6714 Y1.6802 Z-0.1893
N13275 X0.6745 Y1.6758 Z-0.1895
N13280 X0.6778 Y1.6715 Z-0.1897
N13285 X0.6812 Y1.6672 Z-0.1899
N13290 X0.6847 Y1.6629 Z-0.1901
N13295 X0.6883 Y1.6585 Z-0.1903
N13300 X0.6922 Y1.654 Z-0.1905
N13305 X0.6962 Y1.6496 Z-0.1907
N13310 X0.7003 Y1.645 Z-0.1909
N13315 X0.7045 Y1.6404 Z-0.1911
N13320 X0.7089 Y1.6358 Z-0.1913
N13325 X0.7134 Y1.631 Z-0.1916
N13330 X0.718 Y1.6262 Z-0.1918
N13335 X0.7227 Y1.6213 Z-0.192
N13340 X0.7253 Y1.6185 Z-0.1922
N13345 X0.7285 Y1.6157 Z-0.1923
N13350 X0.7339 Y1.611 Z-0.1926
N13355 X0.7391 Y1.6064 Z-0.1928
N13360 X0.7442 Y1.6019 Z-0.193
N13365 X0.7492 Y1.5976 Z-0.1933
N13370 X0.7541 Y1.5935 Z-0.1935
N13375 X0.759 Y1.5895 Z-0.1937
N13380 X0.7638 Y1.5857 Z-0.1939
N13385 X0.7684 Y1.5821 Z-0.1941
N13390 X0.773 Y1.5787 Z-0.1943
N13395 X0.7775 Y1.5755 Z-0.1945
N13400 X0.782 Y1.5725 Z-0.1947
N13405 X0.7865 Y1.5696 Z-0.1949
N13410 X0.7912 Y1.5668 Z-0.1951
N13415 X0.7961 Y1.5639 Z-0.1953
N13420 X0.8013 Y1.561 Z-0.1955
N13425 X0.8066 Y1.5582 Z-0.1957
N13430 X0.8122 Y1.5553 Z-0.1959
N13435 X0.8179 Y1.5525 Z-0.1961
N13440 X0.8238 Y1.5496 Z-0.1964
N13445 X0.83 Y1.5467 Z-0.1966
N13450 X0.8362 Y1.5437 Z-0.1969
N13455 X0.8427 Y1.5407 Z-0.1971
N13460 X0.8455 Y1.5394 Z-0.1972
N13465 X0.8484 Y1.5384 Z-0.1973
N13470 X0.8553 Y1.5361 Z-0.1976
N13475 X0.862 Y1.5338 Z-0.1978
N13480 X0.8685 Y1.5317 Z-0.1981
N13485 X0.8749 Y1.5296 Z-0.1983
N13490 X0.8811 Y1.5277 Z-0.1985
N13495 X0.8872 Y1.5259 Z-0.1987
N13500 X0.8931 Y1.5243 Z-0.199
N13505 X0.8989 Y1.5227 Z-0.1992
N13510 X0.9046 Y1.5214 Z-0.1994
N13515 X0.9101 Y1.5201 Z-0.1996
N13520 X0.9155 Y1.5191 Z-0.1998
N13525 X0.921 Y1.5181 Z-0.2
N13530 X0.9266 Y1.5173 Z-0.2001
N13535 X0.9324 Y1.5165 Z-0.2004
N13540 X0.9384 Y1.5158 Z-0.2006
N13545 X0.9445 Y1.5152 Z-0.2008
N13550 X0.9509 Y1.5147 Z-0.201
N13555 X0.9574 Y1.5142 Z-0.2012
N13560 X0.9642 Y1.5138 Z-0.2015
N13565 X0.971 Y1.5134 Z-0.2017
N13570 X0.9781 Y1.5131 Z-0.202
N13575 X0.9853 Y1.5127 Z-0.2022
N13580 X0.9872 Z-0.2023
N13585 X0.9967 Y1.5135 Z-0.2026
N13590 X1.0112 Y1.5149 Z-0.2031
N13595 X1.0253 Y1.5163 Z-0.2036
N13600 X1.0391 Y1.5179 Z-0.2041
N13605 X1.0524 Y1.5196 Z-0.2046
N13610 X1.0653 Y1.5215 Z-0.205
N13615 X1.0777 Y1.5237 Z-0.2055
N13620 X1.0896 Y1.5261 Z-0.2059
N13625 X1.101 Y1.5288 Z-0.2063
N13630 X1.1118 Y1.5318 Z-0.2067
N13635 X1.1222 Y1.5352 Z-0.2071
N13640 X1.132 Y1.5389 Z-0.2074
N13645 X1.1416 Y1.543 Z-0.2078
N13650 X1.1513 Y1.5478 Z-0.2082
N13655 X1.1612 Y1.5532 Z-0.2086
N13660 X1.1712 Y1.5591 Z-0.209
N13665 X1.1815 Y1.5656 Z-0.2094
N13670 X1.1919 Y1.5727 Z-0.2098
N13675 X1.2024 Y1.5803 Z-0.2103
N13680 X1.2132 Y1.5883 Z-0.2108
N13685 X1.2242 Y1.5968 Z-0.2112
N13690 X1.2353 Y1.6056 Z-0.2117
N13695 X1.2467 Y1.6147 Z-0.2122
N13700 X1.2523 Y1.6193 Z-0.2125
N13705 X1.257 Y1.6248 Z-0.2128
N13710 X1.2663 Y1.6358 Z-0.2133
N13715 X1.2753 Y1.6466 Z-0.2138
N13720 X1.2839 Y1.6572 Z-0.2142
N13725 X1.2921 Y1.6677 Z-0.2147
N13730 X1.2999 Y1.678 Z-0.2151
N13735 X1.307 Y1.688 Z-0.2156
N13740 X1.3137 Y1.6979 Z-0.216
N13745 X1.3197 Y1.7077 Z-0.2164
N13750 X1.3252 Y1.7172 Z-0.2168
N13755 X1.33 Y1.7266 Z-0.2171
N13760 X1.3342 Y1.7359 Z-0.2175
N13765 X1.3379 Y1.7453 Z-0.2179
N13770 X1.3413 Y1.7553 Z-0.2182
N13775 X1.3443 Y1.7659 Z-0.2186
N13780 X1.3471 Y1.777 Z-0.219
N13785 X1.3496 Y1.7886 Z-0.2194
N13790 X1.3518 Y1.8008 Z-0.2199
N13795 X1.3538 Y1.8135 Z-0.2203
N13800 X1.3556 Y1.8266 Z-0.2208
N13805 X1.3572 Y1.8402 Z-0.2212
N13810 X1.3587 Y1.8542 Z-0.2217
N13815 X1.3601 Y1.8686 Z-0.2222
N13820 X1.3611 Y1.8795 Z-0.2226
N13825 Y2.443 Z-0.2423
N13830 G2 X1.441 Y2.5252 Z-0.2467 I0.0822 J0.
N13835 G1 X1.4451 Y2.5253 Z-0.2469
N13840 X1.4489 Y2.5254 Z-0.247
N13845 X1.4525 Y2.5255 Z-0.2471
N13850 X1.4558 Y2.5257 Z-0.2472
N13855 X1.4588 Y2.5259 Z-0.2473
N13860 X1.4614 Y2.5261 Z-0.2474
N13865 X1.4638 Y2.5263 Z-0.2475
N13870 X1.4658 Y2.5266 Z-0.2476
N13875 X1.4675 Y2.5268 Z-0.2477
N13880 X1.4689 Y2.5271
N13885 X1.47 Y2.5273
N13890 X1.4707 Y2.5275 Z-0.2478
N13895 X1.4711 Y2.5276
N13900 X1.472 Y2.528
N13905 X1.4729 Y2.5284 Z-0.2479
N13910 X1.4742 Y2.529
N13915 X1.4758 Y2.5299 Z-0.248
N13920 X1.4778 Y2.531
N13925 X1.48 Y2.5323 Z-0.2481
N13930 X1.4821 Y2.5337 Z-0.2482
N13935 X1.483 Y2.5348 Z-0.2483
N13940 X1.4839 Y2.5359
N13945 X1.4841 Y2.5377 Z-0.2484
N13950 X1.4844 Y2.5396 Z-0.2485
N13955 X1.4846 Y2.5418
N13960 X1.4848 Y2.5437 Z-0.2486
N13965 X1.4846 Y2.5457 Z-0.2487
N13970 X1.4844 Y2.5479
N13975 X1.4842 Y2.5497 Z-0.2488
N13980 X1.484 Y2.551 Z-0.2489
N13985 X1.4835 Y2.5516
N13990 X1.4813 Y2.5529 Z-0.249
N13995 X1.4786 Y2.5543 Z-0.2491
N14000 X1.4763 Y2.5555 Z-0.2492
N14005 X1.4743 Y2.5565
N14010 X1.4726 Y2.5572 Z-0.2493
N14015 X1.4713 Y2.5577 Z-0.2494
N14020 X1.4703 Y2.5581
N14025 X1.4693 Y2.5584
N14030 X1.4682 Y2.5587 Z-0.2495
N14035 X1.4669 Y2.559
N14040 X1.4652 Y2.5593 Z-0.2496
N14045 X1.4632 Y2.5596
N14050 X1.4609 Y2.5599 Z-0.2497
N14055 X1.4584 Y2.5601 Z-0.2498
N14060 X1.4555 Y2.5604 Z-0.2499
N14065 X1.4523 Y2.5605 Z-0.25
N14070 X1.4488 Y2.5607 Z-0.2502
N14075 X1.4451 Y2.5608 Z-0.2503
N14080 X1.4411 Y2.5609 Z-0.2504
N14085 X1.4369 Y2.561 Z-0.2506
N14090 X1.4328 Z-0.2507
N14095 X1.1713 Y2.562 Z-0.2598
N14100 X1.1675 Y2.5619 Z-0.26
N14105 X1.1632 Z-0.2601
N14110 X1.1593 Y2.5618 Z-0.2603
N14115 X1.1555 Y2.5617 Z-0.2604
N14120 X1.1521 Y2.5615 Z-0.2605
N14125 X1.1489 Y2.5613 Z-0.2606
N14130 X1.1461 Y2.5611 Z-0.2607
N14135 X1.1435 Y2.5608 Z-0.2608
N14140 X1.1412 Y2.5605 Z-0.2609
N14145 X1.1393 Y2.5602 Z-0.261
N14150 X1.1377 Y2.5599
N14155 X1.1364 Y2.5596 Z-0.2611
N14160 X1.1353 Y2.5593
N14165 X1.1344 Y2.5591
N14170 X1.1334 Y2.5587 Z-0.2612
N14175 X1.1321 Y2.5582
N14180 X1.1305 Y2.5574 Z-0.2613
N14185 X1.1285 Y2.5565 Z-0.2614
N14190 X1.1262 Y2.5553 Z-0.2615
N14195 X1.1236 Y2.5538 Z-0.2616
N14200 X1.1213 Y2.5526
N14205 X1.1204 Y2.5514 Z-0.2617
N14210 X1.1202 Y2.5498 Z-0.2618
N14215 X1.1199 Y2.5479
N14220 X1.1197 Y2.5457 Z-0.2619
N14225 X1.1195 Y2.5436 Z-0.262
N14230 X1.1197 Y2.5415
N14235 X1.1199 Y2.5393 Z-0.2621
N14240 X1.1202 Y2.5374 Z-0.2622
N14245 X1.1204 Y2.5359
N14250 X1.1211 Y2.5349 Z-0.2623
N14255 X1.1236 Y2.5333 Z-0.2624
N14260 X1.1262 Y2.5319 Z-0.2625
N14265 X1.1285 Y2.5307 Z-0.2626
N14270 X1.1305 Y2.5298 Z-0.2627
N14275 X1.1321 Y2.529
N14280 X1.1335 Y2.5285 Z-0.2628
N14285 X1.1344 Y2.5281
N14290 X1.1353 Y2.5278
N14295 X1.1363 Y2.5276 Z-0.2629
N14300 X1.1376 Y2.5273
N14305 X1.1393 Y2.527 Z-0.263
N14310 X1.1412 Y2.5267 Z-0.2631
N14315 X1.1435 Y2.5264
N14320 X1.1461 Y2.5261 Z-0.2632
N14325 X1.149 Y2.5259 Z-0.2633
N14330 X1.1521 Y2.5257 Z-0.2634
N14335 X1.1555 Y2.5255 Z-0.2636
N14340 X1.1593 Y2.5254 Z-0.2637
N14345 X1.1633 Y2.5253 Z-0.2638
N14350 X1.1675 Y2.5252 Z-0.264
N14355 X1.1714 Z-0.2641
N14360 X1.2431 Z-0.2666
N14365 G2 X1.3152 Y2.4824 Z-0.2697 I0. J-0.0822
N14370 X1.3253 Y2.443 I-0.0721 J-0.0394 F39.37
N14375 G1 Y1.858
N14380 X1.3252 Y1.8544
N14385 X1.325 Y1.8501
N14390 X1.3248 Y1.8457
N14395 Y1.8453
N14400 X1.3246 Y1.841
N14405 X1.3245 Y1.8404
N14410 X1.3243 Y1.8361
N14415 X1.3242 Y1.8352
N14420 X1.3239 Y1.8309
N14425 X1.3238 Y1.8299
N14430 X1.3235 Y1.8257
N14435 X1.3234 Y1.8243
N14440 X1.3229 Y1.8201
N14445 X1.3228 Y1.8185
N14450 X1.3223 Y1.8143
N14455 X1.322 Y1.8125
N14460 X1.3214 Y1.8083
N14465 X1.3211 Y1.8064
N14470 X1.3205 Y1.8022
N14475 X1.3201 Y1.8001
N14480 X1.3193 Y1.7959
N14485 X1.3187 Y1.7934
N14490 X1.3178 Y1.7894
N14495 X1.3172 Y1.7868
N14500 X1.3161 Y1.7827
N14505 X1.3154 Y1.78
N14510 X1.3142 Y1.776
N14515 X1.3135 Y1.7737
N14520 X1.3121 Y1.7697
N14525 X1.3114 Y1.7675
N14530 X1.3099 Y1.7635
N14535 X1.3093 Y1.7617
N14540 X1.3077 Y1.7578
N14545 X1.3071 Y1.7561
N14550 X1.3055 Y1.7522
N14555 X1.3049 Y1.7508
N14560 X1.3032 Y1.7469
N14565 X1.3027 Y1.7459
N14570 X1.301 Y1.742
N14575 X1.3005 Y1.741
N14580 X1.2987 Y1.7371
N14585 X1.2984 Y1.7366
N14590 X1.2966 Y1.7327
N14595 X1.2964 Y1.7322
N14600 X1.2945 Y1.7284
N14605 X1.2925 Y1.7243
N14610 G2 X1.2861 Y1.7134 I-0.0739 J0.0361
N14615 G1 X1.2827 Y1.7085
N14620 X1.2792 Y1.7035
N14625 X1.2789 Y1.7032
N14630 X1.2755 Y1.6983
N14635 X1.2751 Y1.6978
N14640 X1.2717 Y1.693
N14645 X1.2712 Y1.6923
N14650 X1.2677 Y1.6876
N14655 X1.267 Y1.6867
N14660 X1.2635 Y1.682
N14665 X1.2627 Y1.6809
N14670 X1.259 Y1.6763
N14675 X1.2581 Y1.6751
N14680 X1.2544 Y1.6706
N14685 X1.2532 Y1.6692
N14690 X1.2494 Y1.6647
N14695 X1.2481 Y1.6632
N14700 X1.2442 Y1.6589
N14705 X1.2427 Y1.6572
N14710 X1.2387 Y1.653
N14715 X1.237 Y1.6512
N14720 X1.2329 Y1.6471
N14725 X1.2309 Y1.6452
N14730 X1.2267 Y1.6413
N14735 X1.2248 Y1.6395
N14740 X1.2204 Y1.6357
N14745 X1.2187 Y1.6342
N14750 X1.2142 Y1.6305
N14755 X1.2125 Y1.6292
N14760 X1.2079 Y1.6256
N14765 X1.2065 Y1.6244
N14770 X1.2018 Y1.6209
N14775 X1.2005 Y1.62
N14780 X1.1957 Y1.6165
N14785 X1.1946 Y1.6158
N14790 X1.1898 Y1.6124
N14795 X1.1888 Y1.6117
N14800 X1.1839 Y1.6084
N14805 X1.1832 Y1.6079
N14810 X1.1783 Y1.6047
N14815 X1.1777 Y1.6043
N14820 X1.1728 Y1.6011
N14825 X1.1724 Y1.6009
N14830 X1.1674 Y1.5977
N14835 X1.1622 Y1.5944
N14840 G2 X1.1526 Y1.5891 I-0.0441 J0.0693
N14845 G1 X1.1474 Y1.5867
N14850 X1.1419 Y1.5842
N14855 X1.1363 Y1.5817
N14860 X1.1358 Y1.5814
N14865 X1.1305 Y1.5791
N14870 X1.1297 Y1.5787
N14875 X1.1244 Y1.5764
N14880 X1.1235 Y1.576
N14885 X1.1182 Y1.5738
N14890 X1.117 Y1.5733
N14895 X1.1117 Y1.5712
N14900 X1.1104 Y1.5707
N14905 X1.105 Y1.5687
N14910 X1.1034 Y1.5681
N14915 X1.098 Y1.5662
N14920 X1.0961 Y1.5655
N14925 X1.0907 Y1.5638
N14930 X1.0887 Y1.5631
N14935 X1.0833 Y1.5615
N14940 X1.081 Y1.5609
N14945 X1.0756 Y1.5594
N14950 X1.0731 Y1.5588
N14955 X1.0676 Y1.5575
N14960 X1.0652 Y1.557
N14965 X1.0597 Y1.5558
N14970 X1.0576 Y1.5554
N14975 X1.052 Y1.5544
N14980 X1.0501 Y1.5541
N14985 X1.0445 Y1.5533
N14990 X1.0428 Y1.553
N14995 X1.0371 Y1.5523
N15000 X1.0357 Y1.5521
N15005 X1.03 Y1.5514
N15010 X1.0287 Y1.5513
N15015 X1.023 Y1.5507
N15020 X1.0219 Y1.5506
N15025 X1.0162 Y1.5501
N15030 X1.0154
N15035 X1.0097 Y1.5497
N15040 X1.0091 Y1.5496
N15045 X1.0033 Y1.5492
N15050 X1.0029
N15055 X0.9971 Y1.5488
N15060 X0.9912 Y1.5485
N15065 G2 X0.9795 Y1.5486 I-0.0049 J0.082
N15070 G1 X0.9712 Y1.5493
N15075 X0.9625 Y1.55
N15080 X0.9619 Y1.5501
N15085 X0.9536 Y1.5509
N15090 X0.9527
N15095 X0.9444 Y1.5518
N15100 X0.9432 Y1.5519
N15105 X0.935 Y1.5529
N15110 X0.9334 Y1.5531
N15115 X0.9252 Y1.5543
N15120 X0.9234 Y1.5546
N15125 X0.9153 Y1.5559
N15130 X0.9131 Y1.5563
N15135 X0.905 Y1.5578
N15140 X0.9025 Y1.5583
N15145 X0.8946 Y1.5601
N15150 X0.8917 Y1.5608
N15155 X0.8839 Y1.5628
N15160 X0.8808 Y1.5637
N15165 X0.8731 Y1.5661
N15170 X0.8696 Y1.5672
N15175 X0.862 Y1.5699
N15180 X0.8584 Y1.5712
N15185 X0.851 Y1.5743
N15190 X0.8475 Y1.5758
N15195 X0.8402 Y1.5791
N15200 X0.8373 Y1.5806
N15205 X0.8301 Y1.5843
N15210 X0.8274 Y1.5857
N15215 X0.8203 Y1.5897
N15220 X0.818 Y1.591
N15225 X0.811 Y1.5952
N15230 X0.8091 Y1.5964
N15235 X0.8022 Y1.6008
N15240 X0.8005 Y1.6019
N15245 X0.7937 Y1.6065
N15250 X0.7924 Y1.6074
N15255 X0.7856 Y1.6121
N15260 X0.7846 Y1.6129
N15265 X0.7779 Y1.6177
N15270 X0.7771 Y1.6183
N15275 X0.7704 Y1.6233
N15280 X0.7699 Y1.6236
N15285 X0.7632 Y1.6287
N15290 X0.7563 Y1.6339
N15295 G2 X0.7461 Y1.6432 I0.0498 J0.0654
N15300 G1 X0.7408 Y1.6488
N15305 X0.7353 Y1.6548
N15310 X0.7349 Y1.6552
N15315 X0.7297 Y1.6609
N15320 X0.7291 Y1.6616
N15325 X0.724 Y1.6673
N15330 X0.7231 Y1.6683
N15335 X0.7181 Y1.6741
N15340 X0.717 Y1.6754
N15345 X0.7122 Y1.6812
N15350 X0.711 Y1.6827
N15355 X0.7063 Y1.6887
N15360 X0.7048 Y1.6906
N15365 X0.7004 Y1.6966
N15370 X0.6988 Y1.6989
N15375 X0.6946 Y1.705
N15380 X0.6928 Y1.7076
N15385 X0.6889 Y1.7138
N15390 X0.687 Y1.7169
N15395 X0.6834 Y1.7232
N15400 X0.6815 Y1.7267
N15405 X0.6782 Y1.7333
N15410 X0.6763 Y1.7372
N15415 X0.6733 Y1.7438
N15420 X0.6717 Y1.7477
N15425 X0.6691 Y1.7545
N15430 X0.6677 Y1.7582
N15435 X0.6654 Y1.7652
N15440 X0.6644 Y1.7684
N15445 X0.6624 Y1.7755
N15450 X0.6616 Y1.7784
N15455 X0.6598 Y1.7856
N15460 X0.6592 Y1.7882
N15465 X0.6576 Y1.7955
N15470 X0.6572 Y1.7977
N15475 X0.6558 Y1.8051
N15480 X0.6555 Y1.8069
N15485 X0.6543 Y1.8144
N15490 X0.654 Y1.8158
N15495 X0.6529 Y1.8233
N15500 X0.6528 Y1.8244
N15505 X0.6518 Y1.8319
N15510 X0.6517 Y1.8326
N15515 X0.6507 Y1.8402
N15520 Y1.8406
N15525 X0.6498 Y1.8482
N15530 X0.6493 Y1.8531
N15535 X0.6492 Y1.858
N15540 Y2.443
N15545 G2 X0.7314 Y2.5252 I0.0822 J0.
N15550 G1 X0.8031
N15555 X0.807
N15560 X0.8112 Y2.5253
N15565 X0.8152 Y2.5254
N15570 X0.8189 Y2.5255
N15575 X0.8223 Y2.5257
N15580 X0.8255 Y2.5259
N15585 X0.8284 Y2.5261
N15590 X0.8309 Y2.5264
N15595 X0.8332 Y2.5266
N15600 X0.8352 Y2.527
N15605 X0.8368 Y2.5273
N15610 X0.8381 Y2.5276
N15615 X0.8392 Y2.5278
N15620 X0.84 Y2.5281
N15625 X0.841 Y2.5285
N15630 X0.8423 Y2.529
N15635 X0.844 Y2.5298
N15640 X0.8459 Y2.5307
N15645 X0.8482 Y2.5319
N15650 X0.8508 Y2.5333
N15655 X0.8531 Y2.5346 F9.843
N15660 X0.8534 Y2.5349
N15665 X0.854 Y2.5358
N15670 X0.8543 Y2.5374
N15675 X0.8545 Y2.5393 F39.37
N15680 X0.8547 Y2.5415
N15685 X0.8549 Y2.5436
N15690 X0.8547 Y2.5457
N15695 X0.8545 Y2.5479
N15700 X0.8543 Y2.5497 F9.843
N15705 X0.854 Y2.5513
N15710 X0.8533 Y2.5523
N15715 X0.8509 Y2.5538 F39.37
N15720 X0.8482 Y2.5553
N15725 X0.8459 Y2.5565
N15730 X0.8439 Y2.5574
N15735 X0.8423 Y2.5582
N15740 X0.841 Y2.5587
N15745 X0.84 Y2.5591
N15750 X0.8392 Y2.5593
N15755 X0.8381 Y2.5596
N15760 X0.8368 Y2.5599
N15765 X0.8352 Y2.5602
N15770 X0.8332 Y2.5605
N15775 X0.8309 Y2.5608
N15780 X0.8284 Y2.5611
N15785 X0.8255 Y2.5613
N15790 X0.8224 Y2.5615
N15795 X0.8189 Y2.5617
N15800 X0.8152 Y2.5618
N15805 X0.8112 Y2.5619
N15810 X0.807
N15815 X0.8032 Y2.562
N15820 X0.5415 Y2.561
N15825 X0.5373
N15830 X0.5331 Y2.5609
N15835 X0.5291 Y2.5608
N15840 X0.5253 Y2.5607
N15845 X0.5219 Y2.5606
N15850 X0.5187 Y2.5604
N15855 X0.5158 Y2.5602
N15860 X0.5132 Y2.5599
N15865 X0.5108 Y2.5596
N15870 X0.5089 Y2.5593
N15875 X0.5072 Y2.559
N15880 X0.5057 Y2.5587
N15885 X0.5046 Y2.5584
N15890 X0.5037 Y2.5582
N15895 X0.5027 Y2.5578
N15900 X0.5014 Y2.5573
N15905 X0.4998 Y2.5565
N15910 X0.4978 Y2.5556
N15915 X0.4955 Y2.5544
N15920 X0.4928 Y2.553
N15925 X0.4909 Y2.5519 F9.843
N15930 X0.4905 Y2.5514
N15935 X0.4903 Y2.5499
N15940 X0.49 Y2.5481 F39.37
N15945 X0.4898 Y2.5458
N15950 X0.4896 Y2.5438
N15955 X0.4898 Y2.5418
N15960 X0.4901 Y2.5396
N15965 X0.4903 Y2.5377
N15970 X0.4905 Y2.5363 F9.843
N15975 X0.4914 Y2.5348
N15980 X0.4923 Y2.5337
N15985 X0.4945 Y2.5323 F39.37
N15990 X0.4967 Y2.531
N15995 X0.4986 Y2.5299
N16000 X0.5002 Y2.529
N16005 X0.5015 Y2.5284
N16010 X0.5024 Y2.528
N16015 X0.503 Y2.5277
N16020 X0.5038 Y2.5275
N16025 X0.5045 Y2.5273
N16030 X0.5055 Y2.5271
N16035 X0.5069 Y2.5268
N16040 X0.5086 Y2.5266
N16045 X0.5107 Y2.5263
N16050 X0.513 Y2.5261
N16055 X0.5157 Y2.5259
N16060 X0.5186 Y2.5257
N16065 X0.5219 Y2.5255
N16070 X0.5255 Y2.5254
N16075 X0.5293 Y2.5253
N16080 X0.5334 Y2.5252
N16085 G2 X0.6134 Y2.443 I-0.0023 J-0.0822
N16090 G1 Y1.8766
N16095 X0.6135 Y1.8697
N16100 X0.6137 Y1.862
N16105 X0.6139 Y1.8545
N16110 X0.6142 Y1.8472
N16115 X0.6145 Y1.8401
N16120 X0.6149 Y1.8332
N16125 X0.6154 Y1.8265
N16130 X0.6159 Y1.8201
N16135 X0.6166 Y1.8138
N16140 X0.6173 Y1.8078
N16145 X0.6182 Y1.8019
N16150 X0.6191 Y1.7963
N16155 X0.6202 Y1.7909
N16160 X0.6214 Y1.7856
N16165 X0.6229 Y1.7801
N16170 X0.6245 Y1.7744
N16175 X0.6263 Y1.7685
N16180 X0.6283 Y1.7624
N16185 X0.6305 Y1.7562
N16190 X0.6329 Y1.7497
N16195 X0.6354 Y1.743
N16200 X0.6381 Y1.7361
N16205 X0.6408 Y1.7291
N16210 X0.6413 Y1.7278
N16215 X0.6416 Y1.7274
N16220 X0.645 Y1.7216
N16225 X0.6484 Y1.7159
N16230 X0.6518 Y1.7103
N16235 X0.6551 Y1.7049
N16240 X0.6584 Y1.6996
N16245 X0.6617 Y1.6945
N16250 X0.6649 Y1.6896
N16255 X0.6681 Y1.6848
N16260 X0.6714 Y1.6802
N16265 X0.6745 Y1.6758
N16270 X0.6778 Y1.6715
N16275 X0.6812 Y1.6672
N16280 X0.6847 Y1.6629
N16285 X0.6883 Y1.6585
N16290 X0.6922 Y1.654
N16295 X0.6962 Y1.6496
N16300 X0.7003 Y1.645
N16305 X0.7045 Y1.6404
N16310 X0.7089 Y1.6358
N16315 X0.7134 Y1.631
N16320 X0.718 Y1.6262
N16325 X0.7227 Y1.6213
N16330 X0.7253 Y1.6185
N16335 X0.7285 Y1.6157
N16340 X0.7339 Y1.611
N16345 X0.7391 Y1.6064
N16350 X0.7442 Y1.6019
N16355 X0.7492 Y1.5976
N16360 X0.7541 Y1.5935
N16365 X0.759 Y1.5895
N16370 X0.7638 Y1.5857
N16375 X0.7684 Y1.5821
N16380 X0.773 Y1.5787
N16385 X0.7775 Y1.5755
N16390 X0.782 Y1.5725
N16395 X0.7865 Y1.5696
N16400 X0.7912 Y1.5668
N16405 X0.7961 Y1.5639
N16410 X0.8013 Y1.561
N16415 X0.8066 Y1.5582
N16420 X0.8122 Y1.5553
N16425 X0.8179 Y1.5525
N16430 X0.8238 Y1.5496
N16435 X0.83 Y1.5467
N16440 X0.8362 Y1.5437
N16445 X0.8427 Y1.5407
N16450 X0.8455 Y1.5394
N16455 X0.8484 Y1.5384
N16460 X0.8553 Y1.5361
N16465 X0.862 Y1.5338
N16470 X0.8685 Y1.5317
N16475 X0.8749 Y1.5296
N16480 X0.8811 Y1.5277
N16485 X0.8872 Y1.5259
N16490 X0.8931 Y1.5243
N16495 X0.8989 Y1.5227
N16500 X0.9046 Y1.5214
N16505 X0.9101 Y1.5201
N16510 X0.9155 Y1.5191
N16515 X0.921 Y1.5181
N16520 X0.9266 Y1.5173
N16525 X0.9324 Y1.5165
N16530 X0.9384 Y1.5158
N16535 X0.9445 Y1.5152
N16540 X0.9509 Y1.5147
N16545 X0.9574 Y1.5142
N16550 X0.9642 Y1.5138
N16555 X0.971 Y1.5134
N16560 X0.9781 Y1.5131
N16565 X0.9853 Y1.5127
N16570 X0.9872
N16575 X0.9967 Y1.5135
N16580 X1.0112 Y1.5149
N16585 X1.0253 Y1.5163
N16590 X1.0391 Y1.5179
N16595 X1.0524 Y1.5196
N16600 X1.0653 Y1.5215
N16605 X1.0777 Y1.5237
N16610 X1.0896 Y1.5261
N16615 X1.101 Y1.5288
N16620 X1.1118 Y1.5318
N16625 X1.1222 Y1.5352
N16630 X1.132 Y1.5389
N16635 X1.1416 Y1.543
N16640 X1.1513 Y1.5478
N16645 X1.1612 Y1.5532
N16650 X1.1712 Y1.5591
N16655 X1.1815 Y1.5656
N16660 X1.1919 Y1.5727
N16665 X1.2024 Y1.5803
N16670 X1.2132 Y1.5883
N16675 X1.2242 Y1.5968
N16680 X1.2353 Y1.6056
N16685 X1.2467 Y1.6147
N16690 X1.2523 Y1.6193
N16695 X1.257 Y1.6248
N16700 X1.2663 Y1.6358
N16705 X1.2753 Y1.6466
N16710 X1.2839 Y1.6572
N16715 X1.2921 Y1.6677
N16720 X1.2999 Y1.678
N16725 X1.307 Y1.688
N16730 X1.3137 Y1.6979
N16735 X1.3197 Y1.7077
N16740 X1.3252 Y1.7172
N16745 X1.33 Y1.7266
N16750 X1.3342 Y1.7359
N16755 X1.3379 Y1.7453
N16760 X1.3413 Y1.7553
N16765 X1.3443 Y1.7659
N16770 X1.3471 Y1.777
N16775 X1.3496 Y1.7886
N16780 X1.3518 Y1.8008
N16785 X1.3538 Y1.8135
N16790 X1.3556 Y1.8266
N16795 X1.3572 Y1.8402
N16800 X1.3587 Y1.8542
N16805 X1.3601 Y1.8686
N16810 X1.3611 Y1.8795
N16815 Y2.443
N16820 G2 X1.441 Y2.5252 I0.0822 J0.
N16825 G1 X1.4451 Y2.5253
N16830 X1.4489 Y2.5254
N16835 X1.4525 Y2.5255
N16840 X1.4558 Y2.5257
N16845 X1.4588 Y2.5259
N16850 X1.4614 Y2.5261
N16855 X1.4638 Y2.5263
N16860 X1.4658 Y2.5266
N16865 X1.4675 Y2.5268
N16870 X1.4689 Y2.5271
N16875 X1.47 Y2.5273
N16880 X1.4707 Y2.5275
N16885 X1.4711 Y2.5276
N16890 X1.472 Y2.528
N16895 X1.4729 Y2.5284
N16900 X1.4742 Y2.529
N16905 X1.4758 Y2.5299
N16910 X1.4778 Y2.531
N16915 X1.48 Y2.5323
N16920 X1.4821 Y2.5337 F9.843
N16925 X1.483 Y2.5348
N16930 X1.4839 Y2.5359
N16935 X1.4841 Y2.5377 F39.37
N16940 X1.4844 Y2.5396
N16945 X1.4846 Y2.5418
N16950 X1.4848 Y2.5437
N16955 X1.4846 Y2.5457
N16960 X1.4844 Y2.5479 F9.843
N16965 X1.4842 Y2.5497
N16970 X1.484 Y2.551
N16975 X1.4835 Y2.5516
N16980 X1.4813 Y2.5529 F39.37
N16985 X1.4786 Y2.5543
N16990 X1.4763 Y2.5555
N16995 X1.4743 Y2.5565
N17000 X1.4726 Y2.5572
N17005 X1.4713 Y2.5577
N17010 X1.4703 Y2.5581
N17015 X1.4693 Y2.5584
N17020 X1.4682 Y2.5587
N17025 X1.4669 Y2.559
N17030 X1.4652 Y2.5593
N17035 X1.4632 Y2.5596
N17040 X1.4609 Y2.5599
N17045 X1.4584 Y2.5601
N17050 X1.4555 Y2.5604
N17055 X1.4523 Y2.5605
N17060 X1.4488 Y2.5607
N17065 X1.4451 Y2.5608
N17070 X1.4411 Y2.5609
N17075 X1.4369 Y2.561
N17080 X1.4328
N17085 X1.1713 Y2.562
N17090 X1.1675 Y2.5619
N17095 X1.1632
N17100 X1.1593 Y2.5618
N17105 X1.1555 Y2.5617
N17110 X1.1521 Y2.5615
N17115 X1.1489 Y2.5613
N17120 X1.1461 Y2.5611
N17125 X1.1435 Y2.5608
N17130 X1.1412 Y2.5605
N17135 X1.1393 Y2.5602
N17140 X1.1377 Y2.5599
N17145 X1.1364 Y2.5596
N17150 X1.1353 Y2.5593
N17155 X1.1344 Y2.5591
N17160 X1.1334 Y2.5587
N17165 X1.1321 Y2.5582
N17170 X1.1305 Y2.5574
N17175 X1.1285 Y2.5565
N17180 X1.1262 Y2.5553
N17185 X1.1236 Y2.5538
N17190 X1.1213 Y2.5526 F9.843
N17195 X1.1204 Y2.5514
N17200 X1.1202 Y2.5498
N17205 X1.1199 Y2.5479 F39.37
N17210 X1.1197 Y2.5457
N17215 X1.1195 Y2.5436
N17220 X1.1197 Y2.5415
N17225 X1.1199 Y2.5393
N17230 X1.1202 Y2.5374 F9.843
N17235 X1.1204 Y2.5359
N17240 X1.1211 Y2.5349
N17245 X1.1236 Y2.5333 F39.37
N17250 X1.1262 Y2.5319
N17255 X1.1285 Y2.5307
N17260 X1.1305 Y2.5298
N17265 X1.1321 Y2.529
N17270 X1.1335 Y2.5285
N17275 X1.1344 Y2.5281
N17280 X1.1353 Y2.5278
N17285 X1.1363 Y2.5276
N17290 X1.1376 Y2.5273
N17295 X1.1393 Y2.527
N17300 X1.1412 Y2.5267
N17305 X1.1435 Y2.5264
N17310 X1.1461 Y2.5261
N17315 X1.149 Y2.5259
N17320 X1.1521 Y2.5257
N17325 X1.1555 Y2.5255
N17330 X1.1593 Y2.5254
N17335 X1.1633 Y2.5253
N17340 X1.1675 Y2.5252
N17345 X1.1714
N17350 X1.2431
N17355 G2 X1.3152 Y2.4824 I0. J-0.0822
N17360 G1 X1.3165 Y2.4805 Z-0.2692
N17365 X1.3182 Y2.4788 Z-0.2687
N17370 X1.3199 Y2.4776 Z-0.2674
N17375 X1.3217 Y2.4767 Z-0.266
N17380 X1.3243 Y2.4761 Z-0.262
N17385 X1.3253 Y2.476 Z-0.2572
N17390 Z0.5906
N17395 X2.3777 Y1.8613
N17400 Z0.1969
N17405 Z0.1109
N17410 X2.3775 Y1.8615 Z0.1082 F13.123
N17415 X2.377 Y1.8622 Z0.1056
N17420 X2.3761 Y1.8633 Z0.1033
N17425 X2.3748 Y1.8648 Z0.1013
N17430 X2.3734 Y1.8665 Z0.0998
N17435 X2.3718 Y1.8685 Z0.0988
N17440 X2.37 Y1.8706 Z0.0984
N17445 X2.254 Y2.0107 Z0.0921
N17450 G2 X2.2538 Y2.1153 Z0.0881 I0.0633 J0.0524
