%
(1001)
(T2  D=0.5 CR=0. - ZMIN=-0.7693 - FLAT END MILL)
N10 G90 G94 G17 G91.1
N15 G20
N20 G53 G0 Z0.
(ADAPTIVE5)
N25 T2 M6
N30 S10000 M3
N35 G54
N40 G0 X-7.907 Y6.4779
N45 G43 Z0.5906 H2
N50 G0 Z0.1969
N55 Z-0.2937
N60 G1 Z-0.3437 F39.37
N65 X-7.9068 Y6.4776 Z-0.3493
N70 X-7.9063 Y6.4768 Z-0.3548
N75 X-7.9055 Y6.4755 Z-0.3602
N80 X-7.9045 Y6.4736 Z-0.3654
N85 X-7.9031 Y6.4713 Z-0.3703
N90 X-7.9014 Y6.4685 Z-0.3749
N95 X-7.8995 Y6.4653 Z-0.3791
N100 X-7.8974 Y6.4617 Z-0.3828
N105 X-7.8951 Y6.4577 Z-0.386
N110 X-7.8926 Y6.4535 Z-0.3887
N115 X-7.8899 Y6.4491 Z-0.3909
N120 X-7.8872 Y6.4444 Z-0.3924
N125 X-7.8843 Y6.4397 Z-0.3934
N130 X-7.8815 Y6.4349 Z-0.3937
N135 G3 X-7.7167 Y6.2147 I1.0983 J0.6506
N140 G1 X-7.7137 Y6.2118
N145 X-7.7042 Y6.2072
N150 X-7.6939 Y6.2051
N155 X-7.6834 Y6.2054
N160 X-7.6732 Y6.2081
N165 X-7.664 Y6.2132
N170 X-7.6589 Y6.2168
N175 X-7.6439 Y6.2273
N180 X-7.6339 Y6.234
N185 X-7.629 Y6.2368
N190 X-7.614 Y6.2441
N195 X-7.6032 Y6.249
N200 X-7.584 Y6.2556
N205 X-7.569 Y6.2606
N210 X-7.539 Y6.2666
N215 X-7.524 Y6.268
N220 X-7.509 Y6.2691
N225 X-7.4941 Y6.2697
N230 X7.4941
N235 X7.509 Y6.2691
N240 X7.524 Y6.268
N245 X7.539 Y6.2666
N250 X7.569 Y6.2606
N255 X7.584 Y6.2556
N260 X7.6032 Y6.249
N265 X7.614 Y6.2441
N270 X7.629 Y6.2368
N275 X7.6339 Y6.234
N280 X7.6439 Y6.2273
N285 X7.6589 Y6.2168
N290 X7.6739 Y6.2061
N295 X7.676 Y6.2041
N300 X7.706 Y6.1741
N305 X7.7167 Y6.1591
N310 X7.7272 Y6.1441
N315 X7.7339 Y6.1341
N320 X7.7367 Y6.1291
N325 X7.744 Y6.1141
N330 X7.7489 Y6.1037
N335 X7.7555 Y6.0842
N340 X7.7605 Y6.0692
N345 X7.7665 Y6.0392
N350 X7.768 Y6.0242
N355 X7.7691 Y6.0092
N360 X7.7697 Y5.9943
N365 Y-5.9943
N370 X7.7691 Y-6.0092
N375 X7.768 Y-6.0242
N380 X7.7665 Y-6.0392
N385 X7.7605 Y-6.0692
N390 X7.7555 Y-6.0842
N395 X7.7489 Y-6.1037
N400 X7.744 Y-6.1141
N405 X7.7367 Y-6.1291
N410 X7.7339 Y-6.1341
N415 X7.7272 Y-6.1441
N420 X7.7167 Y-6.1591
N425 X7.706 Y-6.1741
N430 X7.676 Y-6.2041
N435 X7.6739 Y-6.2061
N440 X7.6589 Y-6.2168
N445 X7.6439 Y-6.2273
N450 X7.6339 Y-6.234
N455 X7.629 Y-6.2368
N460 X7.614 Y-6.2441
N465 X7.6032 Y-6.249
N470 X7.584 Y-6.2556
N475 X7.569 Y-6.2606
N480 X7.539 Y-6.2666
N485 X7.524 Y-6.268
N490 X7.509 Y-6.2691
N495 X7.4941 Y-6.2697
N500 X-7.4941
N505 X-7.509 Y-6.2691
N510 X-7.524 Y-6.268
N515 X-7.539 Y-6.2666
N520 X-7.569 Y-6.2606
N525 X-7.584 Y-6.2556
N530 X-7.6032 Y-6.249
N535 X-7.614 Y-6.2441
N540 X-7.629 Y-6.2368
N545 X-7.6339 Y-6.234
N550 X-7.6439 Y-6.2273
N555 X-7.6589 Y-6.2168
N560 X-7.6739 Y-6.2061
N565 X-7.676 Y-6.2041
N570 X-7.706 Y-6.1741
N575 X-7.7167 Y-6.1591
N580 X-7.7272 Y-6.1441
N585 X-7.7339 Y-6.1341
N590 X-7.7367 Y-6.1291
N595 X-7.744 Y-6.1141
N600 X-7.7489 Y-6.1037
N605 X-7.7555 Y-6.0842
N610 X-7.7605 Y-6.0692
N615 X-7.7665 Y-6.0392
N620 X-7.768 Y-6.0242
N625 X-7.7691 Y-6.0092
N630 X-7.7697 Y-5.9943
N635 Y5.9943
N640 X-7.7691 Y6.0092
N645 X-7.768 Y6.0242
N650 Y6.026 Z-0.3936
N655 X-7.7683 Y6.0288 Z-0.3931
N660 X-7.7687 Y6.0315 Z-0.3923
N665 X-7.769 Y6.034 Z-0.391
N670 X-7.7693 Y6.0364 Z-0.3894
N675 X-7.7695 Y6.0384 Z-0.3875
N680 X-7.7701 Y6.0402 Z-0.3852
N685 X-7.7705 Y6.0416 Z-0.3826
N690 X-7.7709 Y6.0426 Z-0.3799
N695 X-7.7711 Y6.0433 Z-0.377
N700 Y6.0435 Z-0.3741
N705 G0 Z0.1969
N710 X3.3942 Y-0.7842
N715 Z0.1484
N720 G1 Z0.0984 F39.37
N725 G3 X3.8131 Y-0.5601 Z0.0724 I0.2094 J0.112 F13.123
N730 X3.3942 Y-0.7842 Z0.0463 I-0.2094 J-0.112
N735 X3.8131 Y-0.5601 Z0.0203 I0.2094 J0.112
N740 X3.3942 Y-0.7842 Z-0.0058 I-0.2094 J-0.112
N745 X3.8131 Y-0.5601 Z-0.0319 I0.2094 J0.112
N750 X3.3942 Y-0.7842 Z-0.0579 I-0.2094 J-0.112
N755 X3.8131 Y-0.5601 Z-0.084 I0.2094 J0.112
N760 X3.3942 Y-0.7842 Z-0.11 I-0.2094 J-0.112
N765 X3.8131 Y-0.5601 Z-0.1361 I0.2094 J0.112
N770 X3.3942 Y-0.7842 Z-0.1621 I-0.2094 J-0.112
N775 X3.8131 Y-0.5601 Z-0.1882 I0.2094 J0.112
N780 X3.3942 Y-0.7842 Z-0.2142 I-0.2094 J-0.112
N785 X3.8412 Y-0.6722 Z-0.2362 I0.2094 J0.112
N790 X3.3662 I-0.2375 J0.
N795 X3.8412 I0.2375 J0.
N800 G1 X3.8413 Y-0.659 F39.37
N805 X3.843 Y-0.6459
N810 X3.8554 Y-0.5945
N815 X3.8571 Y-0.591
N820 X3.8602 Y-0.5834
N825 X3.863 Y-0.5747
N830 X3.8652 Y-0.565
N835 X3.8669 Y-0.5542
N840 X3.8677 Y-0.5424
N845 X3.8675 Y-0.5297
N850 X3.8663 Y-0.5161
N855 X3.8638 Y-0.5017
N860 X3.8599 Y-0.4867
N865 X3.8545 Y-0.4712
N870 X3.8476 Y-0.4554
N875 X3.839 Y-0.4394
N880 X3.8286 Y-0.4234
N885 X3.8165 Y-0.4076
N890 X3.8026 Y-0.3922
N895 X3.7869 Y-0.3774
N900 X3.7695 Y-0.3635
N905 X3.7505 Y-0.3506
N910 X3.7299 Y-0.3389
N915 X3.7078 Y-0.3287
N920 X3.6844 Y-0.32
N925 X3.6599 Y-0.3131
N930 X3.6344 Y-0.3081
N935 X3.608 Y-0.3052
N940 X3.5811 Y-0.3043
N945 X3.5538 Y-0.3056
N950 X3.5264 Y-0.3091
N955 X3.499 Y-0.3149
N960 X3.4719 Y-0.323
N965 X3.4452 Y-0.3333
N970 X3.4193 Y-0.3458
N975 X3.3943 Y-0.3604
N980 X3.3704 Y-0.3771
N985 X3.3477 Y-0.3958
N990 X3.3266 Y-0.4164
N995 X3.307 Y-0.4386
N1000 X3.2893 Y-0.4625
N1005 X3.2735 Y-0.4878
N1010 X3.2597 Y-0.5144
N1015 X3.248 Y-0.542
N1020 X3.2386 Y-0.5706
N1025 X3.2315 Y-0.5999
N1030 X3.2268 Y-0.6297
N1035 X3.2245 Y-0.6598
N1040 X3.2246 Y-0.6901
N1045 X3.2271 Y-0.7203
N1050 X3.2321 Y-0.7502
N1055 X3.2394 Y-0.7797
N1060 X3.2491 Y-0.8085
N1065 X3.2611 Y-0.8364
N1070 X3.2753 Y-0.8633
N1075 X3.2916 Y-0.889
N1080 X3.3099 Y-0.9133
N1085 X3.3302 Y-0.9361
N1090 X3.3522 Y-0.9572
N1095 X3.3758 Y-0.9765
N1100 X3.4009 Y-0.9938
N1105 X3.4274 Y-1.009
N1110 X3.4549 Y-1.0221
N1115 X3.4835 Y-1.0329
N1120 X3.5128 Y-1.0414
N1125 X3.5427 Y-1.0475
N1130 X3.573 Y-1.0512
N1135 X3.6035 Y-1.0524
N1140 X3.634 Y-1.0512
N1145 X3.6643 Y-1.0476
N1150 X3.6942 Y-1.0415
N1155 X3.7235 Y-1.0331
N1160 X3.7521 Y-1.0223
N1165 X3.7797 Y-1.0092
N1170 X3.8062 Y-0.994
N1175 X3.8314 Y-0.9767
N1180 X3.8551 Y-0.9575
N1185 X3.8772 Y-0.9364
N1190 X3.8975 Y-0.9136
N1195 X3.9159 Y-0.8892
N1200 X3.9397 Y-0.8519
N1205 X3.9645 Y-0.8052
N1210 X3.9865 Y-0.7572
N1215 X4.0016 Y-0.716
N1220 X4.0122 Y-0.6777
N1225 X4.0192 Y-0.6416
N1230 X4.023 Y-0.6067
N1235 X4.024 Y-0.5725
N1240 X4.0223 Y-0.5389
N1245 X4.018 Y-0.5061
N1250 X4.0111 Y-0.4739
N1255 X4.0016 Y-0.4425
N1260 X3.9896 Y-0.4118
N1265 X3.9752 Y-0.382
N1270 X3.9582 Y-0.3533
N1275 X3.9388 Y-0.3257
N1280 X3.917 Y-0.2995
N1285 X3.8928 Y-0.2748
N1290 X3.8664 Y-0.2518
N1295 X3.8379 Y-0.2307
N1300 X3.8073 Y-0.2117
N1305 X3.7749 Y-0.195
N1310 X3.7407 Y-0.1808
N1315 X3.7052 Y-0.1692
N1320 X3.6684 Y-0.1605
N1325 X3.6307 Y-0.1546
N1330 X3.5922 Y-0.1518
N1335 X3.5532 Y-0.152
N1340 X3.514 Y-0.1554
N1345 X3.4749 Y-0.1621
N1350 X3.436 Y-0.1719
N1355 X3.3978 Y-0.1849
N1360 X3.3605 Y-0.201
N1365 X3.3244 Y-0.2203
N1370 X3.2896 Y-0.2425
N1375 X3.2566 Y-0.2675
N1380 X3.2256 Y-0.2953
N1385 X3.1967 Y-0.3256
N1390 X3.1703 Y-0.3583
N1395 X3.1465 Y-0.3931
N1400 X3.1255 Y-0.4298
N1405 X3.1074 Y-0.4682
N1410 X3.0925 Y-0.508
N1415 X3.0808 Y-0.549
N1420 X3.0724 Y-0.5909
N1425 X3.0673 Y-0.6333
N1430 X3.0657 Y-0.6761
N1435 X3.0675 Y-0.719
N1440 X3.0728 Y-0.7616
N1445 X3.0815 Y-0.8038
N1450 X3.0935 Y-0.8451
N1455 X3.1089 Y-0.8853
N1460 X3.1274 Y-0.9243
N1465 X3.149 Y-0.9616
N1470 X3.1736 Y-0.9971
N1475 X3.2009 Y-1.0305
N1480 X3.2309 Y-1.0617
N1485 X3.2632 Y-1.0903
N1490 X3.2978 Y-1.1163
N1495 X3.3343 Y-1.1394
N1500 X3.3726 Y-1.1595
N1505 X3.4124 Y-1.1765
N1510 X3.4535 Y-1.1902
N1515 X3.4955 Y-1.2006
N1520 X3.5382 Y-1.2076
N1525 X3.5814 Y-1.2111
N1530 X3.6247 Y-1.2112
N1535 X3.6678 Y-1.2078
N1540 X3.7106 Y-1.2009
N1545 X3.7527 Y-1.1907
N1550 X3.7938 Y-1.177
N1555 X3.8337 Y-1.1602
N1560 X3.8721 Y-1.1401
N1565 X3.9088 Y-1.1171
N1570 X3.9456 Y-1.0896
N1575 X3.9822 Y-1.0574
N1580 X4.019 Y-1.0194
N1585 X4.0526 Y-0.9787
N1590 X4.083 Y-0.9355
N1595 X4.1101 Y-0.8901
N1600 X4.1336 Y-0.8428
N1605 X4.1533 Y-0.7939
N1610 X4.1686 Y-0.7449
N1615 X4.1796 Y-0.6959
N1620 X4.1866 Y-0.6472
N1625 X4.1896 Y-0.5987
N1630 X4.1887 Y-0.5507
N1635 X4.184 Y-0.5032
N1640 X4.1755 Y-0.4565
N1645 X4.1633 Y-0.4108
N1650 X4.1476 Y-0.3662
N1655 X4.1282 Y-0.3229
N1660 X4.1054 Y-0.2812
N1665 X4.0792 Y-0.2414
N1670 X4.0497 Y-0.2035
N1675 X4.0171 Y-0.1679
N1680 X3.9815 Y-0.1348
N1685 X3.943 Y-0.1044
N1690 X3.902 Y-0.0771
N1695 X3.8585 Y-0.0529
N1700 X3.813 Y-0.0322
N1705 X3.7655 Y-0.015
N1710 X3.7164 Y-0.0016
N1715 X3.6661 Y0.0079
N1720 X3.6147 Y0.0133
N1725 X3.5628 Y0.0146
N1730 X3.5105 Y0.0118
N1735 X3.4582 Y0.0047
N1740 X3.4066 Y-0.0066
N1745 X3.356 Y-0.022
N1750 X3.3068 Y-0.0414
N1755 X3.2593 Y-0.0645
N1760 X3.2138 Y-0.0913
N1765 X3.1705 Y-0.1216
N1770 X3.1296 Y-0.1551
N1775 X3.0915 Y-0.1917
N1780 X3.0563 Y-0.2311
N1785 X3.0242 Y-0.273
N1790 X2.9954 Y-0.3173
N1795 X2.97 Y-0.3637
N1800 X2.9482 Y-0.4118
N1805 X2.9302 Y-0.4615
N1810 X2.9159 Y-0.5124
N1815 X2.9055 Y-0.5642
N1820 X2.899 Y-0.6166
N1825 X2.8966 Y-0.6694
N1830 X2.8981 Y-0.7222
N1835 X2.9036 Y-0.7748
N1840 X2.9131 Y-0.8268
N1845 X2.9265 Y-0.8779
N1850 X2.9436 Y-0.9279
N1855 X2.9644 Y-0.9764
N1860 X2.9888 Y-1.0233
N1865 X3.0167 Y-1.0682
N1870 X3.0478 Y-1.1109
N1875 X3.082 Y-1.1512
N1880 X3.119 Y-1.1889
N1885 X3.1588 Y-1.2236
N1890 X3.2011 Y-1.2553
N1895 X3.2456 Y-1.2838
N1900 X3.2922 Y-1.3088
N1905 X3.3405 Y-1.3303
N1910 X3.3902 Y-1.348
N1915 X3.4412 Y-1.3621
N1920 X3.493 Y-1.3722
N1925 X3.5455 Y-1.3785
N1930 X3.5983 Y-1.3809
N1935 X3.6511 Y-1.3793
N1940 X3.7037 Y-1.3738
N1945 X3.7557 Y-1.3644
N1950 X3.8068 Y-1.3512
N1955 X3.8569 Y-1.3343
N1960 X3.9055 Y-1.3137
N1965 X3.9525 Y-1.2895
N1970 X3.9976 Y-1.262
N1975 X4.0407 Y-1.2314
N1980 X4.0817 Y-1.198
N1985 X4.1204 Y-1.162
N1990 X4.1566 Y-1.1236
N1995 X4.1903 Y-1.0828
N2000 X4.2213 Y-1.0401
N2005 X4.2495 Y-0.9954
N2010 X4.275 Y-0.9491
N2015 X4.2974 Y-0.9012
N2020 X4.3165 Y-0.852
N2025 X4.3324 Y-0.8016
N2030 X4.345 Y-0.7503
N2035 X4.3541 Y-0.6982
N2040 X4.3598 Y-0.6457
N2045 X4.362 Y-0.5929
N2050 X4.3605 Y-0.5401
N2055 X4.3553 Y-0.4875
N2060 X4.3465 Y-0.4354
N2065 X4.3342 Y-0.384
N2070 X4.3184 Y-0.3336
N2075 X4.2992 Y-0.2844
N2080 X4.2767 Y-0.2365
N2085 X4.2509 Y-0.1904
N2090 X4.222 Y-0.1462
N2095 X4.1901 Y-0.1041
N2100 X4.1554 Y-0.0643
N2105 X4.118 Y-0.0268
N2110 X4.0783 Y0.008
N2115 X4.0364 Y0.0401
N2120 X3.9923 Y0.0692
N2125 X3.9463 Y0.0953
N2130 X3.8987 Y0.1183
N2135 X3.8498 Y0.1382
N2140 X3.7996 Y0.1548
N2145 X3.7484 Y0.168
N2150 X3.6965 Y0.1778
N2155 X3.6441 Y0.1842
N2160 X3.5913 Y0.1873
N2165 X3.5385 Y0.187
N2170 X3.4858 Y0.1832
N2175 X3.4334 Y0.1761
N2180 X3.3816 Y0.1656
N2185 X3.3306 Y0.152
N2190 X3.2805 Y0.1351
N2195 X3.2316 Y0.1151
N2200 X3.184 Y0.0921
N2205 X3.138 Y0.0661
N2210 X3.0936 Y0.0374
N2215 X3.0511 Y0.006
N2220 X3.0107 Y-0.028
N2225 X2.9725 Y-0.0645
N2230 X2.9365 Y-0.1032
N2235 X2.9029 Y-0.144
N2240 X2.8719 Y-0.1868
N2245 X2.8436 Y-0.2314
N2250 X2.8181 Y-0.2777
N2255 X2.7955 Y-0.3254
N2260 X2.7757 Y-0.3744
N2265 X2.7589 Y-0.4245
N2270 X2.7452 Y-0.4756
N2275 X2.7347 Y-0.5274
N2280 X2.7273 Y-0.5797
N2285 X2.7231 Y-0.6323
N2290 X2.722 Y-0.6852
N2295 X2.7242 Y-0.738
N2300 X2.7296 Y-0.7905
N2305 X2.7381 Y-0.8427
N2310 X2.7497 Y-0.8942
N2315 X2.7644 Y-0.945
N2320 X2.7821 Y-0.9948
N2325 X2.8029 Y-1.0434
N2330 X2.8265 Y-1.0907
N2335 X2.8528 Y-1.1365
N2340 X2.8818 Y-1.1806
N2345 X2.9134 Y-1.223
N2350 X2.9476 Y-1.2633
N2355 X2.9841 Y-1.3015
N2360 X3.0227 Y-1.3375
N2365 X3.0635 Y-1.3712
N2370 X3.1062 Y-1.4023
N2375 X3.1507 Y-1.4307
N2380 X3.1969 Y-1.4564
N2385 X3.2445 Y-1.4794
N2390 X3.2933 Y-1.4995
N2395 X3.3434 Y-1.5166
N2400 X3.3943 Y-1.5306
N2405 X3.446 Y-1.5415
N2410 X3.4982 Y-1.5494
N2415 X3.5509 Y-1.5542
N2420 X3.6037 Y-1.5558
N2425 X3.6565 Y-1.5542
N2430 X3.7091 Y-1.5494
N2435 X3.7614 Y-1.5416
N2440 X3.8131 Y-1.5307
N2445 X3.864 Y-1.5167
N2450 X3.9141 Y-1.4997
N2455 X3.963 Y-1.4797
N2460 X4.0107 Y-1.457
N2465 X4.057 Y-1.4316
N2470 X4.1019 Y-1.4037
N2475 X4.145 Y-1.3732
N2480 X4.1864 Y-1.3404
N2485 X4.226 Y-1.3053
N2490 X4.2636 Y-1.2682
N2495 X4.2993 Y-1.2292
N2500 X4.3327 Y-1.1883
N2505 X4.3639 Y-1.1457
N2510 X4.3928 Y-1.1014
N2515 X4.4193 Y-1.0557
N2520 X4.4434 Y-1.0087
N2525 X4.4649 Y-0.9604
N2530 X4.4838 Y-0.911
N2535 X4.4999 Y-0.8607
N2540 X4.5133 Y-0.8096
N2545 X4.524 Y-0.7579
N2550 X4.5318 Y-0.7056
N2555 X4.5368 Y-0.653
N2560 X4.5387 Y-0.6002
N2565 X4.5377 Y-0.5474
N2570 X4.5339 Y-0.4947
N2575 X4.5272 Y-0.4423
N2580 X4.5175 Y-0.3903
N2585 X4.5049 Y-0.339
N2590 X4.4895 Y-0.2884
N2595 X4.4713 Y-0.2388
N2600 X4.4504 Y-0.1903
N2605 X4.4269 Y-0.143
N2610 X4.4006 Y-0.0971
N2615 X4.3718 Y-0.0528
N2620 X4.3407 Y-0.0101
N2625 X4.3072 Y0.0308
N2630 X4.2716 Y0.0698
N2635 X4.2338 Y0.1067
N2640 X4.1941 Y0.1415
N2645 X4.1524 Y0.174
N2650 X4.1091 Y0.2043
N2655 X4.0642 Y0.2321
N2660 X4.0178 Y0.2575
N2665 X3.9701 Y0.2803
N2670 X3.9213 Y0.3004
N2675 X3.8714 Y0.3178
N2680 X3.8206 Y0.3326
N2685 X3.7692 Y0.3447
N2690 X3.7172 Y0.354
N2695 X3.6647 Y0.3604
N2700 X3.612 Y0.364
N2705 X3.5592 Y0.3649
N2710 X3.5064 Y0.3629
N2715 X3.4538 Y0.3583
N2720 X3.4014 Y0.3508
N2725 X3.3496 Y0.3406
N2730 X3.2984 Y0.3277
N2735 X3.2479 Y0.3121
N2740 X3.1982 Y0.294
N2745 X3.1496 Y0.2733
N2750 X3.1021 Y0.2501
N2755 X3.0559 Y0.2245
N2760 X3.0111 Y0.1965
N2765 X2.9678 Y0.1663
N2770 X2.926 Y0.1339
N2775 X2.8859 Y0.0994
N2780 X2.8477 Y0.063
N2785 X2.8114 Y0.0245
N2790 X2.7771 Y-0.0157
N2795 X2.7449 Y-0.0575
N2800 X2.7148 Y-0.101
N2805 X2.6869 Y-0.1458
N2810 X2.6614 Y-0.1921
N2815 X2.6383 Y-0.2396
N2820 X2.6175 Y-0.2882
N2825 X2.5993 Y-0.3378
N2830 X2.5835 Y-0.3882
N2835 X2.5703 Y-0.4394
N2840 X2.5597 Y-0.4912
N2845 X2.5518 Y-0.5434
N2850 X2.5465 Y-0.596
N2855 X2.5438 Y-0.6488
N2860 X2.5437 Y-0.7016
N2865 X2.5463 Y-0.7544
N2870 X2.5515 Y-0.807
N2875 X2.5594 Y-0.8592
N2880 X2.57 Y-0.911
N2885 X2.583 Y-0.9622
N2890 X2.5986 Y-1.0127
N2895 X2.6166 Y-1.0623
N2900 X2.6372 Y-1.111
N2905 X2.6602 Y-1.1586
N2910 X2.6855 Y-1.205
N2915 X2.7131 Y-1.2501
N2920 X2.7428 Y-1.2937
N2925 X2.7748 Y-1.3358
N2930 X2.8088 Y-1.3763
N2935 X2.8447 Y-1.415
N2940 X2.8826 Y-1.4519
N2945 X2.9222 Y-1.4868
N2950 X2.9635 Y-1.5198
N2955 X3.0064 Y-1.5506
N2960 X3.0508 Y-1.5792
N2965 X3.0966 Y-1.6056
N2970 X3.1437 Y-1.6297
N2975 X3.1918 Y-1.6514
N2980 X3.241 Y-1.6707
N2985 X3.2911 Y-1.6875
N2990 X3.342 Y-1.7018
N2995 X3.3935 Y-1.7135
N3000 X3.4456 Y-1.7227
N3005 X3.498 Y-1.7293
N3010 X3.5507 Y-1.7333
N3015 X3.6035 Y-1.7346
N3020 X3.6563 Y-1.7333
N3025 X3.709 Y-1.7294
N3030 X3.7615 Y-1.7229
N3035 X3.8135 Y-1.7138
N3040 X3.8651 Y-1.7021
N3045 X3.9159 Y-1.6879
N3050 X3.9661 Y-1.6713
N3055 X4.0153 Y-1.6521
N3060 X4.0636 Y-1.6307
N3065 X4.1109 Y-1.607
N3070 X4.1569 Y-1.5811
N3075 X4.2017 Y-1.553
N3080 X4.245 Y-1.5228
N3085 X4.2869 Y-1.4906
N3090 X4.3273 Y-1.4565
N3095 X4.3661 Y-1.4206
N3100 X4.4032 Y-1.383
N3105 X4.4386 Y-1.3438
N3110 X4.4721 Y-1.3029
N3115 X4.5038 Y-1.2606
N3120 X4.5334 Y-1.2169
N3125 X4.5611 Y-1.1719
N3130 X4.5867 Y-1.1256
N3135 X4.6102 Y-1.0783
N3140 X4.6315 Y-1.03
N3145 X4.6506 Y-0.9807
N3150 X4.6674 Y-0.9306
N3155 X4.6819 Y-0.8798
N3160 X4.694 Y-0.8284
N3165 X4.7039 Y-0.7764
N3170 X4.7113 Y-0.7241
N3175 X4.7162 Y-0.6715
N3180 X4.7186 Y-0.6187
N3185 X4.7187 Y-0.5659
N3190 X4.7162 Y-0.5131
N3195 X4.7114 Y-0.4605
N3200 X4.7041 Y-0.4081
N3205 X4.6944 Y-0.3562
N3210 X4.6822 Y-0.3048
N3215 X4.6676 Y-0.254
N3220 X4.6506 Y-0.2039
N3225 X4.6314 Y-0.1547
N3230 X4.6099 Y-0.1065
N3235 X4.5862 Y-0.0593
N3240 X4.5602 Y-0.0133
N3245 X4.5321 Y0.0315
N3250 X4.5019 Y0.0749
N3255 X4.4698 Y0.1169
N3260 X4.4358 Y0.1573
N3265 X4.4 Y0.1961
N3270 X4.3623 Y0.2332
N3275 X4.3229 Y0.2684
N3280 X4.282 Y0.3018
N3285 X4.2396 Y0.3333
N3290 X4.1958 Y0.3629
N3295 X4.1506 Y0.3904
N3300 X4.1043 Y0.4157
N3305 X4.0568 Y0.4389
N3310 X4.0083 Y0.4599
N3315 X3.9589 Y0.4787
N3320 X3.9087 Y0.4952
N3325 X3.8578 Y0.5095
N3330 X3.8064 Y0.5214
N3335 X3.7544 Y0.5309
N3340 X3.702 Y0.538
N3345 X3.6494 Y0.5428
N3350 X3.5966 Y0.5453
N3355 X3.5438 Y0.5454
N3360 X3.491 Y0.5432
N3365 X3.4383 Y0.5385
N3370 X3.386 Y0.5315
N3375 X3.334 Y0.5222
N3380 X3.2824 Y0.5105
N3385 X3.2314 Y0.4967
N3390 X3.1811 Y0.4806
N3395 X3.1315 Y0.4623
N3400 X3.0828 Y0.4418
N3405 X3.0351 Y0.4192
N3410 X2.9884 Y0.3945
N3415 X2.9428 Y0.3677
N3420 X2.8984 Y0.3391
N3425 X2.8552 Y0.3086
N3430 X2.8135 Y0.2761
N3435 X2.7733 Y0.2419
N3440 X2.7346 Y0.2059
N3445 X2.6974 Y0.1683
N3450 X2.6619 Y0.1292
N3455 X2.6282 Y0.0886
N3460 X2.5961 Y0.0465
N3465 X2.566 Y0.0031
N3470 X2.5378 Y-0.0416
N3475 X2.5116 Y-0.0874
N3480 X2.4873 Y-0.1344
N3485 X2.4651 Y-0.1823
N3490 X2.4449 Y-0.2312
N3495 X2.4268 Y-0.2808
N3500 X2.411 Y-0.3312
N3505 X2.3973 Y-0.3823
N3510 X2.3859 Y-0.4338
N3515 X2.3766 Y-0.4859
N3520 X2.3696 Y-0.5382
N3525 X2.3647 Y-0.5909
N3530 X2.3622 Y-0.6436
N3535 X2.3619 Y-0.6965
N3540 X2.3639 Y-0.7493
N3545 X2.3682 Y-0.8019
N3550 X2.3748 Y-0.8544
N3555 X2.3835 Y-0.9065
N3560 X2.3944 Y-0.9582
N3565 X2.4075 Y-1.0094
N3570 X2.4228 Y-1.06
N3575 X2.4403 Y-1.1098
N3580 X2.4599 Y-1.1589
N3585 X2.4816 Y-1.2071
N3590 X2.5052 Y-1.2543
N3595 X2.5308 Y-1.3006
N3600 X2.5584 Y-1.3456
N3605 X2.5879 Y-1.3895
N3610 X2.6193 Y-1.432
N3615 X2.6524 Y-1.4731
N3620 X2.6873 Y-1.5129
N3625 X2.7237 Y-1.5511
N3630 X2.7618 Y-1.5878
N3635 X2.8014 Y-1.6227
N3640 X2.8425 Y-1.656
N3645 X2.885 Y-1.6874
N3650 X2.9287 Y-1.717
N3655 X2.9737 Y-1.7448
N3660 X3.0198 Y-1.7706
N3665 X3.0669 Y-1.7945
N3670 X3.115 Y-1.8163
N3675 X3.1641 Y-1.836
N3680 X3.2139 Y-1.8536
N3685 X3.2644 Y-1.8691
N3690 X3.3156 Y-1.8824
N3695 X3.3672 Y-1.8936
N3700 X3.4193 Y-1.9026
N3705 X3.4717 Y-1.9093
N3710 X3.5243 Y-1.9138
N3715 X3.5771 Y-1.916
N3720 X3.63
N3725 X3.6828 Y-1.9138
N3730 X3.7354 Y-1.9094
N3735 X3.7878 Y-1.9028
N3740 X3.8399 Y-1.8939
N3745 X3.8916 Y-1.8828
N3750 X3.9427 Y-1.8696
N3755 X3.9933 Y-1.8542
N3760 X4.0432 Y-1.8368
N3765 X4.0923 Y-1.8173
N3770 X4.1406 Y-1.7959
N3775 X4.1879 Y-1.7724
N3780 X4.2343 Y-1.747
N3785 X4.2795 Y-1.7197
N3790 X4.3236 Y-1.6906
N3795 X4.3666 Y-1.6598
N3800 X4.4082 Y-1.6273
N3805 X4.4486 Y-1.5932
N3810 X4.4876 Y-1.5575
N3815 X4.525 Y-1.5203
N3820 X4.561 Y-1.4815
N3825 X4.5954 Y-1.4414
N3830 X4.6282 Y-1.4
N3835 X4.6594 Y-1.3574
N3840 X4.6889 Y-1.3135
N3845 X4.7167 Y-1.2686
N3850 X4.7426 Y-1.2225
N3855 X4.7666 Y-1.1755
N3860 X4.7888 Y-1.1275
N3865 X4.8091 Y-1.0787
N3870 X4.8275 Y-1.0292
N3875 X4.844 Y-0.979
N3880 X4.8584 Y-0.9282
N3885 X4.8708 Y-0.8768
N3890 X4.8811 Y-0.825
N3895 X4.8893 Y-0.7728
N3900 X4.8955 Y-0.7203
N3905 X4.8996 Y-0.6676
N3910 X4.9016 Y-0.6148
N3915 X4.9015 Y-0.562
N3920 X4.8992 Y-0.5092
N3925 X4.8948 Y-0.4565
N3930 X4.8883 Y-0.4041
N3935 X4.8797 Y-0.3519
N3940 X4.869 Y-0.3002
N3945 X4.8563 Y-0.2489
N3950 X4.8416 Y-0.1982
N3955 X4.8248 Y-0.1481
N3960 X4.8059 Y-0.0987
N3965 X4.7851 Y-0.0501
N3970 X4.7623 Y-0.0025
N3975 X4.7377 Y0.0443
N3980 X4.7112 Y0.09
N3985 X4.6829 Y0.1347
N3990 X4.6529 Y0.1781
N3995 X4.6211 Y0.2203
N4000 X4.5876 Y0.2612
N4005 X4.5525 Y0.3007
N4010 X4.5158 Y0.3387
N4015 X4.4777 Y0.3753
N4020 X4.4382 Y0.4104
N4025 X4.3973 Y0.4438
N4030 X4.355 Y0.4756
N4035 X4.3116 Y0.5057
N4040 X4.2669 Y0.5339
N4045 X4.2212 Y0.5604
N4050 X4.1745 Y0.5851
N4055 X4.1269 Y0.608
N4060 X4.0784 Y0.629
N4065 X4.0291 Y0.648
N4070 X3.979 Y0.665
N4075 X3.9284 Y0.68
N4080 X3.8772 Y0.6931
N4085 X3.8255 Y0.7041
N4090 X3.7734 Y0.7132
N4095 X3.7211 Y0.7202
N4100 X3.6685 Y0.7252
N4105 X3.6157 Y0.728
N4110 X3.5629 Y0.7289
N4115 X3.51 Y0.7276
N4120 X3.4573 Y0.7243
N4125 X3.4047 Y0.719
N4130 X3.3524 Y0.7117
N4135 X3.3004 Y0.7025
N4140 X3.2488 Y0.6912
N4145 X3.1976 Y0.6778
N4150 X3.147 Y0.6626
N4155 X3.0971 Y0.6454
N4160 X3.0478 Y0.6263
N4165 X2.9993 Y0.6053
N4170 X2.9516 Y0.5826
N4175 X2.9048 Y0.558
N4180 X2.859 Y0.5317
N4185 X2.8142 Y0.5036
N4190 X2.7706 Y0.4739
N4195 X2.7281 Y0.4425
N4200 X2.6868 Y0.4095
N4205 X2.6467 Y0.375
N4210 X2.608 Y0.3391
N4215 X2.5707 Y0.3017
N4220 X2.5348 Y0.2629
N4225 X2.5004 Y0.2228
N4230 X2.4676 Y0.1814
N4235 X2.4363 Y0.1388
N4240 X2.4067 Y0.095
N4245 X2.3786 Y0.0502
N4250 X2.3523 Y0.0044
N4255 X2.3277 Y-0.0424
N4260 X2.305 Y-0.09
N4265 X2.284 Y-0.1385
N4270 X2.2648 Y-0.1878
N4275 X2.2476 Y-0.2377
N4280 X2.2321 Y-0.2883
N4285 X2.2186 Y-0.3393
N4290 X2.2069 Y-0.3909
N4295 X2.1972 Y-0.4428
N4300 X2.1895 Y-0.4951
N4305 X2.1838 Y-0.5476
N4310 X2.18 Y-0.6003
N4315 X2.1781 Y-0.6531
N4320 X2.1782 Y-0.706
N4325 X2.1803 Y-0.7588
N4330 X2.1843 Y-0.8115
N4335 X2.1903 Y-0.864
N4340 X2.1983 Y-0.9162
N4345 X2.2082 Y-0.9681
N4350 X2.22 Y-1.0196
N4355 X2.2338 Y-1.0706
N4360 X2.2494 Y-1.1211
N4365 X2.2668 Y-1.171
N4370 X2.2861 Y-1.2202
N4375 X2.3072 Y-1.2686
N4380 X2.3301 Y-1.3162
N4385 X2.3548 Y-1.363
N4390 X2.3812 Y-1.4088
N4395 X2.4092 Y-1.4535
N4400 X2.4389 Y-1.4973
N4405 X2.4701 Y-1.5399
N4410 X2.503 Y-1.5813
N4415 X2.5373 Y-1.6214
N4420 X2.5732 Y-1.6602
N4425 X2.6104 Y-1.6977
N4430 X2.649 Y-1.7338
N4435 X2.6889 Y-1.7684
N4440 X2.7301 Y-1.8016
N4445 X2.7724 Y-1.8332
N4450 X2.8159 Y-1.8632
N4455 X2.8605 Y-1.8915
N4460 X2.9062 Y-1.9182
N4465 X2.9527 Y-1.9431
N4470 X3.0002 Y-1.9664
N4475 X3.0485 Y-1.9878
N4480 X3.0975 Y-2.0075
N4485 X3.1472 Y-2.0254
N4490 X3.1976 Y-2.0413
N4495 X3.2485 Y-2.0554
N4500 X3.3 Y-2.0676
N4505 X3.3518 Y-2.0779
N4510 X3.404 Y-2.0862
N4515 X3.4564 Y-2.0927
N4520 X3.5091 Y-2.0972
N4525 X3.5618 Y-2.0998
N4530 X3.6147 Y-2.1004
N4535 X3.6675 Y-2.099
N4540 X3.7202 Y-2.0957
N4545 X3.7728 Y-2.0904
N4550 X3.8252 Y-2.0832
N4555 X3.8772 Y-2.0742
N4560 X3.9289 Y-2.0632
N4565 X3.9802 Y-2.0503
N4570 X4.0309 Y-2.0356
N4575 X4.0811 Y-2.019
N4580 X4.1306 Y-2.0006
N4585 X4.1795 Y-1.9804
N4590 X4.2275 Y-1.9586
N4595 X4.2748 Y-1.935
N4600 X4.3212 Y-1.9097
N4605 X4.3667 Y-1.8828
N4610 X4.4112 Y-1.8543
N4615 X4.4546 Y-1.8242
N4620 X4.497 Y-1.7926
N4625 X4.5382 Y-1.7595
N4630 X4.5783 Y-1.7251
N4635 X4.6171 Y-1.6892
N4640 X4.6547 Y-1.6521
N4645 X4.6909 Y-1.6136
N4650 X4.7257 Y-1.5739
N4655 X4.7592 Y-1.533
N4660 X4.7912 Y-1.4909
N4665 X4.8217 Y-1.4478
N4670 X4.8508 Y-1.4037
N4675 X4.8783 Y-1.3585
N4680 X4.9042 Y-1.3125
N4685 X4.9285 Y-1.2656
N4690 X4.9511 Y-1.2178
N4695 X4.9721 Y-1.1693
N4700 X4.9914 Y-1.1201
N4705 X5.009 Y-1.0703
N4710 X5.0248 Y-1.0199
N4715 X5.0389 Y-0.969
N4720 X5.0512 Y-0.9176
N4725 X5.0616 Y-0.8658
N4730 X5.0703 Y-0.8136
N4735 X5.0771 Y-0.7612
N4740 X5.0821 Y-0.7086
N4745 X5.0853 Y-0.6559
N4750 X5.0866 Y-0.6031
N4755 X5.086 Y-0.5502
N4760 X5.0836 Y-0.4974
N4765 X5.0794 Y-0.4448
N4770 X5.0733 Y-0.3923
N4775 X5.0653 Y-0.3401
N4780 X5.0555 Y-0.2881
N4785 X5.0439 Y-0.2366
N4790 X5.0305 Y-0.1855
N4795 X5.0153 Y-0.1349
N4800 X4.9983 Y-0.0848
N4805 X4.9796 Y-0.0354
N4810 X4.9591 Y0.0133
N4815 X4.9369 Y0.0613
N4820 X4.913 Y0.1084
N4825 X4.8875 Y0.1547
N4830 X4.8604 Y0.2
N4835 X4.8317 Y0.2444
N4840 X4.8015 Y0.2877
N4845 X4.7698 Y0.33
N4850 X4.7366 Y0.3711
N4855 X4.7019 Y0.411
N4860 X4.6659 Y0.4497
N4865 X4.6285 Y0.487
N4870 X4.5899 Y0.5231
N4875 X4.55 Y0.5578
N4880 X4.509 Y0.591
N4885 X4.4668 Y0.6229
N4890 X4.4235 Y0.6532
N4895 X4.3792 Y0.6819
N4900 X4.3339 Y0.7091
N4905 X4.2877 Y0.7348
N4910 X4.2406 Y0.7588
N4915 X4.1927 Y0.7811
N4920 X4.1441 Y0.8018
N4925 X4.0948 Y0.8208
N4930 X4.0449 Y0.8381
N4935 X3.9944 Y0.8536
N4940 X3.9434 Y0.8674
N4945 X3.8919 Y0.8794
N4950 X3.8401 Y0.8897
N4955 X3.7879 Y0.8981
N4960 X3.7355 Y0.9048
N4965 X3.6829 Y0.9097
N4970 X3.6301 Y0.9127
N4975 X3.5773 Y0.914
N4980 X3.5245 Y0.9134
N4985 X3.4717 Y0.911
N4990 X3.419 Y0.9069
N4995 X3.3665 Y0.9009
N5000 X3.3142 Y0.8932
N5005 X3.2622 Y0.8837
N5010 X3.2106 Y0.8725
N5015 X3.1594 Y0.8595
N5020 X3.1086 Y0.8448
N5025 X3.0584 Y0.8283
N5030 X3.0088 Y0.8102
N5035 X2.9598 Y0.7904
N5040 X2.9115 Y0.769
N5045 X2.8639 Y0.746
N5050 X2.8171 Y0.7214
N5055 X2.7712 Y0.6952
N5060 X2.7262 Y0.6675
N5065 X2.6822 Y0.6383
N5070 X2.6392 Y0.6077
N5075 X2.5972 Y0.5756
N5080 X2.5563 Y0.5422
N5085 X2.5165 Y0.5074
N5090 X2.4779 Y0.4713
N5095 X2.4405 Y0.434
N5100 X2.4044 Y0.3954
N5105 X2.3696 Y0.3556
N5110 X2.3362 Y0.3147
N5115 X2.3041 Y0.2727
N5120 X2.2735 Y0.2296
N5125 X2.2442 Y0.1856
N5130 X2.2165 Y0.1406
N5135 X2.1902 Y0.0948
N5140 X2.1655 Y0.0481
N5145 X2.1423 Y0.0006
N5150 X2.1208 Y-0.0477
N5155 X2.1009 Y-0.0966
N5160 X2.0826 Y-0.1462
N5165 X2.0659 Y-0.1963
N5170 X2.0509 Y-0.247
N5175 X2.0375 Y-0.2981
N5180 X2.0259 Y-0.3496
N5185 X2.0159 Y-0.4015
N5190 X2.0077 Y-0.4537
N5195 X2.0013 Y-0.5062
N5200 X1.9966 Y-0.5588
N5205 X1.9936 Y-0.6116
N5210 X1.9923 Y-0.6644
N5215 X1.9928 Y-0.7172
N5220 X1.9949 Y-0.77
N5225 X1.9989 Y-0.8227
N5230 X2.0045 Y-0.8753
N5235 X2.012 Y-0.9276
N5240 X2.0211 Y-0.9796
N5245 X2.032 Y-1.0313
N5250 X2.0445 Y-1.0827
N5255 X2.0587 Y-1.1336
N5260 X2.0745 Y-1.184
N5265 X2.092 Y-1.2338
N5270 X2.1111 Y-1.2831
N5275 X2.1319 Y-1.3317
N5280 X2.1542 Y-1.3796
N5285 X2.1781 Y-1.4267
N5290 X2.2036 Y-1.473
N5295 X2.2305 Y-1.5185
N5300 X2.2589 Y-1.563
N5305 X2.2887 Y-1.6067
N5310 X2.32 Y-1.6493
N5315 X2.3526 Y-1.6908
N5320 X2.3866 Y-1.7313
N5325 X2.4219 Y-1.7706
N5330 X2.4585 Y-1.8087
N5335 X2.4963 Y-1.8456
N5340 X2.5353 Y-1.8813
N5345 X2.5754 Y-1.9156
N5350 X2.6167 Y-1.9487
N5355 X2.659 Y-1.9804
N5360 X2.7023 Y-2.0106
N5365 X2.7466 Y-2.0394
N5370 X2.7918 Y-2.0668
N5375 X2.8379 Y-2.0926
N5380 X2.8848 Y-2.1169
N5385 X2.9325 Y-2.1397
N5390 X2.9809 Y-2.1609
N5395 X3.0299 Y-2.1806
N5400 X3.0796 Y-2.1986
N5405 X3.1299 Y-2.2149
N5410 X3.1806 Y-2.2296
N5415 X3.2318 Y-2.2426
N5420 X3.2835 Y-2.2539
N5425 X3.3354 Y-2.2636
N5430 X3.3876 Y-2.2715
N5435 X3.4401 Y-2.2778
N5440 X3.4928 Y-2.2823
N5445 X3.5455 Y-2.2851
N5450 X3.5984 Y-2.2862
N5455 X3.6512 Y-2.2855
N5460 X3.704 Y-2.2831
N5465 X3.7567 Y-2.279
N5470 X3.8092 Y-2.2731
N5475 X3.8615 Y-2.2656
N5480 X3.9135 Y-2.2564
N5485 X3.9652 Y-2.2456
N5490 X4.0166 Y-2.233
N5495 X4.0674 Y-2.2188
N5500 X4.1178 Y-2.2029
N5505 X4.1677 Y-2.1855
N5510 X4.217 Y-2.1664
N5515 X4.2656 Y-2.1458
N5520 X4.3136 Y-2.1236
N5525 X4.3609 Y-2.1
N5530 X4.4074 Y-2.0749
N5535 X4.453 Y-2.0483
N5540 X4.4978 Y-2.0202
N5545 X4.5417 Y-1.9907
N5550 X4.5846 Y-1.9599
N5555 X4.6265 Y-1.9278
N5560 X4.6675 Y-1.8944
N5565 X4.7073 Y-1.8597
N5570 X4.7461 Y-1.8238
N5575 X4.7837 Y-1.7867
N5580 X4.8202 Y-1.7485
N5585 X4.8554 Y-1.7091
N5590 X4.8894 Y-1.6686
N5595 X4.9222 Y-1.6271
N5600 X4.9536 Y-1.5847
N5605 X4.9837 Y-1.5412
N5610 X5.0125 Y-1.4969
N5615 X5.0399 Y-1.4517
N5620 X5.0659 Y-1.4057
N5625 X5.0904 Y-1.3589
N5630 X5.1135 Y-1.3114
N5635 X5.135 Y-1.2632
N5640 X5.1551 Y-1.2143
N5645 X5.1736 Y-1.1648
N5650 X5.1907 Y-1.1148
N5655 X5.2061 Y-1.0642
N5660 X5.22 Y-1.0133
N5665 X5.2324 Y-0.9619
N5670 X5.2431 Y-0.9101
N5675 X5.2522 Y-0.8581
N5680 X5.2596 Y-0.8058
N5685 X5.2654 Y-0.7532
N5690 X5.2696 Y-0.7006
N5695 X5.2721 Y-0.6478
N5700 X5.273 Y-0.595
N5705 X5.2723 Y-0.5421
N5710 X5.2699 Y-0.4893
N5715 X5.2659 Y-0.4367
N5720 X5.2602 Y-0.3841
N5725 X5.2528 Y-0.3318
N5730 X5.2438 Y-0.2797
N5735 X5.2332 Y-0.228
N5740 X5.221 Y-0.1766
N5745 X5.2072 Y-0.1256
N5750 X5.1918 Y-0.075
N5755 X5.1748 Y-0.025
N5760 X5.1563 Y0.0245
N5765 X5.1362 Y0.0734
N5770 X5.1146 Y0.1216
N5775 X5.0914 Y0.1691
N5780 X5.0668 Y0.2159
N5785 X5.0408 Y0.2619
N5790 X5.0133 Y0.307
N5795 X4.9845 Y0.3513
N5800 X4.9542 Y0.3946
N5805 X4.9227 Y0.437
N5810 X4.8898 Y0.4783
N5815 X4.8556 Y0.5186
N5820 X4.8202 Y0.5578
N5825 X4.7835 Y0.5959
N5830 X4.7458 Y0.6329
N5835 X4.7068 Y0.6686
N5840 X4.6668 Y0.7031
N5845 X4.6258 Y0.7364
N5850 X4.5837 Y0.7684
N5855 X4.5406 Y0.799
N5860 X4.4967 Y0.8283
N5865 X4.4518 Y0.8561
N5870 X4.406 Y0.8826
N5875 X4.3595 Y0.9077
N5880 X4.3122 Y0.9313
N5885 X4.2643 Y0.9534
N5890 X4.2157 Y0.9741
N5895 X4.1664 Y0.9933
N5900 X4.1166 Y1.0109
N5905 X4.0662 Y1.027
N5910 X4.0154 Y1.0414
N5915 X3.9642 Y1.0544
N5920 X3.9126 Y1.0657
N5925 X3.8607 Y1.0755
N5930 X3.8085 Y1.0837
N5935 X3.756 Y1.0903
N5940 X3.7034 Y1.0953
N5945 X3.6507 Y1.0987
N5950 X3.5979 Y1.1004
N5955 X3.545 Y1.1005
N5960 X3.4922 Y1.0991
N5965 X3.4395 Y1.096
N5970 X3.3868 Y1.0913
N5975 X3.3344 Y1.085
N5980 X3.2821 Y1.0772
N5985 X3.2301 Y1.0678
N5990 X3.1784 Y1.0568
N5995 X3.1271 Y1.0442
N6000 X3.0762 Y1.0301
N6005 X3.0257 Y1.0144
N6010 X2.9758 Y0.9972
N6015 X2.9263 Y0.9786
N6020 X2.8775 Y0.9584
N6025 X2.8292 Y0.9368
N6030 X2.7817 Y0.9138
N6035 X2.7348 Y0.8894
N6040 X2.6887 Y0.8636
N6045 X2.6435 Y0.8363
N6050 X2.599 Y0.8077
N6055 X2.5555 Y0.7778
N6060 X2.5128 Y0.7466
N6065 X2.4711 Y0.7142
N6070 X2.4304 Y0.6805
N6075 X2.3906 Y0.6457
N6080 X2.352 Y0.6097
N6085 X2.3144 Y0.5725
N6090 X2.278 Y0.5342
N6095 X2.2427 Y0.4949
N6100 X2.2087 Y0.4545
N6105 X2.1758 Y0.4131
N6110 X2.1442 Y0.3708
N6115 X2.1138 Y0.3275
N6120 X2.0847 Y0.2834
N6125 X2.057 Y0.2384
N6130 X2.0306 Y0.1927
N6135 X2.0055 Y0.1461
N6140 X1.9819 Y0.0989
N6145 X1.9597 Y0.0509
N6150 X1.939 Y0.0023
N6155 X1.9196 Y-0.0469
N6160 X1.9018 Y-0.0966
N6165 X1.8854 Y-0.1468
N6170 X1.8704 Y-0.1975
N6175 X1.857 Y-0.2486
N6180 X1.8451 Y-0.3001
N6185 X1.8348 Y-0.3519
N6190 X1.826 Y-0.404
N6195 X1.8187 Y-0.4564
N6200 X1.813 Y-0.5089
N6205 X1.8088 Y-0.5616
N6210 X1.8062 Y-0.6143
N6215 X1.8051 Y-0.6672
N6220 X1.8056 Y-0.72
N6225 X1.8076 Y-0.7728
N6230 X1.8112 Y-0.8255
N6235 X1.8164 Y-0.8781
N6240 X1.8232 Y-0.9305
N6245 X1.8314 Y-0.9827
N6250 X1.8413 Y-1.0346
N6255 X1.8526 Y-1.0862
N6260 X1.8654 Y-1.1375
N6265 X1.8797 Y-1.1884
N6270 X1.8955 Y-1.2388
N6275 X1.9128 Y-1.2887
N6280 X1.9315 Y-1.3381
N6285 X1.9517 Y-1.387
N6290 X1.9734 Y-1.4352
N6295 X1.9965 Y-1.4827
N6300 X2.0209 Y-1.5295
N6305 X2.0467 Y-1.5757
N6310 X2.0738 Y-1.621
N6315 X2.1023 Y-1.6655
N6320 X2.132 Y-1.7092
N6325 X2.163 Y-1.752
N6330 X2.1953 Y-1.7938
N6335 X2.2288 Y-1.8347
N6340 X2.2635 Y-1.8746
N6345 X2.2993 Y-1.9134
N6350 X2.3363 Y-1.9512
N6355 X2.3743 Y-1.9878
N6360 X2.4134 Y-2.0234
N6365 X2.4535 Y-2.0578
N6370 X2.4946 Y-2.091
N6375 X2.5367 Y-2.1229
N6380 X2.5797 Y-2.1536
N6385 X2.6236 Y-2.183
N6390 X2.6684 Y-2.2111
N6395 X2.7139 Y-2.2379
N6400 X2.7603 Y-2.2633
N6405 X2.8073 Y-2.2874
N6410 X2.855 Y-2.3101
N6415 X2.9034 Y-2.3314
N6420 X2.9523 Y-2.3513
N6425 X3.0019 Y-2.3697
N6430 X3.0519 Y-2.3866
N6435 X3.1024 Y-2.4021
N6440 X3.1534 Y-2.416
N6445 X3.2048 Y-2.4285
N6450 X3.2565 Y-2.4394
N6455 X3.3084 Y-2.4489
N6460 X3.3607 Y-2.4568
N6465 X3.4131 Y-2.4632
N6470 X3.4657 Y-2.4681
N6475 X3.5185 Y-2.4714
N6480 X3.5713 Y-2.4731
N6485 X3.6241 Y-2.4733
N6490 X3.677 Y-2.4719
N6495 X3.7297 Y-2.469
N6500 X3.7824 Y-2.4646
N6505 X3.8349 Y-2.4587
N6510 X3.8872 Y-2.4512
N6515 X3.9393 Y-2.4422
N6520 X3.9911 Y-2.4317
N6525 X4.0425 Y-2.4197
N6530 X4.0936 Y-2.4062
N6535 X4.1443 Y-2.3912
N6540 X4.1945 Y-2.3748
N6545 X4.2442 Y-2.3569
N6550 X4.2934 Y-2.3376
N6555 X4.342 Y-2.317
N6560 X4.3901 Y-2.2949
N6565 X4.4374 Y-2.2715
N6570 X4.4841 Y-2.2467
N6575 X4.5301 Y-2.2206
N6580 X4.5752 Y-2.1932
N6585 X4.6196 Y-2.1645
N6590 X4.6632 Y-2.1346
N6595 X4.7059 Y-2.1035
N6600 X4.7477 Y-2.0712
N6605 X4.7886 Y-2.0377
N6610 X4.8285 Y-2.0031
N6615 X4.8675 Y-1.9674
N6620 X4.9054 Y-1.9306
N6625 X4.9423 Y-1.8928
N6630 X4.978 Y-1.8539
N6635 X5.0127 Y-1.814
N6640 X5.0463 Y-1.7732
N6645 X5.0787 Y-1.7315
N6650 X5.1099 Y-1.6889
N6655 X5.14 Y-1.6454
N6660 X5.1688 Y-1.6011
N6665 X5.1964 Y-1.5561
N6670 X5.2227 Y-1.5102
N6675 X5.2477 Y-1.4637
N6680 X5.2714 Y-1.4165
N6685 X5.2938 Y-1.3686
N6690 X5.3148 Y-1.3201
N6695 X5.3345 Y-1.2711
N6700 X5.3528 Y-1.2215
N6705 X5.3697 Y-1.1714
N6710 X5.3853 Y-1.1209
N6715 X5.3994 Y-1.07
N6720 X5.4121 Y-1.0187
N6725 X5.4233 Y-0.9671
N6730 X5.433 Y-0.9151
N6735 X5.4413 Y-0.863
N6740 X5.4481 Y-0.8106
N6745 X5.4535 Y-0.758
N6750 X5.4574 Y-0.7053
N6755 X5.4598 Y-0.6525
N6760 X5.4608 Y-0.5997
N6765 X5.4603 Y-0.5468
N6770 X5.4582 Y-0.494
N6775 X5.4547 Y-0.4413
N6780 X5.4497 Y-0.3887
N6785 X5.4432 Y-0.3363
N6790 X5.4352 Y-0.284
N6795 X5.4258 Y-0.2321
N6800 X5.4149 Y-0.1803
N6805 X5.4026 Y-0.129
N6810 X5.3888 Y-0.0779
N6815 X5.3736 Y-0.0273
N6820 X5.357 Y0.0228
N6825 X5.339 Y0.0725
N6830 X5.3195 Y0.1216
N6835 X5.2987 Y0.1702
N6840 X5.2765 Y0.2181
N6845 X5.2529 Y0.2654
N6850 X5.2281 Y0.3121
N6855 X5.202 Y0.358
N6860 X5.1746 Y0.4032
N6865 X5.1459 Y0.4476
N6870 X5.116 Y0.4911
N6875 X5.0848 Y0.5338
N6880 X5.0525 Y0.5756
N6885 X5.019 Y0.6165
N6890 X4.9843 Y0.6563
N6895 X4.9486 Y0.6953
N6900 X4.9118 Y0.7332
N6905 X4.8739 Y0.77
N6910 X4.8351 Y0.8058
N6915 X4.7952 Y0.8405
N6920 X4.7544 Y0.8741
N6925 X4.7126 Y0.9065
N6930 X4.67 Y0.9376
N6935 X4.6264 Y0.9676
N6940 X4.5821 Y0.9964
N6945 X4.537 Y1.0239
N6950 X4.4911 Y1.0501
N6955 X4.4446 Y1.0751
N6960 X4.3973 Y1.0988
N6965 X4.3495 Y1.1212
N6970 X4.301 Y1.1422
N6975 X4.2519 Y1.1618
N6980 X4.2023 Y1.18
N6985 X4.1522 Y1.1969
N6990 X4.1017 Y1.2123
N6995 X4.0508 Y1.2264
N7000 X3.9995 Y1.2391
N7005 X3.9478 Y1.2503
N7010 X3.8959 Y1.2601
N7015 X3.8438 Y1.2685
N7020 X3.7914 Y1.2755
N7025 X3.7388 Y1.2809
N7030 X3.6861 Y1.2849
N7035 X3.6333 Y1.2875
N7040 X3.5805 Y1.2886
N7045 X3.5277 Y1.2882
N7050 X3.4749 Y1.2864
N7055 X3.4221 Y1.2832
N7060 X3.3695 Y1.2785
N7065 X3.317 Y1.2724
N7070 X3.2647 Y1.2649
N7075 X3.2126 Y1.2559
N7080 X3.1608 Y1.2455
N7085 X3.1093 Y1.2336
N7090 X3.0582 Y1.2204
N7095 X3.0074 Y1.2058
N7100 X2.957 Y1.1897
N7105 X2.9071 Y1.1724
N7110 X2.8577 Y1.1537
N7115 X2.8088 Y1.1337
N7120 X2.7605 Y1.1123
N7125 X2.7127 Y1.0897
N7130 X2.6656 Y1.0657
N7135 X2.6192 Y1.0405
N7140 X2.5735 Y1.014
N7145 X2.5285 Y0.9862
N7150 X2.4843 Y0.9573
N7155 X2.4409 Y0.9272
N7160 X2.3983 Y0.8959
N7165 X2.3565 Y0.8636
N7170 X2.3157 Y0.8301
N7175 X2.2757 Y0.7955
N7180 X2.2367 Y0.7598
N7185 X2.1987 Y0.7231
N7190 X2.1618 Y0.6853
N7195 X2.1258 Y0.6466
N7200 X2.0909 Y0.607
N7205 X2.0571 Y0.5664
N7210 X2.0243 Y0.5249
N7215 X1.9927 Y0.4826
N7220 X1.9622 Y0.4394
N7225 X1.9329 Y0.3954
N7230 X1.9048 Y0.3507
N7235 X1.8779 Y0.3052
N7240 X1.8523 Y0.259
N7245 X1.8279 Y0.2121
N7250 X1.8048 Y0.1646
N7255 X1.7829 Y0.1165
N7260 X1.7624 Y0.0678
N7265 X1.7431 Y0.0186
N7270 X1.7251 Y-0.0311
N7275 X1.7085 Y-0.0813
N7280 X1.6933 Y-0.1318
N7285 X1.6794 Y-0.1828
N7290 X1.6669 Y-0.2342
N7295 X1.6558 Y-0.2858
N7300 X1.6461 Y-0.3378
N7305 X1.6377 Y-0.3899
N7310 X1.6308 Y-0.4423
N7315 X1.6252 Y-0.4949
N7320 X1.621 Y-0.5476
N7325 X1.6182 Y-0.6003
N7330 X1.6169 Y-0.6531
N7335 Y-0.706
N7340 X1.6184 Y-0.7588
N7345 X1.6214 Y-0.8116
N7350 X1.6257 Y-0.8642
N7355 X1.6314 Y-0.9168
N7360 X1.6385 Y-0.9691
N7365 X1.647 Y-1.0213
N7370 X1.6569 Y-1.0732
N7375 X1.6681 Y-1.1248
N7380 X1.6807 Y-1.1761
N7385 X1.6947 Y-1.2271
N7390 X1.7101 Y-1.2776
N7395 X1.7268 Y-1.3278
N7400 X1.7448 Y-1.3774
N7405 X1.7642 Y-1.4266
N7410 X1.7848 Y-1.4752
N7415 X1.8068 Y-1.5233
N7420 X1.83 Y-1.5708
N7425 X1.8544 Y-1.6176
N7430 X1.8801 Y-1.6638
N7435 X1.9069 Y-1.7093
N7440 X1.935 Y-1.7541
N7445 X1.9643 Y-1.7981
N7450 X1.9948 Y-1.8412
N7455 X2.0264 Y-1.8836
N7460 X2.0591 Y-1.9251
N7465 X2.0929 Y-1.9657
N7470 X2.1278 Y-2.0054
N7475 X2.1637 Y-2.0441
N7480 X2.2006 Y-2.0819
N7485 X2.2385 Y-2.1188
N7490 X2.2774 Y-2.1546
N7495 X2.3172 Y-2.1893
N7500 X2.358 Y-2.223
N7505 X2.3996 Y-2.2555
N7510 X2.4421 Y-2.2869
N7515 X2.4854 Y-2.3172
N7520 X2.5294 Y-2.3463
N7525 X2.5743 Y-2.3743
N7530 X2.6198 Y-2.4011
N7535 X2.6661 Y-2.4266
N7540 X2.713 Y-2.451
N7545 X2.7605 Y-2.474
N7550 X2.8087 Y-2.4958
N7555 X2.8574 Y-2.5163
N7560 X2.9066 Y-2.5354
N7565 X2.9564 Y-2.5533
N7570 X3.0066 Y-2.5698
N7575 X3.0572 Y-2.585
N7580 X3.1082 Y-2.5989
N7585 X3.1595 Y-2.6114
N7590 X3.2111 Y-2.6225
N7595 X3.2631 Y-2.6323
N7600 X3.3152 Y-2.6407
N7605 X3.3676 Y-2.6477
N7610 X3.4202 Y-2.6532
N7615 X3.4728 Y-2.6574
N7620 X3.5256 Y-2.6602
N7625 X3.5784 Y-2.6616
N7630 X3.6313
N7635 X3.6841 Y-2.6602
N7640 X3.7369 Y-2.6574
N7645 X3.7895 Y-2.6533
N7650 X3.8421 Y-2.6477
N7655 X3.8945 Y-2.6407
N7660 X3.9467 Y-2.6324
N7665 X3.9986 Y-2.6227
N7670 X4.0503 Y-2.6116
N7675 X4.1016 Y-2.5991
N7680 X4.1526 Y-2.5853
N7685 X4.2033 Y-2.5702
N7690 X4.2535 Y-2.5538
N7695 X4.3033 Y-2.5362
N7700 X4.3526 Y-2.5172
N7705 X4.4014 Y-2.4969
N7710 X4.4496 Y-2.4753
N7715 X4.4973 Y-2.4525
N7720 X4.5443 Y-2.4285
N7725 X4.5908 Y-2.4032
N7730 X4.6365 Y-2.3768
N7735 X4.6816 Y-2.3492
N7740 X4.7259 Y-2.3204
N7745 X4.7695 Y-2.2906
N7750 X4.8123 Y-2.2596
N7755 X4.8543 Y-2.2276
N7760 X4.8955 Y-2.1944
N7765 X4.9358 Y-2.1603
N7770 X4.9752 Y-2.125
N7775 X5.0137 Y-2.0888
N7780 X5.0512 Y-2.0517
N7785 X5.0878 Y-2.0135
N7790 X5.1234 Y-1.9745
N7795 X5.158 Y-1.9346
N7800 X5.1917 Y-1.8938
N7805 X5.2242 Y-1.8522
N7810 X5.2557 Y-1.8098
N7815 X5.2861 Y-1.7666
N7820 X5.3154 Y-1.7226
N7825 X5.3436 Y-1.6778
N7830 X5.3706 Y-1.6324
N7835 X5.3964 Y-1.5863
N7840 X5.4211 Y-1.5396
N7845 X5.4445 Y-1.4923
N7850 X5.4668 Y-1.4443
N7855 X5.4879 Y-1.3959
N7860 X5.5077 Y-1.3469
N7865 X5.5263 Y-1.2974
N7870 X5.5436 Y-1.2475
N7875 X5.5597 Y-1.1972
N7880 X5.5744 Y-1.1464
N7885 X5.5878 Y-1.0953
N7890 X5.6 Y-1.0439
N7895 X5.6108 Y-0.9922
N7900 X5.6203 Y-0.9402
N7905 X5.6285 Y-0.888
N7910 X5.6353 Y-0.8356
N7915 X5.6409 Y-0.7831
N7920 X5.6451 Y-0.7304
N7925 X5.6479 Y-0.6776
N7930 X5.6494 Y-0.6248
N7935 X5.6495 Y-0.572
N7940 X5.6483 Y-0.5191
N7945 X5.6457 Y-0.4664
N7950 X5.6418 Y-0.4137
N7955 X5.6365 Y-0.3611
N7960 X5.6299 Y-0.3087
N7965 X5.622 Y-0.2564
N7970 X5.6128 Y-0.2044
N7975 X5.6022 Y-0.1526
N7980 X5.5903 Y-0.1011
N7985 X5.577 Y-0.05
N7990 X5.5625 Y0.0008
N7995 X5.5466 Y0.0512
N8000 X5.5295 Y0.1012
N8005 X5.5111 Y0.1507
N8010 X5.4914 Y0.1998
N8015 X5.4705 Y0.2483
N8020 X5.4484 Y0.2963
N8025 X5.425 Y0.3437
N8030 X5.4005 Y0.3905
N8035 X5.3747 Y0.4366
N8040 X5.3478 Y0.4821
N8045 X5.3197 Y0.5268
N8050 X5.2904 Y0.5709
N8055 X5.2601 Y0.6141
N8060 X5.2286 Y0.6566
N8065 X5.1961 Y0.6982
N8070 X5.1625 Y0.739
N8075 X5.128 Y0.779
N8080 X5.0924 Y0.818
N8085 X5.0558 Y0.8562
N8090 X5.0183 Y0.8934
N8095 X4.9798 Y0.9296
N8100 X4.9404 Y0.9648
N8105 X4.9001 Y0.9989
N8110 X4.8589 Y1.0321
N8115 X4.8169 Y1.0642
N8120 X4.7742 Y1.0952
N8125 X4.7306 Y1.1251
N8130 X4.6863 Y1.1539
N8135 X4.6413 Y1.1816
N8140 X4.5956 Y1.2082
N8145 X4.5493 Y1.2336
N8150 X4.5023 Y1.2577
N8155 X4.4547 Y1.2807
N8160 X4.4065 Y1.3024
N8165 X4.3579 Y1.323
N8170 X4.3087 Y1.3422
N8175 X4.259 Y1.3603
N8180 X4.2089 Y1.3771
N8185 X4.1584 Y1.3926
N8190 X4.1075 Y1.4069
N8195 X4.0563 Y1.4199
N8200 X4.0047 Y1.4315
N8205 X3.9529 Y1.4419
N8210 X3.9009 Y1.4509
N8215 X3.8486 Y1.4587
N8220 X3.7961 Y1.4651
N8225 X3.7436 Y1.4701
N8230 X3.6908 Y1.4739
N8235 X3.6381 Y1.4764
N8240 X3.5852 Y1.4775
N8245 X3.5324 Y1.4774
N8250 X3.4796 Y1.4759
N8255 X3.4268 Y1.4731
N8260 X3.3741 Y1.4689
N8265 X3.3216 Y1.4635
N8270 X3.2692 Y1.4567
N8275 X3.217 Y1.4486
N8280 X3.165 Y1.4392
N8285 X3.1132 Y1.4285
N8290 X3.0617 Y1.4166
N8295 X3.0106 Y1.4034
N8300 X2.9597 Y1.3889
N8305 X2.9093 Y1.3732
N8310 X2.8593 Y1.3562
N8315 X2.8097 Y1.338
N8320 X2.7605 Y1.3185
N8325 X2.7119 Y1.2978
N8330 X2.6638 Y1.276
N8335 X2.6163 Y1.2529
N8340 X2.5693 Y1.2287
N8345 X2.523 Y1.2033
N8350 X2.4773 Y1.1768
N8355 X2.4322 Y1.1491
N8360 X2.3879 Y1.1204
N8365 X2.3442 Y1.0906
N8370 X2.3013 Y1.0598
N8375 X2.2592 Y1.0278
N8380 X2.2179 Y0.9949
N8385 X2.1775 Y0.9609
N8390 X2.1379 Y0.9259
N8395 X2.0991 Y0.89
N8400 X2.0613 Y0.8531
N8405 X2.0243 Y0.8153
N8410 X1.9883 Y0.7767
N8415 X1.9532 Y0.7371
N8420 X1.9192 Y0.6968
N8425 X1.8861 Y0.6555
N8430 X1.854 Y0.6135
N8435 X1.823 Y0.5707
N8440 X1.7931 Y0.5272
N8445 X1.7642 Y0.4829
N8450 X1.7365 Y0.438
N8455 X1.7098 Y0.3923
N8460 X1.6843 Y0.3461
N8465 X1.6599 Y0.2992
N8470 X1.6366 Y0.2518
N8475 X1.6145 Y0.2038
N8480 X1.5936 Y0.1553
N8485 X1.5739 Y0.1062
N8490 X1.5554 Y0.0567
N8495 X1.5381 Y0.0068
N8500 X1.5221 Y-0.0435
N8505 X1.5072 Y-0.0943
N8510 X1.4937 Y-0.1453
N8515 X1.4813 Y-0.1967
N8520 X1.4703 Y-0.2484
N8525 X1.4605 Y-0.3003
N8530 X1.4519 Y-0.3524
N8535 X1.4446 Y-0.4048
N8540 X1.4386 Y-0.4573
N8545 X1.4339 Y-0.5099
N8550 X1.4304 Y-0.5626
N8555 X1.4283 Y-0.6154
N8560 X1.4275 Y-0.6683
N8565 X1.4279 Y-0.7211
N8570 X1.4297 Y-0.7739
N8575 X1.4327 Y-0.8267
N8580 X1.437 Y-0.8793
N8585 X1.4425 Y-0.9319
N8590 X1.4494 Y-0.9843
N8595 X1.4575 Y-1.0365
N8600 X1.4669 Y-1.0885
N8605 X1.4775 Y-1.1403
N8610 X1.4894 Y-1.1917
N8615 X1.5026 Y-1.2429
N8620 X1.517 Y-1.2938
N8625 X1.5327 Y-1.3442
N8630 X1.5495 Y-1.3943
N8635 X1.5676 Y-1.444
N8640 X1.5869 Y-1.4932
N8645 X1.6073 Y-1.5419
N8650 X1.6289 Y-1.5901
N8655 X1.6517 Y-1.6378
N8660 X1.6756 Y-1.6849
N8665 X1.7007 Y-1.7314
N8670 X1.727 Y-1.7773
N8675 X1.7543 Y-1.8225
N8680 X1.7827 Y-1.867
N8685 X1.8122 Y-1.9109
N8690 X1.8428 Y-1.954
N8695 X1.8743 Y-1.9964
N8700 X1.9069 Y-2.0379
N8705 X1.9405 Y-2.0787
N8710 X1.9751 Y-2.1187
N8715 X2.0106 Y-2.1578
N8720 X2.0471 Y-2.196
N8725 X2.0845 Y-2.2334
N8730 X2.1228 Y-2.2698
N8735 X2.162 Y-2.3052
N8740 X2.202 Y-2.3397
N8745 X2.2428 Y-2.3733
N8750 X2.2845 Y-2.4058
N8755 X2.3269 Y-2.4373
N8760 X2.3701 Y-2.4678
N8765 X2.4139 Y-2.4972
N8770 X2.4585 Y-2.5256
N8775 X2.5038 Y-2.5528
N8780 X2.5497 Y-2.5789
N8785 X2.5963 Y-2.6039
N8790 X2.6434 Y-2.6278
N8795 X2.6911 Y-2.6505
N8800 X2.7394 Y-2.6721
N8805 X2.7881 Y-2.6925
N8810 X2.8374 Y-2.7117
N8815 X2.887 Y-2.7297
N8820 X2.9371 Y-2.7465
N8825 X2.9876 Y-2.7621
N8830 X3.0385 Y-2.7764
N8835 X3.0897 Y-2.7895
N8840 X3.1412 Y-2.8014
N8845 X3.1929 Y-2.8119
N8850 X3.2449 Y-2.8213
N8855 X3.2972 Y-2.8294
N8860 X3.3496 Y-2.8362
N8865 X3.4021 Y-2.8417
N8870 X3.4548 Y-2.846
N8875 X3.5075 Y-2.849
N8880 X3.5604 Y-2.8507
N8885 X3.6132 Y-2.8512
N8890 X3.666 Y-2.8504
N8895 X3.7188 Y-2.8482
N8900 X3.7716 Y-2.8448
N8905 X3.8242 Y-2.8402
N8910 X3.8767 Y-2.8342
N8915 X3.929 Y-2.827
N8920 X3.9812 Y-2.8186
N8925 X4.0331 Y-2.8089
N8930 X4.0848 Y-2.798
N8935 X4.1363 Y-2.7858
N8940 X4.1874 Y-2.7724
N8945 X4.2382 Y-2.7578
N8950 X4.2886 Y-2.742
N8955 X4.3386 Y-2.7249
N8960 X4.3882 Y-2.7067
N8965 X4.4373 Y-2.6873
N8970 X4.486 Y-2.6667
N8975 X4.5342 Y-2.645
N8980 X4.5818 Y-2.6221
N8985 X4.6289 Y-2.5982
N8990 X4.6754 Y-2.5731
N8995 X4.7213 Y-2.5469
N9000 X4.7666 Y-2.5197
N9005 X4.8112 Y-2.4914
N9010 X4.8552 Y-2.462
N9015 X4.8984 Y-2.4317
N9020 X4.9409 Y-2.4003
N9025 X4.9827 Y-2.3679
N9030 X5.0236 Y-2.3345
N9035 X5.0638 Y-2.3002
N9040 X5.1032 Y-2.265
N9045 X5.1418 Y-2.2288
N9050 X5.1795 Y-2.1918
N9055 X5.2163 Y-2.1539
N9060 X5.2522 Y-2.1152
N9065 X5.2872 Y-2.0756
N9070 X5.3213 Y-2.0352
N9075 X5.3544 Y-1.994
N9080 X5.3866 Y-1.9521
N9085 X5.4177 Y-1.9094
N9090 X5.4479 Y-1.866
N9095 X5.477 Y-1.822
N9100 X5.5052 Y-1.7772
N9105 X5.5322 Y-1.7319
N9110 X5.5583 Y-1.6859
N9115 X5.5832 Y-1.6393
N9120 X5.6071 Y-1.5921
N9125 X5.6298 Y-1.5444
N9130 X5.6514 Y-1.4962
N9135 X5.6719 Y-1.4475
N9140 X5.6913 Y-1.3984
N9145 X5.7095 Y-1.3487
N9150 X5.7265 Y-1.2987
N9155 X5.7424 Y-1.2483
N9160 X5.7571 Y-1.1976
N9165 X5.7706 Y-1.1465
N9170 X5.7829 Y-1.0951
N9175 X5.7941 Y-1.0435
N9180 X5.804 Y-0.9916
N9185 X5.8127 Y-0.9394
N9190 X5.8202 Y-0.8871
N9195 X5.8264 Y-0.8347
N9200 X5.8315 Y-0.7821
N9205 X5.8353 Y-0.7294
N9210 X5.8378 Y-0.6766
N9215 X5.8391 Y-0.6238
N9220 X5.8392 Y-0.5709
N9225 X5.8381 Y-0.5181
N9230 X5.8357 Y-0.4653
N9235 X5.8321 Y-0.4126
N9240 X5.8273 Y-0.36
N9245 X5.8212 Y-0.3075
N9250 X5.8139 Y-0.2551
N9255 X5.8054 Y-0.203
N9260 X5.7956 Y-0.1511
N9265 X5.7847 Y-0.0994
N9270 X5.7725 Y-0.0479
N9275 X5.7591 Y0.0032
N9280 X5.7446 Y0.054
N9285 X5.7288 Y0.1044
N9290 X5.7119 Y0.1545
N9295 X5.6938 Y0.2041
N9300 X5.6746 Y0.2533
N9305 X5.6541 Y0.3021
N9310 X5.6326 Y0.3503
N9315 X5.6099 Y0.398
N9320 X5.5861 Y0.4452
N9325 X5.5612 Y0.4918
N9330 X5.5353 Y0.5379
N9335 X5.5082 Y0.5832
N9340 X5.4801 Y0.628
N9345 X5.451 Y0.6721
N9350 X5.4209 Y0.7155
N9355 X5.3897 Y0.7582
N9360 X5.3575 Y0.8001
N9365 X5.3244 Y0.8413
N9370 X5.2903 Y0.8816
N9375 X5.2553 Y0.9212
N9380 X5.2194 Y0.9599
N9385 X5.1825 Y0.9978
N9390 X5.1448 Y1.0348
N9395 X5.1062 Y1.0709
N9400 X5.0668 Y1.1062
N9405 X5.0266 Y1.1404
N9410 X4.9857 Y1.1738
N9415 X4.9439 Y1.2062
N9420 X4.9014 Y1.2376
N9425 X4.8582 Y1.268
N9430 X4.8143 Y1.2974
N9435 X4.7697 Y1.3257
N9440 X4.7244 Y1.353
N9445 X4.6785 Y1.3792
N9450 X4.6321 Y1.4044
N9455 X4.585 Y1.4285
N9460 X4.5375 Y1.4515
N9465 X4.4894 Y1.4733
N9470 X4.4408 Y1.4941
N9475 X4.3917 Y1.5137
N9480 X4.3422 Y1.5322
N9485 X4.2923 Y1.5495
N9490 X4.242 Y1.5657
N9495 X4.1913 Y1.5807
N9500 X4.1403 Y1.5945
N9505 X4.089 Y1.6072
N9510 X4.0374 Y1.6186
N9515 X3.9856 Y1.6289
N9520 X3.9335 Y1.6379
N9525 X3.8813 Y1.6458
N9530 X3.8289 Y1.6525
N9535 X3.7763 Y1.6579
N9540 X3.7236 Y1.6621
N9545 X3.6709 Y1.6652
N9550 X3.6181 Y1.667
N9555 X3.5652 Y1.6676
N9560 X3.5124 Y1.6669
N9565 X3.4596 Y1.6651
N9570 X3.4068 Y1.662
N9575 X3.3542 Y1.6578
N9580 X3.3016 Y1.6523
N9585 X3.2492 Y1.6457
N9590 X3.1969 Y1.6378
N9595 X3.1449 Y1.6288
N9600 X3.093 Y1.6185
N9605 X3.0414 Y1.6071
N9610 X2.9901 Y1.5945
N9615 X2.9391 Y1.5807
N9620 X2.8884 Y1.5658
N9625 X2.8381 Y1.5497
N9630 X2.7881 Y1.5325
N9635 X2.7386 Y1.5141
N9640 X2.6895 Y1.4947
N9645 X2.6408 Y1.4741
N9650 X2.5926 Y1.4524
N9655 X2.5449 Y1.4296
N9660 X2.4978 Y1.4058
N9665 X2.4512 Y1.3808
N9670 X2.4052 Y1.3549
N9675 X2.3598 Y1.3278
N9680 X2.315 Y1.2998
N9685 X2.2708 Y1.2708
N9690 X2.2274 Y1.2407
N9695 X2.1846 Y1.2097
N9700 X2.1425 Y1.1777
N9705 X2.1012 Y1.1448
N9710 X2.0606 Y1.111
N9715 X2.0208 Y1.0762
N9720 X1.9818 Y1.0406
N9725 X1.9436 Y1.0041
N9730 X1.9062 Y0.9667
N9735 X1.8697 Y0.9285
N9740 X1.8341 Y0.8895
N9745 X1.7993 Y0.8497
N9750 X1.7655 Y0.8091
N9755 X1.7326 Y0.7678
N9760 X1.7006 Y0.7257
N9765 X1.6696 Y0.6829
N9770 X1.6395 Y0.6394
N9775 X1.6105 Y0.5953
N9780 X1.5824 Y0.5506
N9785 X1.5553 Y0.5052
N9790 X1.5293 Y0.4592
N9795 X1.5044 Y0.4126
N9800 X1.4804 Y0.3655
N9805 X1.4576 Y0.3178
N9810 X1.4358 Y0.2697
N9815 X1.4151 Y0.2211
N9820 X1.3955 Y0.172
N9825 X1.377 Y0.1225
N9830 X1.3597 Y0.0726
N9835 X1.3434 Y0.0223
N9840 X1.3283 Y-0.0283
N9845 X1.3143 Y-0.0793
N9850 X1.3015 Y-0.1305
N9855 X1.2898 Y-0.1821
N9860 X1.2793 Y-0.2339
N9865 X1.27 Y-0.2859
N9870 X1.2618 Y-0.3381
N9875 X1.2548 Y-0.3904
N9880 X1.249 Y-0.443
N9885 X1.2443 Y-0.4956
N9890 X1.2408 Y-0.5483
N9895 X1.2385 Y-0.6011
N9900 X1.2374 Y-0.6539
N9905 X1.2375 Y-0.7068
N9910 X1.2388 Y-0.7596
N9915 X1.2412 Y-0.8124
N9920 X1.2448 Y-0.8651
N9925 X1.2496 Y-0.9177
N9930 X1.2556 Y-0.9702
N9935 X1.2628 Y-1.0226
N9940 X1.2711 Y-1.0748
N9945 X1.2806 Y-1.1267
N9950 X1.2913 Y-1.1785
N9955 X1.3031 Y-1.23
N9960 X1.316 Y-1.2812
N9965 X1.3301 Y-1.3322
N9970 X1.3453 Y-1.3828
N9975 X1.3617 Y-1.433
N9980 X1.3792 Y-1.4829
N9985 X1.3978 Y-1.5323
N9990 X1.4175 Y-1.5814
N9995 X1.4382 Y-1.6299
N10000 X1.4601 Y-1.6781
N10005 X1.483 Y-1.7257
N10010 X1.507 Y-1.7727
N10015 X1.5321 Y-1.8193
N10020 X1.5581 Y-1.8652
N10025 X1.5852 Y-1.9106
N10030 X1.6133 Y-1.9554
N10035 X1.6424 Y-1.9995
N10040 X1.6725 Y-2.0429
N10045 X1.7035 Y-2.0857
N10050 X1.7355 Y-2.1278
N10055 X1.7684 Y-2.1691
N10060 X1.8022 Y-2.2097
N10065 X1.8369 Y-2.2495
N10070 X1.8726 Y-2.2886
N10075 X1.909 Y-2.3268
N10080 X1.9463 Y-2.3642
N10085 X1.9845 Y-2.4008
N10090 X2.0234 Y-2.4365
N10095 X2.0631 Y-2.4714
N10100 X2.1036 Y-2.5053
N10105 X2.1449 Y-2.5383
N10110 X2.1869 Y-2.5704
N10115 X2.2295 Y-2.6016
N10120 X2.2729 Y-2.6317
N10125 X2.3169 Y-2.661
N10130 X2.3616 Y-2.6892
N10135 X2.4069 Y-2.7164
N10140 X2.4528 Y-2.7426
N10145 X2.4992 Y-2.7678
N10150 X2.5463 Y-2.7919
N10155 X2.5938 Y-2.815
N10160 X2.6418 Y-2.837
N10165 X2.6903 Y-2.8579
N10170 X2.7393 Y-2.8778
N10175 X2.7887 Y-2.8965
N10180 X2.8385 Y-2.9141
N10185 X2.8887 Y-2.9307
N10190 X2.9393 Y-2.946
N10195 X2.9902 Y-2.9603
N10200 X3.0413 Y-2.9734
N10205 X3.0928 Y-2.9854
N10210 X3.1445 Y-2.9963
N10215 X3.1965 Y-3.006
N10220 X3.2486 Y-3.0145
N10225 X3.3009 Y-3.0218
N10230 X3.3534 Y-3.028
N10235 X3.406 Y-3.033
N10240 X3.4587 Y-3.0369
N10245 X3.5115 Y-3.0395
N10250 X3.5643 Y-3.041
N10255 X3.6172 Y-3.0413
N10260 X3.67 Y-3.0405
N10265 X3.7228 Y-3.0385
N10270 X3.7755 Y-3.0353
N10275 X3.8282 Y-3.0309
N10280 X3.8808 Y-3.0254
N10285 X3.9332 Y-3.0187
N10290 X3.9854 Y-3.0108
N10295 X4.0375 Y-3.0018
N10300 X4.0893 Y-2.9917
N10305 X4.141 Y-2.9803
N10310 X4.1923 Y-2.9679
N10315 X4.2434 Y-2.9543
N10320 X4.2941 Y-2.9396
N10325 X4.3446 Y-2.9238
N10330 X4.3946 Y-2.9069
N10335 X4.4443 Y-2.889
N10340 X4.4936 Y-2.8699
N10345 X4.5424 Y-2.8497
N10350 X4.5908 Y-2.8285
N10355 X4.6387 Y-2.8062
N10360 X4.6861 Y-2.7829
N10365 X4.733 Y-2.7585
N10370 X4.7794 Y-2.7331
N10375 X4.8252 Y-2.7067
N10380 X4.8704 Y-2.6794
N10385 X4.915 Y-2.651
N10390 X4.9589 Y-2.6217
N10395 X5.0023 Y-2.5915
N10400 X5.0449 Y-2.5603
N10405 X5.0869 Y-2.5282
N10410 X5.1282 Y-2.4952
N10415 X5.1687 Y-2.4613
N10420 X5.2085 Y-2.4266
N10425 X5.2476 Y-2.391
N10430 X5.2858 Y-2.3545
N10435 X5.3233 Y-2.3173
N10440 X5.36 Y-2.2792
N10445 X5.3958 Y-2.2404
N10450 X5.4308 Y-2.2008
N10455 X5.4649 Y-2.1605
N10460 X5.4982 Y-2.1194
N10465 X5.5306 Y-2.0776
N10470 X5.562 Y-2.0352
N10475 X5.5926 Y-1.9921
N10480 X5.6222 Y-1.9483
N10485 X5.6508 Y-1.9039
N10490 X5.6785 Y-1.8589
N10495 X5.7052 Y-1.8133
N10500 X5.731 Y-1.7672
N10505 X5.7557 Y-1.7205
N10510 X5.7795 Y-1.6733
N10515 X5.8022 Y-1.6256
N10520 X5.8239 Y-1.5774
N10525 X5.8446 Y-1.5288
N10530 X5.8642 Y-1.4797
N10535 X5.8827 Y-1.4302
N10540 X5.9002 Y-1.3804
N10545 X5.9166 Y-1.3301
N10550 X5.9319 Y-1.2796
N10555 X5.9461 Y-1.2287
N10560 X5.9593 Y-1.1775
N10565 X5.9713 Y-1.126
N10570 X5.9822 Y-1.0743
N10575 X5.992 Y-1.0224
N10580 X6.0007 Y-0.9703
N10585 X6.0083 Y-0.918
N10590 X6.0147 Y-0.8655
N10595 X6.02 Y-0.813
N10600 X6.0242 Y-0.7603
N10605 X6.0272 Y-0.7075
N10610 X6.0291 Y-0.6547
N10615 X6.0299 Y-0.6019
N10620 X6.0295 Y-0.5491
N10625 X6.0279 Y-0.4962
N10630 X6.0253 Y-0.4435
N10635 X6.0215 Y-0.3908
N10640 X6.0165 Y-0.3381
N10645 X6.0105 Y-0.2857
N10650 X6.0033 Y-0.2333
N10655 X5.9949 Y-0.1811
N10660 X5.9855 Y-0.1291
N10665 X5.9749 Y-0.0774
N10670 X5.9632 Y-0.0258
N10675 X5.9504 Y0.0254
N10680 X5.9365 Y0.0764
N10685 X5.9215 Y0.1271
N10690 X5.9053 Y0.1774
N10695 X5.8882 Y0.2273
N10700 X5.8699 Y0.2769
N10705 X5.8506 Y0.3261
N10710 X5.8302 Y0.3749
N10715 X5.8087 Y0.4232
N10720 X5.7863 Y0.471
N10725 X5.7628 Y0.5183
N10730 X5.7383 Y0.5651
N10735 X5.7127 Y0.6114
N10740 X5.6862 Y0.6571
N10745 X5.6587 Y0.7022
N10750 X5.6302 Y0.7467
N10755 X5.6008 Y0.7906
N10760 X5.5704 Y0.8338
N10765 X5.5391 Y0.8764
N10770 X5.5069 Y0.9183
N10775 X5.4738 Y0.9595
N10780 X5.4398 Y0.9999
N10785 X5.405 Y1.0397
N10790 X5.3693 Y1.0786
N10795 X5.3328 Y1.1168
N10800 X5.2954 Y1.1542
N10805 X5.2573 Y1.1908
N10810 X5.2183 Y1.2265
N10815 X5.1786 Y1.2614
N10820 X5.1382 Y1.2954
N10825 X5.0971 Y1.3286
N10830 X5.0552 Y1.3608
N10835 X5.0127 Y1.3922
N10840 X4.9695 Y1.4226
N10845 X4.9257 Y1.4521
N10850 X4.8812 Y1.4807
N10855 X4.8362 Y1.5083
N10860 X4.7905 Y1.5349
N10865 X4.7443 Y1.5605
N10870 X4.6975 Y1.5852
N10875 X4.6503 Y1.6088
N10880 X4.6025 Y1.6314
N10885 X4.5543 Y1.653
N10890 X4.5056 Y1.6735
N10895 X4.4565 Y1.693
N10900 X4.407 Y1.7114
N10905 X4.3571 Y1.7288
N10910 X4.3068 Y1.7451
N10915 X4.2562 Y1.7604
N10920 X4.2053 Y1.7745
N10925 X4.1541 Y1.7876
N10930 X4.1026 Y1.7996
N10935 X4.0509 Y1.8104
N10940 X3.999 Y1.8202
N10945 X3.9469 Y1.8288
N10950 X3.8946 Y1.8364
N10955 X3.8421 Y1.8428
N10960 X3.7895 Y1.8481
N10965 X3.7369 Y1.8523
N10970 X3.6841 Y1.8554
N10975 X3.6313 Y1.8573
N10980 X3.5785 Y1.8582
N10985 X3.5256 Y1.8579
N10990 X3.4728 Y1.8565
N10995 X3.42 Y1.854
N11000 X3.3673 Y1.8503
N11005 X3.3147 Y1.8455
N11010 X3.2622 Y1.8397
N11015 X3.2098 Y1.8327
N11020 X3.1576 Y1.8246
N11025 X3.1055 Y1.8154
N11030 X3.0537 Y1.8051
N11035 X3.0021 Y1.7937
N11040 X2.9508 Y1.7813
N11045 X2.8997 Y1.7677
N11050 X2.8489 Y1.7531
N11055 X2.7984 Y1.7374
N11060 X2.7483 Y1.7207
N11065 X2.6986 Y1.7029
N11070 X2.6492 Y1.684
N11075 X2.6003 Y1.6642
N11080 X2.5517 Y1.6433
N11085 X2.5036 Y1.6213
N11090 X2.456 Y1.5984
N11095 X2.4089 Y1.5745
N11100 X2.3623 Y1.5496
N11105 X2.3162 Y1.5238
N11110 X2.2707 Y1.4969
N11115 X2.2257 Y1.4692
N11120 X2.1814 Y1.4405
N11125 X2.1376 Y1.4108
N11130 X2.0945 Y1.3803
N11135 X2.0521 Y1.3488
N11140 X2.0103 Y1.3165
N11145 X1.9692 Y1.2833
N11150 X1.9287 Y1.2492
N11155 X1.8891 Y1.2144
N11160 X1.8501 Y1.1786
N11165 X1.8119 Y1.1421
N11170 X1.7745 Y1.1048
N11175 X1.7378 Y1.0668
N11180 X1.702 Y1.028
N11185 X1.6669 Y0.9884
N11190 X1.6327 Y0.9481
N11195 X1.5994 Y0.9071
N11200 X1.5669 Y0.8654
N11205 X1.5353 Y0.8231
N11210 X1.5046 Y0.7801
N11215 X1.4748 Y0.7364
N11220 X1.4459 Y0.6922
N11225 X1.418 Y0.6474
N11230 X1.3909 Y0.602
N11235 X1.3649 Y0.556
N11240 X1.3397 Y0.5095
N11245 X1.3156 Y0.4625
N11250 X1.2924 Y0.415
N11255 X1.2702 Y0.3671
N11260 X1.2491 Y0.3187
N11265 X1.2289 Y0.2698
N11270 X1.2098 Y0.2206
N11275 X1.1917 Y0.1709
N11280 X1.1746 Y0.1209
N11285 X1.1586 Y0.0706
N11290 X1.1436 Y0.0199
N11295 X1.1297 Y-0.0311
N11300 X1.1168 Y-0.0823
N11305 X1.105 Y-0.1338
N11310 X1.0943 Y-0.1856
N11315 X1.0846 Y-0.2375
N11320 X1.076 Y-0.2897
N11325 X1.0685 Y-0.342
N11330 X1.0621 Y-0.3944
N11335 X1.0568 Y-0.447
N11340 X1.0526 Y-0.4997
N11345 X1.0495 Y-0.5524
N11350 X1.0475 Y-0.6052
N11355 X1.0465 Y-0.6581
N11360 X1.0467 Y-0.7109
N11365 X1.0479 Y-0.7637
N11370 X1.0503 Y-0.8165
N11375 X1.0537 Y-0.8692
N11380 X1.0582 Y-0.9219
N11385 X1.0638 Y-0.9744
N11390 X1.0705 Y-1.0268
N11395 X1.0783 Y-1.0791
N11400 X1.0872 Y-1.1312
N11405 X1.0972 Y-1.1831
N11410 X1.1082 Y-1.2348
N11415 X1.1203 Y-1.2862
N11420 X1.1334 Y-1.3374
N11425 X1.1477 Y-1.3883
N11430 X1.1629 Y-1.4389
N11435 X1.1792 Y-1.4891
N11440 X1.1965 Y-1.5391
N11445 X1.2149 Y-1.5886
N11450 X1.2342 Y-1.6378
N11455 X1.2546 Y-1.6865
N11460 X1.276 Y-1.7348
N11465 X1.2984 Y-1.7827
N11470 X1.3218 Y-1.8301
N11475 X1.3462 Y-1.877
N11480 X1.3715 Y-1.9233
N11485 X1.3978 Y-1.9692
N11490 X1.425 Y-2.0145
N11495 X1.4532 Y-2.0592
N11500 X1.4822 Y-2.1033
N11505 X1.5122 Y-2.1469
N11510 X1.543 Y-2.1898
N11515 X1.5748 Y-2.232
N11520 X1.6074 Y-2.2736
N11525 X1.6408 Y-2.3145
N11530 X1.6751 Y-2.3547
N11535 X1.7103 Y-2.3941
N11540 X1.7462 Y-2.4329
N11545 X1.7829 Y-2.4709
N11550 X1.8204 Y-2.5081
N11555 X1.8587 Y-2.5445
N11560 X1.8977 Y-2.5802
N11565 X1.9374 Y-2.615
N11570 X1.9779 Y-2.649
N11575 X2.019 Y-2.6822
N11580 X2.0608 Y-2.7145
N11585 X2.1033 Y-2.7459
N11590 X2.1464 Y-2.7765
N11595 X2.1901 Y-2.8061
N11600 X2.2345 Y-2.8349
N11605 X2.2794 Y-2.8627
N11610 X2.3249 Y-2.8896
N11615 X2.371 Y-2.9155
N11620 X2.4175 Y-2.9405
N11625 X2.4646 Y-2.9645
N11630 X2.5121 Y-2.9875
N11635 X2.5602 Y-3.0096
N11640 X2.6086 Y-3.0306
N11645 X2.6575 Y-3.0507
N11650 X2.7068 Y-3.0698
N11655 X2.7565 Y-3.0878
N11660 X2.8065 Y-3.1048
N11665 X2.8569 Y-3.1207
N11670 X2.9076 Y-3.1356
N11675 X2.9586 Y-3.1494
N11680 X3.0098 Y-3.1622
N11685 X3.0614 Y-3.174
N11690 X3.1131 Y-3.1846
N11695 X3.1651 Y-3.1943
N11700 X3.2172 Y-3.2028
N11705 X3.2695 Y-3.2102
N11710 X3.322 Y-3.2166
N11715 X3.3746 Y-3.2219
N11720 X3.4272 Y-3.2262
N11725 X3.48 Y-3.2293
N11730 X3.5328 Y-3.2313
N11735 X3.5856 Y-3.2323
N11740 X3.6385 Y-3.2321
N11745 X3.6913 Y-3.2309
N11750 X3.7441 Y-3.2286
N11755 X3.7968 Y-3.2252
N11760 X3.8494 Y-3.2207
N11765 X3.902 Y-3.2151
N11770 X3.9544 Y-3.2085
N11775 X4.0067 Y-3.2008
N11780 X4.0588 Y-3.192
N11785 X4.1107 Y-3.1822
N11790 X4.1624 Y-3.1713
N11795 X4.2139 Y-3.1594
N11800 X4.2651 Y-3.1464
N11805 X4.3161 Y-3.1323
N11810 X4.3667 Y-3.1172
N11815 X4.417 Y-3.1011
N11820 X4.467 Y-3.084
N11825 X4.5166 Y-3.0658
N11830 X4.5659 Y-3.0467
N11835 X4.6147 Y-3.0265
N11840 X4.6632 Y-3.0054
N11845 X4.7112 Y-2.9833
N11850 X4.7587 Y-2.9602
N11855 X4.8058 Y-2.9362
N11860 X4.8523 Y-2.9112
N11865 X4.8984 Y-2.8853
N11870 X4.9439 Y-2.8584
N11875 X4.9888 Y-2.8307
N11880 X5.0332 Y-2.802
N11885 X5.077 Y-2.7725
N11890 X5.1202 Y-2.7421
N11895 X5.1628 Y-2.7108
N11900 X5.2048 Y-2.6786
N11905 X5.2461 Y-2.6457
N11910 X5.2867 Y-2.6119
N11915 X5.3267 Y-2.5773
N11920 X5.3659 Y-2.5419
N11925 X5.4044 Y-2.5058
N11930 X5.4422 Y-2.4689
N11935 X5.4793 Y-2.4312
N11940 X5.5156 Y-2.3928
N11945 X5.5511 Y-2.3536
N11950 X5.5858 Y-2.3138
N11955 X5.6197 Y-2.2733
N11960 X5.6528 Y-2.2321
N11965 X5.6851 Y-2.1902
N11970 X5.7165 Y-2.1478
N11975 X5.7471 Y-2.1047
N11980 X5.7768 Y-2.061
N11985 X5.8057 Y-2.0167
N11990 X5.8337 Y-1.9719
N11995 X5.8607 Y-1.9265
N12000 X5.8869 Y-1.8806
N12005 X5.9121 Y-1.8342
N12010 X5.9364 Y-1.7872
N12015 X5.9597 Y-1.7398
N12020 X5.9821 Y-1.692
N12025 X6.0036 Y-1.6437
N12030 X6.0241 Y-1.595
N12035 X6.0436 Y-1.5459
N12040 X6.0621 Y-1.4964
N12045 X6.0796 Y-1.4465
N12050 X6.0962 Y-1.3964
N12055 X6.1117 Y-1.3459
N12060 X6.1263 Y-1.2951
N12065 X6.1398 Y-1.244
N12070 X6.1523 Y-1.1926
N12075 X6.1637 Y-1.141
N12080 X6.1741 Y-1.0892
N12085 X6.1835 Y-1.0372
N12090 X6.1919 Y-0.9851
N12095 X6.1992 Y-0.9327
N12100 X6.2054 Y-0.8803
N12105 X6.2106 Y-0.8277
N12110 X6.2148 Y-0.775
N12115 X6.2179 Y-0.7223
N12120 X6.22 Y-0.6694
N12125 X6.221 Y-0.6166
N12130 X6.2209 Y-0.5638
N12135 X6.2198 Y-0.5109
N12140 X6.2176 Y-0.4582
N12145 X6.2144 Y-0.4054
N12150 X6.2101 Y-0.3527
N12155 X6.2047 Y-0.3002
N12160 X6.1983 Y-0.2477
N12165 X6.1909 Y-0.1954
N12170 X6.1824 Y-0.1433
N12175 X6.1728 Y-0.0913
N12180 X6.1623 Y-0.0395
N12185 X6.1507 Y0.012
N12190 X6.138 Y0.0633
N12195 X6.1244 Y0.1144
N12200 X6.1097 Y0.1652
N12205 X6.094 Y0.2156
N12210 X6.0773 Y0.2657
N12215 X6.0596 Y0.3155
N12220 X6.0409 Y0.3649
N12225 X6.0212 Y0.414
N12230 X6.0005 Y0.4626
N12235 X5.9788 Y0.5108
N12240 X5.9562 Y0.5586
N12245 X5.9327 Y0.6059
N12250 X5.9082 Y0.6527
N12255 X5.8828 Y0.699
N12260 X5.8564 Y0.7448
N12265 X5.8291 Y0.7901
N12270 X5.801 Y0.8348
N12275 X5.7719 Y0.8789
N12280 X5.742 Y0.9224
N12285 X5.7112 Y0.9654
N12290 X5.6795 Y1.0077
N12295 X5.647 Y1.0493
N12300 X5.6137 Y1.0903
N12305 X5.5795 Y1.1307
N12310 X5.5446 Y1.1703
N12315 X5.5089 Y1.2092
N12320 X5.4724 Y1.2474
N12325 X5.4351 Y1.2849
N12330 X5.3971 Y1.3217
N12335 X5.3584 Y1.3576
N12340 X5.319 Y1.3928
N12345 X5.2789 Y1.4272
N12350 X5.238 Y1.4607
N12355 X5.1966 Y1.4935
N12360 X5.1545 Y1.5254
N12365 X5.1117 Y1.5565
N12370 X5.0684 Y1.5867
N12375 X5.0244 Y1.616
N12380 X4.9799 Y1.6445
N12385 X4.9348 Y1.672
N12390 X4.8892 Y1.6987
N12395 X4.8431 Y1.7245
N12400 X4.7964 Y1.7493
N12405 X4.7493 Y1.7732
N12410 X4.7017 Y1.7962
N12415 X4.6537 Y1.8182
N12420 X4.6052 Y1.8392
N12425 X4.5563 Y1.8593
N12430 X4.507 Y1.8784
N12435 X4.4574 Y1.8965
N12440 X4.4074 Y1.9136
N12445 X4.3571 Y1.9298
N12450 X4.3065 Y1.9449
N12455 X4.2556 Y1.959
N12460 X4.2044 Y1.9722
N12465 X4.1529 Y1.9843
N12470 X4.1013 Y1.9954
N12475 X4.0494 Y2.0055
N12480 X3.9974 Y2.0145
N12485 X3.9451 Y2.0225
N12490 X3.8927 Y2.0295
N12495 X3.8402 Y2.0354
N12500 X3.7876 Y2.0403
N12505 X3.7349 Y2.0441
N12510 X3.6822 Y2.047
N12515 X3.6293 Y2.0487
N12520 X3.5765 Y2.0495
N12525 X3.5237 Y2.0492
N12530 X3.4708 Y2.0478
N12535 X3.4181 Y2.0454
N12540 X3.3653 Y2.042
N12545 X3.3127 Y2.0376
N12550 X3.2601 Y2.0321
N12555 X3.2077 Y2.0256
N12560 X3.1554 Y2.018
N12565 X3.1032 Y2.0094
N12570 X3.0513 Y1.9998
N12575 X2.9995 Y1.9892
N12580 X2.948 Y1.9776
N12585 X2.8967 Y1.9649
N12590 X2.8456 Y1.9513
N12595 X2.7948 Y1.9367
N12600 X2.7444 Y1.921
N12605 X2.6942 Y1.9044
N12610 X2.6444 Y1.8868
N12615 X2.5949 Y1.8683
N12620 X2.5458 Y1.8488
N12625 X2.4971 Y1.8283
N12630 X2.4488 Y1.8068
N12635 X2.4009 Y1.7845
N12640 X2.3535 Y1.7612
N12645 X2.3065 Y1.7369
N12650 X2.2601 Y1.7118
N12655 X2.2141 Y1.6858
N12660 X2.1686 Y1.6589
N12665 X2.1237 Y1.631
N12670 X2.0793 Y1.6024
N12675 X2.0355 Y1.5728
N12680 X1.9922 Y1.5425
N12685 X1.9496 Y1.5113
N12690 X1.9076 Y1.4792
N12695 X1.8662 Y1.4464
N12700 X1.8254 Y1.4127
N12705 X1.7854 Y1.3783
N12710 X1.746 Y1.3431
N12715 X1.7073 Y1.3071
N12720 X1.6693 Y1.2704
N12725 X1.632 Y1.2329
N12730 X1.5954 Y1.1948
N12735 X1.5596 Y1.1559
N12740 X1.5246 Y1.1164
N12745 X1.4903 Y1.0762
N12750 X1.4568 Y1.0353
N12755 X1.4241 Y0.9938
N12760 X1.3922 Y0.9516
N12765 X1.3612 Y0.9089
N12770 X1.331 Y0.8655
N12775 X1.3016 Y0.8216
N12780 X1.2731 Y0.7771
N12785 X1.2454 Y0.7321
N12790 X1.2187 Y0.6865
N12795 X1.1928 Y0.6405
N12800 X1.1678 Y0.5939
N12805 X1.1437 Y0.5469
N12810 X1.1205 Y0.4994
N12815 X1.0983 Y0.4515
N12820 X1.077 Y0.4031
N12825 X1.0566 Y0.3544
N12830 X1.0371 Y0.3052
N12835 X1.0186 Y0.2557
N12840 X1.0011 Y0.2059
N12845 X0.9846 Y0.1557
N12850 X0.969 Y0.1052
N12855 X0.9544 Y0.0544
N12860 X0.9408 Y0.0034
N12865 X0.9282 Y-0.0479
N12870 X0.9165 Y-0.0995
N12875 X0.9059 Y-0.1512
N12880 X0.8962 Y-0.2032
N12885 X0.8876 Y-0.2553
N12890 X0.88 Y-0.3076
N12895 X0.8733 Y-0.36
N12900 X0.8677 Y-0.4126
N12905 X0.8631 Y-0.4652
N12910 X0.8596 Y-0.5179
N12915 X0.857 Y-0.5707
N12920 X0.8555 Y-0.6235
N12925 X0.855 Y-0.6764
N12930 X0.8555 Y-0.7292
N12935 X0.857 Y-0.782
N12940 X0.8595 Y-0.8348
N12945 X0.8631 Y-0.8875
N12950 X0.8676 Y-0.9402
N12955 X0.8732 Y-0.9927
N12960 X0.8798 Y-1.0452
N12965 X0.8874 Y-1.0974
N12970 X0.896 Y-1.1496
N12975 X0.9056 Y-1.2015
N12980 X0.9162 Y-1.2533
N12985 X0.9278 Y-1.3049
N12990 X0.9404 Y-1.3562
N12995 X0.954 Y-1.4072
N13000 X0.9685 Y-1.458
N13005 X0.9841 Y-1.5085
N13010 X1.0006 Y-1.5587
N13015 X1.018 Y-1.6086
N13020 X1.0364 Y-1.6581
N13025 X1.0558 Y-1.7073
N13030 X1.0761 Y-1.7561
N13035 X1.0974 Y-1.8045
N13040 X1.1195 Y-1.8524
N13045 X1.1426 Y-1.9
N13050 X1.1666 Y-1.947
N13055 X1.1915 Y-1.9936
N13060 X1.2173 Y-2.0398
N13065 X1.244 Y-2.0854
N13070 X1.2716 Y-2.1305
N13075 X1.3 Y-2.175
N13080 X1.3292 Y-2.219
N13085 X1.3593 Y-2.2624
N13090 X1.3903 Y-2.3053
N13095 X1.422 Y-2.3475
N13100 X1.4546 Y-2.3891
N13105 X1.4879 Y-2.4301
N13110 X1.522 Y-2.4705
N13115 X1.5569 Y-2.5101
N13120 X1.5926 Y-2.5491
N13125 X1.629 Y-2.5874
N13130 X1.6661 Y-2.625
N13135 X1.704 Y-2.6619
N13140 X1.7426 Y-2.698
N13145 X1.7818 Y-2.7334
N13150 X1.8217 Y-2.768
N13155 X1.8623 Y-2.8019
N13160 X1.9035 Y-2.835
N13165 X1.9453 Y-2.8672
N13170 X1.9878 Y-2.8987
N13175 X2.0308 Y-2.9294
N13180 X2.0744 Y-2.9592
N13185 X2.1186 Y-2.9881
N13190 X2.1634 Y-3.0163
N13195 X2.2086 Y-3.0435
N13200 X2.2544 Y-3.0699
N13205 X2.3007 Y-3.0953
N13210 X2.3475 Y-3.1199
N13215 X2.3948 Y-3.1436
N13220 X2.4424 Y-3.1664
N13225 X2.4905 Y-3.1882
N13230 X2.5391 Y-3.2092
N13235 X2.588 Y-3.2291
N13240 X2.6373 Y-3.2482
N13245 X2.6869 Y-3.2663
N13250 X2.7369 Y-3.2834
N13255 X2.7872 Y-3.2996
N13260 X2.8378 Y-3.3149
N13265 X2.8887 Y-3.3291
N13270 X2.9398 Y-3.3423
N13275 X2.9912 Y-3.3546
N13280 X3.0429 Y-3.3659
N13285 X3.0947 Y-3.3762
N13290 X3.1467 Y-3.3854
N13295 X3.1989 Y-3.3937
N13300 X3.2512 Y-3.401
N13305 X3.3037 Y-3.4073
N13310 X3.3563 Y-3.4126
N13315 X3.4089 Y-3.4169
N13320 X3.4617 Y-3.4201
N13325 X3.5145 Y-3.4224
N13330 X3.5673 Y-3.4236
N13335 X3.6201 Y-3.4239
N13340 X3.673 Y-3.4231
N13345 X3.7258 Y-3.4213
N13350 X3.7785 Y-3.4185
N13355 X3.8312 Y-3.4146
N13360 X3.8839 Y-3.4098
N13365 X3.9364 Y-3.404
N13370 X3.9888 Y-3.3971
N13375 X4.041 Y-3.3893
N13380 X4.0931 Y-3.3805
N13385 X4.1451 Y-3.3707
N13390 X4.1968 Y-3.3599
N13395 X4.2483 Y-3.3481
N13400 X4.2996 Y-3.3354
N13405 X4.3506 Y-3.3217
N13410 X4.4014 Y-3.307
N13415 X4.4518 Y-3.2913
N13420 X4.502 Y-3.2747
N13425 X4.5518 Y-3.2571
N13430 X4.6013 Y-3.2386
N13435 X4.6505 Y-3.2192
N13440 X4.6992 Y-3.1988
N13445 X4.7476 Y-3.1776
N13450 X4.7955 Y-3.1554
N13455 X4.8431 Y-3.1323
N13460 X4.8902 Y-3.1083
N13465 X4.9368 Y-3.0835
N13470 X4.983 Y-3.0577
N13475 X5.0286 Y-3.0312
N13480 X5.0738 Y-3.0037
N13485 X5.1184 Y-2.9754
N13490 X5.1625 Y-2.9463
N13495 X5.206 Y-2.9163
N13500 X5.249 Y-2.8856
N13505 X5.2913 Y-2.854
N13510 X5.3331 Y-2.8216
N13515 X5.3743 Y-2.7885
N13520 X5.4148 Y-2.7546
N13525 X5.4547 Y-2.72
N13530 X5.494 Y-2.6846
N13535 X5.5326 Y-2.6485
N13540 X5.5705 Y-2.6117
N13545 X5.6077 Y-2.5742
N13550 X5.6442 Y-2.536
N13555 X5.68 Y-2.4971
N13560 X5.7151 Y-2.4576
N13565 X5.7494 Y-2.4174
N13570 X5.7829 Y-2.3766
N13575 X5.8157 Y-2.3351
N13580 X5.8477 Y-2.2931
N13585 X5.8789 Y-2.2505
N13590 X5.9094 Y-2.2073
N13595 X5.939 Y-2.1635
N13600 X5.9678 Y-2.1192
N13605 X5.9958 Y-2.0744
N13610 X6.0229 Y-2.029
N13615 X6.0492 Y-1.9832
N13620 X6.0747 Y-1.9369
N13625 X6.0992 Y-1.8901
N13630 X6.1229 Y-1.8429
N13635 X6.1458 Y-1.7952
N13640 X6.1677 Y-1.7471
N13645 X6.1887 Y-1.6987
N13650 X6.2088 Y-1.6498
N13655 X6.228 Y-1.6006
N13660 X6.2463 Y-1.551
N13665 X6.2637 Y-1.5011
N13670 X6.2801 Y-1.4509
N13675 X6.2956 Y-1.4004
N13680 X6.3102 Y-1.3496
N13685 X6.3238 Y-1.2985
N13690 X6.3364 Y-1.2472
N13695 X6.3481 Y-1.1957
N13700 X6.3589 Y-1.1439
N13705 X6.3687 Y-1.092
N13710 X6.3775 Y-1.0399
N13715 X6.3853 Y-0.9877
N13720 X6.3922 Y-0.9353
N13725 X6.398 Y-0.8828
N13730 X6.4029 Y-0.8301
N13735 X6.4068 Y-0.7774
N13740 X6.4098 Y-0.7247
N13745 X6.4117 Y-0.6719
N13750 X6.4127 Y-0.619
N13755 Y-0.5662
N13760 X6.4117 Y-0.5134
N13765 X6.4097 Y-0.4606
N13770 X6.4068 Y-0.4078
N13775 X6.4028 Y-0.3551
N13780 X6.3979 Y-0.3025
N13785 X6.392 Y-0.25
N13790 X6.385 Y-0.1976
N13795 X6.3772 Y-0.1454
N13800 X6.3683 Y-0.0933
N13805 X6.3585 Y-0.0414
N13810 X6.3477 Y0.0104
N13815 X6.3359 Y0.0619
N13820 X6.3232 Y0.1132
N13825 X6.3095 Y0.1642
N13830 X6.2949 Y0.215
N13835 X6.2794 Y0.2655
N13840 X6.2629 Y0.3157
N13845 X6.2454 Y0.3656
N13850 X6.2271 Y0.4151
N13855 X6.2078 Y0.4643
N13860 X6.1875 Y0.5131
N13865 X6.1664 Y0.5616
N13870 X6.1444 Y0.6096
N13875 X6.1215 Y0.6572
N13880 X6.0976 Y0.7044
N13885 X6.073 Y0.7511
N13890 X6.0474 Y0.7973
N13895 X6.021 Y0.8431
N13900 X5.9938 Y0.8884
N13905 X5.9657 Y0.9331
N13910 X5.9367 Y0.9774
N13915 X5.907 Y1.021
N13920 X5.8765 Y1.0642
N13925 X5.8451 Y1.1067
N13930 X5.813 Y1.1486
N13935 X5.78 Y1.1899
N13940 X5.7463 Y1.2306
N13945 X5.7119 Y1.2707
N13950 X5.6767 Y1.3101
N13955 X5.6408 Y1.3489
N13960 X5.6041 Y1.387
N13965 X5.5668 Y1.4244
N13970 X5.5288 Y1.4611
N13975 X5.4901 Y1.497
N13980 X5.4507 Y1.5323
N13985 X5.4107 Y1.5668
N13990 X5.3701 Y1.6006
N13995 X5.3288 Y1.6336
N14000 X5.2869 Y1.6658
N14005 X5.2445 Y1.6973
N14010 X5.2014 Y1.7279
N14015 X5.1578 Y1.7577
N14020 X5.1136 Y1.7868
N14025 X5.069 Y1.8149
N14030 X5.0237 Y1.8423
N14035 X4.978 Y1.8688
N14040 X4.9319 Y1.8945
N14045 X4.8852 Y1.9193
N14050 X4.8381 Y1.9432
N14055 X4.7906 Y1.9663
N14060 X4.7426 Y1.9885
N14065 X4.6942 Y2.0098
N14070 X4.6455 Y2.0302
N14075 X4.5964 Y2.0497
N14080 X4.5469 Y2.0682
N14085 X4.4971 Y2.0858
N14090 X4.447 Y2.1026
N14095 X4.3965 Y2.1183
N14100 X4.3458 Y2.1332
N14105 X4.2948 Y2.1471
N14110 X4.2436 Y2.1601
N14115 X4.1922 Y2.1721
N14120 X4.1405 Y2.1832
N14125 X4.0886 Y2.1933
N14130 X4.0366 Y2.2024
N14135 X3.9844 Y2.2106
N14140 X3.932 Y2.2179
N14145 X3.8796 Y2.2242
N14150 X3.827 Y2.2295
N14155 X3.7743 Y2.2338
N14160 X3.7216 Y2.2371
N14165 X3.6688 Y2.2395
N14170 X3.616 Y2.2409
N14175 X3.5632 Y2.2414
N14180 X3.5103 Y2.2408
N14185 X3.4575 Y2.2393
N14190 X3.4047 Y2.2369
N14195 X3.352 Y2.2334
N14200 X3.2993 Y2.229
N14205 X3.2468 Y2.2237
N14210 X3.1943 Y2.2174
N14215 X3.142 Y2.2101
N14220 X3.0898 Y2.2018
N14225 X3.0377 Y2.1926
N14230 X2.9859 Y2.1825
N14235 X2.9342 Y2.1714
N14240 X2.8828 Y2.1593
N14245 X2.8316 Y2.1463
N14250 X2.7806 Y2.1324
N14255 X2.7299 Y2.1175
N14260 X2.6794 Y2.1017
N14265 X2.6293 Y2.0851
N14270 X2.5795 Y2.0675
N14275 X2.53 Y2.0489
N14280 X2.4809 Y2.0295
N14285 X2.4321 Y2.0092
N14290 X2.3837 Y1.9881
N14295 X2.3356 Y1.966
N14300 X2.288 Y1.943
N14305 X2.2409 Y1.9192
N14310 X2.1941 Y1.8946
N14315 X2.1479 Y1.869
N14320 X2.1021 Y1.8427
N14325 X2.0568 Y1.8155
N14330 X2.012 Y1.7875
N14335 X1.9677 Y1.7587
N14340 X1.9239 Y1.7291
N14345 X1.8807 Y1.6987
N14350 X1.838 Y1.6675
N14355 X1.7959 Y1.6356
N14360 X1.7544 Y1.6028
N14365 X1.7135 Y1.5694
N14370 X1.6732 Y1.5352
N14375 X1.6336 Y1.5003
N14380 X1.5945 Y1.4647
N14385 X1.5562 Y1.4283
N14390 X1.5185 Y1.3913
N14395 X1.4815 Y1.3536
N14400 X1.4452 Y1.3152
N14405 X1.4095 Y1.2762
N14410 X1.3746 Y1.2365
N14415 X1.3404 Y1.1962
N14420 X1.307 Y1.1553
N14425 X1.2743 Y1.1138
N14430 X1.2423 Y1.0717
N14435 X1.2111 Y1.0291
N14440 X1.1807 Y0.9859
N14445 X1.1511 Y0.9421
N14450 X1.1222 Y0.8979
N14455 X1.0942 Y0.8531
N14460 X1.067 Y0.8077
N14465 X1.0406 Y0.762
N14470 X1.0151 Y0.7157
N14475 X0.9904 Y0.669
N14480 X0.9665 Y0.6218
N14485 X0.9435 Y0.5743
N14490 X0.9214 Y0.5263
N14495 X0.9001 Y0.4779
N14500 X0.8797 Y0.4292
N14505 X0.8602 Y0.3801
N14510 X0.8416 Y0.3306
N14515 X0.8238 Y0.2809
N14520 X0.807 Y0.2308
N14525 X0.7911 Y0.1804
N14530 X0.7761 Y0.1297
N14535 X0.762 Y0.0788
N14540 X0.7488 Y0.0276
N14545 X0.7366 Y-0.0238
N14550 X0.7253 Y-0.0754
N14555 X0.7149 Y-0.1272
N14560 X0.7055 Y-0.1792
N14565 X0.697 Y-0.2314
N14570 X0.6894 Y-0.2837
N14575 X0.6828 Y-0.3361
N14580 X0.6771 Y-0.3886
N14585 X0.6724 Y-0.4413
N14590 X0.6686 Y-0.494
N14595 X0.6658 Y-0.5467
N14600 X0.6639 Y-0.5995
N14605 X0.663 Y-0.6524
N14610 Y-0.7052
N14615 X0.664 Y-0.758
N14620 X0.666 Y-0.8108
N14625 X0.6689 Y-0.8636
N14630 X0.6727 Y-0.9163
N14635 X0.6775 Y-0.9689
N14640 X0.6832 Y-1.0215
N14645 X0.6899 Y-1.0739
N14650 X0.6975 Y-1.1262
N14655 X0.7061 Y-1.1783
N14660 X0.7156 Y-1.2303
N14665 X0.726 Y-1.2821
N14670 X0.7373 Y-1.3337
N14675 X0.7496 Y-1.3851
N14680 X0.7628 Y-1.4363
N14685 X0.7769 Y-1.4872
N14690 X0.792 Y-1.5378
N14695 X0.8079 Y-1.5882
N14700 X0.8248 Y-1.6383
N14705 X0.8426 Y-1.688
N14710 X0.8612 Y-1.7375
N14715 X0.8807 Y-1.7866
N14720 X0.9011 Y-1.8353
N14725 X0.9224 Y-1.8837
N14730 X0.9446 Y-1.9317
N14735 X0.9676 Y-1.9792
N14740 X0.9914 Y-2.0264
N14745 X1.0161 Y-2.0731
N14750 X1.0416 Y-2.1194
N14755 X1.068 Y-2.1652
N14760 X1.0952 Y-2.2105
N14765 X1.1232 Y-2.2553
N14770 X1.152 Y-2.2996
N14775 X1.1816 Y-2.3434
N14780 X1.212 Y-2.3866
N14785 X1.2431 Y-2.4293
N14790 X1.275 Y-2.4714
N14795 X1.3077 Y-2.5129
N14800 X1.3411 Y-2.5539
N14805 X1.3752 Y-2.5942
N14810 X1.41 Y-2.634
N14815 X1.4456 Y-2.6731
N14820 X1.4818 Y-2.7115
N14825 X1.5188 Y-2.7493
N14830 X1.5564 Y-2.7864
N14835 X1.5947 Y-2.8229
N14840 X1.6336 Y-2.8586
N14845 X1.6731 Y-2.8936
N14850 X1.7133 Y-2.9279
N14855 X1.7541 Y-2.9615
N14860 X1.7955 Y-2.9944
N14865 X1.8375 Y-3.0265
N14870 X1.88 Y-3.0578
N14875 X1.9231 Y-3.0884
N14880 X1.9668 Y-3.1182
N14885 X2.0109 Y-3.1472
N14890 X2.0556 Y-3.1754
N14895 X2.1008 Y-3.2028
N14900 X2.1464 Y-3.2294
N14905 X2.1926 Y-3.2552
N14910 X2.2391 Y-3.2801
N14915 X2.2862 Y-3.3042
N14920 X2.3336 Y-3.3274
N14925 X2.3815 Y-3.3498
N14930 X2.4298 Y-3.3713
N14935 X2.4784 Y-3.392
N14940 X2.5274 Y-3.4117
N14945 X2.5768 Y-3.4306
N14950 X2.6264 Y-3.4486
N14955 X2.6764 Y-3.4657
N14960 X2.7267 Y-3.482
N14965 X2.7773 Y-3.4973
N14970 X2.8281 Y-3.5117
N14975 X2.8792 Y-3.5251
N14980 X2.9306 Y-3.5377
N14985 X2.9821 Y-3.5494
N14990 X3.0338 Y-3.5601
N14995 X3.0858 Y-3.5698
N15000 X3.1379 Y-3.5787
N15005 X3.1901 Y-3.5866
N15010 X3.2425 Y-3.5935
N15015 X3.295 Y-3.5996
N15020 X3.3476 Y-3.6046
N15025 X3.4003 Y-3.6088
N15030 X3.453 Y-3.612
N15035 X3.5058 Y-3.6143
N15040 X3.5586 Y-3.6156
N15045 X3.6115 Y-3.616
N15050 X3.6643 Y-3.6154
N15055 X3.7171 Y-3.6139
N15060 X3.7699 Y-3.6114
N15065 X3.8226 Y-3.608
N15070 X3.8753 Y-3.6037
N15075 X3.9279 Y-3.5984
N15080 X3.9803 Y-3.5921
N15085 X4.0327 Y-3.5849
N15090 X4.0849 Y-3.5768
N15095 X4.137 Y-3.5678
N15100 X4.1889 Y-3.5579
N15105 X4.2406 Y-3.547
N15110 X4.2921 Y-3.5352
N15115 X4.3434 Y-3.5225
N15120 X4.3944 Y-3.5089
N15125 X4.4452 Y-3.4944
N15130 X4.4958 Y-3.479
N15135 X4.5461 Y-3.4627
N15140 X4.596 Y-3.4455
N15145 X4.6457 Y-3.4274
N15150 X4.695 Y-3.4084
N15155 X4.744 Y-3.3886
N15160 X4.7926 Y-3.3678
N15165 X4.8408 Y-3.3463
N15170 X4.8887 Y-3.3239
N15175 X4.9361 Y-3.3006
N15180 X4.9832 Y-3.2766
N15185 X5.0298 Y-3.2517
N15190 X5.0759 Y-3.226
N15195 X5.1216 Y-3.1994
N15200 X5.1669 Y-3.1721
N15205 X5.2116 Y-3.144
N15210 X5.2558 Y-3.1151
N15215 X5.2996 Y-3.0854
N15220 X5.3428 Y-3.055
N15225 X5.3854 Y-3.0238
N15230 X5.4275 Y-2.9919
N15235 X5.469 Y-2.9592
N15240 X5.51 Y-2.9258
N15245 X5.5504 Y-2.8917
N15250 X5.5901 Y-2.8569
N15255 X5.6293 Y-2.8214
N15260 X5.6678 Y-2.7852
N15265 X5.7057 Y-2.7484
N15270 X5.7429 Y-2.7109
N15275 X5.7795 Y-2.6728
N15280 X5.8154 Y-2.634
N15285 X5.8506 Y-2.5946
N15290 X5.8852 Y-2.5546
N15295 X5.919 Y-2.5141
N15300 X5.9521 Y-2.4729
N15305 X5.9845 Y-2.4311
N15310 X6.0161 Y-2.3888
N15315 X6.047 Y-2.346
N15320 X6.0772 Y-2.3026
N15325 X6.1066 Y-2.2587
N15330 X6.1352 Y-2.2142
N15335 X6.1631 Y-2.1693
N15340 X6.1902 Y-2.124
N15345 X6.2165 Y-2.0781
N15350 X6.2419 Y-2.0318
N15355 X6.2666 Y-1.9851
N15360 X6.2905 Y-1.938
N15365 X6.3135 Y-1.8904
N15370 X6.3357 Y-1.8424
N15375 X6.3571 Y-1.7941
N15380 X6.3776 Y-1.7454
N15385 X6.3972 Y-1.6964
N15390 X6.416 Y-1.647
N15395 X6.4339 Y-1.5973
N15400 X6.451 Y-1.5473
N15405 X6.4672 Y-1.497
N15410 X6.4825 Y-1.4464
N15415 X6.4969 Y-1.3956
N15420 X6.5105 Y-1.3445
N15425 X6.5231 Y-1.2932
N15430 X6.5349 Y-1.2417
N15435 X6.5458 Y-1.19
N15440 X6.5557 Y-1.1381
N15445 X6.5648 Y-1.086
N15450 X6.573 Y-1.0338
N15455 X6.5802 Y-0.9815
N15460 X6.5865 Y-0.929
N15465 X6.5919 Y-0.8764
N15470 X6.5964 Y-0.8238
N15475 X6.5999 Y-0.7711
N15480 X6.6025 Y-0.7183
N15485 X6.6042 Y-0.6655
N15490 X6.605 Y-0.6126
N15495 X6.6049 Y-0.5598
N15500 X6.6039 Y-0.507
N15505 X6.6019 Y-0.4542
N15510 X6.599 Y-0.4014
N15515 X6.5952 Y-0.3487
N15520 X6.5905 Y-0.2961
N15525 X6.5848 Y-0.2435
N15530 X6.5783 Y-0.1911
N15535 X6.5708 Y-0.1388
N15540 X6.5624 Y-0.0866
N15545 X6.553 Y-0.0346
N15550 X6.5428 Y0.0172
N15555 X6.5317 Y0.0689
N15560 X6.5196 Y0.1203
N15565 X6.5067 Y0.1716
N15570 X6.4929 Y0.2226
N15575 X6.4781 Y0.2733
N15580 X6.4626 Y0.3238
N15585 X6.4461 Y0.374
N15590 X6.4287 Y0.4239
N15595 X6.4105 Y0.4735
N15600 X6.3914 Y0.5228
N15605 X6.3715 Y0.5717
N15610 X6.3507 Y0.6203
N15615 X6.329 Y0.6685
N15620 X6.3065 Y0.7163
N15625 X6.2832 Y0.7637
N15630 X6.2591 Y0.8107
N15635 X6.2341 Y0.8573
N15640 X6.2083 Y0.9034
N15645 X6.1817 Y0.9491
N15650 X6.1543 Y0.9943
N15655 X6.1262 Y1.039
N15660 X6.0972 Y1.0832
N15665 X6.0675 Y1.1269
N15670 X6.0371 Y1.1701
N15675 X6.0059 Y1.2127
N15680 X5.9739 Y1.2548
N15685 X5.9413 Y1.2963
N15690 X5.9078 Y1.3373
N15695 X5.8737 Y1.3776
N15700 X5.8389 Y1.4174
N15705 X5.8034 Y1.4565
N15710 X5.7672 Y1.495
N15715 X5.7303 Y1.5329
N15720 X5.6928 Y1.5701
N15725 X5.6547 Y1.6066
N15730 X5.6159 Y1.6425
N15735 X5.5765 Y1.6777
N15740 X5.5365 Y1.7123
N15745 X5.4959 Y1.7461
N15750 X5.4547 Y1.7792
N15755 X5.413 Y1.8116
N15760 X5.3707 Y1.8432
N15765 X5.3278 Y1.8741
N15770 X5.2844 Y1.9043
N15775 X5.2405 Y1.9337
N15780 X5.1961 Y1.9623
N15785 X5.1512 Y1.9901
N15790 X5.1058 Y2.0172
N15795 X5.0599 Y2.0435
N15800 X5.0136 Y2.0689
N15805 X4.9669 Y2.0936
N15810 X4.9197 Y2.1174
N15815 X4.8722 Y2.1404
N15820 X4.8242 Y2.1626
N15825 X4.7759 Y2.184
N15830 X4.7272 Y2.2045
N15835 X4.6781 Y2.2242
N15840 X4.6288 Y2.243
N15845 X4.5791 Y2.261
N15850 X4.5291 Y2.2781
N15855 X4.4788 Y2.2943
N15860 X4.4282 Y2.3096
N15865 X4.3774 Y2.3241
N15870 X4.3263 Y2.3377
N15875 X4.275 Y2.3503
N15880 X4.2235 Y2.3622
N15885 X4.1718 Y2.3731
N15890 X4.1199 Y2.3831
N15895 X4.0679 Y2.3922
N15900 X4.0157 Y2.4005
N15905 X3.9634 Y2.4078
N15910 X3.9109 Y2.4142
N15915 X3.8584 Y2.4197
N15920 X3.8057 Y2.4243
N15925 X3.753 Y2.428
N15930 X3.7003 Y2.4308
N15935 X3.6474 Y2.4327
N15940 X3.5946 Y2.4336
N15945 X3.5418 Y2.4337
N15950 X3.4889 Y2.4328
N15955 X3.4361 Y2.431
N15960 X3.3834 Y2.4283
N15965 X3.3306 Y2.4248
N15970 X3.278 Y2.4203
N15975 X3.2254 Y2.4149
N15980 X3.173 Y2.4086
N15985 X3.1206 Y2.4014
N15990 X3.0684 Y2.3933
N15995 X3.0163 Y2.3843
N16000 X2.9644 Y2.3744
N16005 X2.9127 Y2.3637
N16010 X2.8611 Y2.352
N16015 X2.8098 Y2.3395
N16020 X2.7587 Y2.326
N16025 X2.7078 Y2.3117
N16030 X2.6572 Y2.2965
N16035 X2.6069 Y2.2805
N16040 X2.5568 Y2.2636
N16045 X2.507 Y2.2458
N16050 X2.4576 Y2.2272
N16055 X2.4085 Y2.2078
N16060 X2.3597 Y2.1875
N16065 X2.3112 Y2.1664
N16070 X2.2631 Y2.1445
N16075 X2.2154 Y2.1218
N16080 X2.1681 Y2.0982
N16085 X2.1213 Y2.0738
N16090 X2.0748 Y2.0487
N16095 X2.0288 Y2.0227
N16100 X1.9832 Y1.996
N16105 X1.9381 Y1.9684
N16110 X1.8935 Y1.9401
N16115 X1.8493 Y1.9111
N16120 X1.8057 Y1.8813
N16125 X1.7625 Y1.8508
N16130 X1.7199 Y1.8195
N16135 X1.6779 Y1.7875
N16140 X1.6364 Y1.7549
N16145 X1.5954 Y1.7215
N16150 X1.555 Y1.6874
N16155 X1.5152 Y1.6526
N16160 X1.476 Y1.6172
N16165 X1.4374 Y1.5811
N16170 X1.3995 Y1.5444
N16175 X1.3621 Y1.507
N16180 X1.3254 Y1.4689
N16185 X1.2894 Y1.4303
N16190 X1.254 Y1.391
N16195 X1.2193 Y1.3512
N16200 X1.1853 Y1.3107
N16205 X1.152 Y1.2697
N16210 X1.1194 Y1.2282
N16215 X1.0874 Y1.1861
N16220 X1.0562 Y1.1434
N16225 X1.0258 Y1.1003
N16230 X0.996 Y1.0566
N16235 X0.967 Y1.0124
N16240 X0.9388 Y0.9677
N16245 X0.9113 Y0.9226
N16250 X0.8846 Y0.877
N16255 X0.8587 Y0.831
N16260 X0.8335 Y0.7845
N16265 X0.8092 Y0.7376
N16270 X0.7857 Y0.6903
N16275 X0.7629 Y0.6426
N16280 X0.741 Y0.5945
N16285 X0.7199 Y0.5461
N16290 X0.6996 Y0.4973
N16295 X0.6801 Y0.4481
N16300 X0.6615 Y0.3987
N16305 X0.6437 Y0.3489
N16310 X0.6268 Y0.2989
N16315 X0.6107 Y0.2486
N16320 X0.5954 Y0.198
N16325 X0.581 Y0.1471
N16330 X0.5675 Y0.096
N16335 X0.5549 Y0.0447
N16340 X0.5431 Y-0.0068
N16345 X0.5322 Y-0.0585
N16350 X0.5222 Y-0.1104
N16355 X0.5131 Y-0.1624
N16360 X0.5048 Y-0.2146
N16365 X0.4975 Y-0.2669
N16370 X0.491 Y-0.3194
N16375 X0.4854 Y-0.3719
N16380 X0.4806 Y-0.4245
N16385 X0.4768 Y-0.4772
N16390 X0.4739 Y-0.53
N16395 X0.4718 Y-0.5828
N16400 X0.4707 Y-0.6356
N16405 X0.4704 Y-0.6885
N16410 X0.471 Y-0.7413
N16415 X0.4726 Y-0.7941
N16420 X0.475 Y-0.8469
N16425 X0.4783 Y-0.8996
N16430 X0.4825 Y-0.9523
N16435 X0.4876 Y-1.0049
N16440 X0.4936 Y-1.0574
N16445 X0.5005 Y-1.1098
N16450 X0.5083 Y-1.1621
N16455 X0.5169 Y-1.2142
N16460 X0.5264 Y-1.2662
N16465 X0.5368 Y-1.318
N16470 X0.5481 Y-1.3696
N16475 X0.5602 Y-1.421
N16480 X0.5732 Y-1.4723
N16485 X0.587 Y-1.5233
N16490 X0.6017 Y-1.574
N16495 X0.6173 Y-1.6245
N16500 X0.6338 Y-1.6747
N16505 X0.651 Y-1.7247
N16510 X0.6692 Y-1.7743
N16515 X0.6881 Y-1.8236
N16520 X0.7079 Y-1.8726
N16525 X0.7285 Y-1.9213
N16530 X0.75 Y-1.9696
N16535 X0.7722 Y-2.0175
N16540 X0.7952 Y-2.0651
N16545 X0.8191 Y-2.1122
N16550 X0.8437 Y-2.159
N16555 X0.8691 Y-2.2053
N16560 X0.8953 Y-2.2512
N16565 X0.9222 Y-2.2966
N16570 X0.95 Y-2.3416
N16575 X0.9784 Y-2.3861
N16580 X1.0077 Y-2.4301
N16585 X1.0377 Y-2.4737
N16590 X1.0684 Y-2.5167
N16595 X1.0998 Y-2.5591
N16600 X1.1319 Y-2.6011
N16605 X1.1648 Y-2.6425
N16610 X1.1983 Y-2.6833
N16615 X1.2325 Y-2.7236
N16620 X1.2674 Y-2.7633
N16625 X1.3029 Y-2.8024
N16630 X1.3392 Y-2.8409
N16635 X1.376 Y-2.8787
N16640 X1.4135 Y-2.916
N16645 X1.4516 Y-2.9526
N16650 X1.4903 Y-2.9886
N16655 X1.5296 Y-3.0239
N16660 X1.5695 Y-3.0585
N16665 X1.61 Y-3.0924
N16670 X1.6511 Y-3.1257
N16675 X1.6927 Y-3.1583
N16680 X1.7348 Y-3.1901
N16685 X1.7775 Y-3.2213
N16690 X1.8207 Y-3.2517
N16695 X1.8644 Y-3.2814
N16700 X1.9086 Y-3.3103
N16705 X1.9533 Y-3.3385
N16710 X1.9985 Y-3.366
N16715 X2.0441 Y-3.3927
N16720 X2.0901 Y-3.4186
N16725 X2.1366 Y-3.4437
N16730 X2.1835 Y-3.4681
N16735 X2.2308 Y-3.4916
N16740 X2.2785 Y-3.5144
N16745 X2.3266 Y-3.5363
N16750 X2.375 Y-3.5574
N16755 X2.4238 Y-3.5777
N16760 X2.4729 Y-3.5972
N16765 X2.5224 Y-3.6158
N16770 X2.5721 Y-3.6336
N16775 X2.6222 Y-3.6506
N16780 X2.6725 Y-3.6667
N16785 X2.7231 Y-3.682
N16790 X2.7739 Y-3.6964
N16795 X2.825 Y-3.71
N16800 X2.8763 Y-3.7227
N16805 X2.9278 Y-3.7346
N16810 X2.9794 Y-3.7455
N16815 X3.0313 Y-3.7556
N16820 X3.0833 Y-3.7649
N16825 X3.1355 Y-3.7732
N16830 X3.1878 Y-3.7807
N16835 X3.2403 Y-3.7872
N16840 X3.2928 Y-3.7929
N16845 X3.3454 Y-3.7977
N16850 X3.3981 Y-3.8017
N16855 X3.4509 Y-3.8047
N16860 X3.5037 Y-3.8069
N16865 X3.5565 Y-3.8081
N16870 X3.6093 Y-3.8085
N16875 X3.6622 Y-3.808
N16880 X3.715 Y-3.8066
N16885 X3.7678 Y-3.8044
N16890 X3.8205 Y-3.8012
N16895 X3.8732 Y-3.7972
N16900 X3.9258 Y-3.7922
N16905 X3.9783 Y-3.7864
N16910 X4.0308 Y-3.7797
N16915 X4.083 Y-3.7722
N16920 X4.1352 Y-3.7637
N16925 X4.1872 Y-3.7544
N16930 X4.2391 Y-3.7442
N16935 X4.2907 Y-3.7331
N16940 X4.3422 Y-3.7212
N16945 X4.3935 Y-3.7085
N16950 X4.4446 Y-3.6949
N16955 X4.4954 Y-3.6804
N16960 X4.546 Y-3.6651
N16965 X4.5963 Y-3.6489
N16970 X4.6463 Y-3.6319
N16975 X4.6961 Y-3.6141
N16980 X4.7455 Y-3.5955
N16985 X4.7946 Y-3.576
N16990 X4.8434 Y-3.5557
N16995 X4.8919 Y-3.5346
N17000 X4.9399 Y-3.5127
N17005 X4.9877 Y-3.49
N17010 X5.035 Y-3.4666
N17015 X5.0819 Y-3.4423
N17020 X5.1285 Y-3.4173
N17025 X5.1746 Y-3.3915
N17030 X5.2203 Y-3.3649
N17035 X5.2655 Y-3.3376
N17040 X5.3103 Y-3.3096
N17045 X5.3546 Y-3.2808
N17050 X5.3985 Y-3.2513
N17055 X5.4418 Y-3.2211
N17060 X5.4846 Y-3.1901
N17065 X5.5269 Y-3.1585
N17070 X5.5687 Y-3.1261
N17075 X5.61 Y-3.0931
N17080 X5.6507 Y-3.0594
N17085 X5.6908 Y-3.025
N17090 X5.7304 Y-2.99
N17095 X5.7694 Y-2.9543
N17100 X5.8078 Y-2.918
N17105 X5.8456 Y-2.8811
N17110 X5.8827 Y-2.8436
N17115 X5.9193 Y-2.8054
N17120 X5.9552 Y-2.7667
N17125 X5.9905 Y-2.7274
N17130 X6.0252 Y-2.6875
N17135 X6.0592 Y-2.647
N17140 X6.0925 Y-2.606
N17145 X6.1251 Y-2.5645
N17150 X6.1571 Y-2.5224
N17155 X6.1884 Y-2.4798
N17160 X6.2189 Y-2.4367
N17165 X6.2487 Y-2.393
N17170 X6.2779 Y-2.3489
N17175 X6.3063 Y-2.3044
N17180 X6.3339 Y-2.2594
N17185 X6.3609 Y-2.2139
N17190 X6.387 Y-2.168
N17195 X6.4125 Y-2.1217
N17200 X6.4371 Y-2.075
N17205 X6.461 Y-2.0278
N17210 X6.4842 Y-1.9803
N17215 X6.5065 Y-1.9324
N17220 X6.5281 Y-1.8842
N17225 X6.5488 Y-1.8356
N17230 X6.5688 Y-1.7867
N17235 X6.588 Y-1.7374
N17240 X6.6063 Y-1.6879
N17245 X6.6238 Y-1.638
N17250 X6.6405 Y-1.5879
N17255 X6.6564 Y-1.5375
N17260 X6.6715 Y-1.4869
N17265 X6.6857 Y-1.436
N17270 X6.6991 Y-1.3849
N17275 X6.7117 Y-1.3335
N17280 X6.7234 Y-1.282
N17285 X6.7343 Y-1.2303
N17290 X6.7443 Y-1.1784
N17295 X6.7535 Y-1.1264
N17300 X6.7618 Y-1.0742
N17305 X6.7693 Y-1.0219
N17310 X6.7759 Y-0.9695
N17315 X6.7816 Y-0.9169
N17320 X6.7865 Y-0.8643
N17325 X6.7905 Y-0.8116
N17330 X6.7936 Y-0.7589
N17335 X6.7959 Y-0.7061
N17340 X6.7973 Y-0.6533
N17345 X6.7978 Y-0.6004
N17350 X6.7975 Y-0.5476
N17355 X6.7963 Y-0.4948
N17360 X6.7943 Y-0.442
N17365 X6.7913 Y-0.3892
N17370 X6.7876 Y-0.3365
N17375 X6.7829 Y-0.2839
N17380 X6.7774 Y-0.2313
N17385 X6.771 Y-0.1789
N17390 X6.7638 Y-0.1265
N17395 X6.7557 Y-0.0743
N17400 X6.7467 Y-0.0222
N17405 X6.7369 Y0.0297
N17410 X6.7262 Y0.0815
N17415 X6.7147 Y0.133
N17420 X6.7023 Y0.1844
N17425 X6.6891 Y0.2356
N17430 X6.6751 Y0.2865
N17435 X6.6602 Y0.3372
N17440 X6.6445 Y0.3876
N17445 X6.6279 Y0.4378
N17450 X6.6106 Y0.4877
N17455 X6.5924 Y0.5374
N17460 X6.5734 Y0.5867
N17465 X6.5536 Y0.6357
N17470 X6.533 Y0.6843
N17475 X6.5116 Y0.7326
N17480 X6.4894 Y0.7806
N17485 X6.4664 Y0.8282
N17490 X6.4427 Y0.8754
N17495 X6.4181 Y0.9222
N17500 X6.3928 Y0.9685
N17505 X6.3668 Y1.0145
N17510 X6.3399 Y1.06
N17515 X6.3124 Y1.1051
N17520 X6.2841 Y1.1497
N17525 X6.2551 Y1.1939
N17530 X6.2253 Y1.2376
N17535 X6.1949 Y1.2808
N17540 X6.1637 Y1.3234
N17545 X6.1319 Y1.3656
N17550 X6.0993 Y1.4072
N17555 X6.0661 Y1.4483
N17560 X6.0322 Y1.4889
N17565 X5.9977 Y1.5288
N17570 X5.9624 Y1.5682
N17575 X5.9266 Y1.607
N17580 X5.8901 Y1.6453
N17585 X5.853 Y1.6829
N17590 X5.8152 Y1.7199
N17595 X5.7769 Y1.7563
N17600 X5.738 Y1.792
N17605 X5.6985 Y1.8271
N17610 X5.6584 Y1.8616
N17615 X5.6178 Y1.8953
N17620 X5.5767 Y1.9285
N17625 X5.535 Y1.9609
N17630 X5.4927 Y1.9927
N17635 X5.45 Y2.0238
N17640 X5.4067 Y2.0541
N17645 X5.363 Y2.0838
N17650 X5.3188 Y2.1127
N17655 X5.2741 Y2.1409
N17660 X5.2289 Y2.1683
N17665 X5.1833 Y2.1951
N17670 X5.1373 Y2.221
N17675 X5.0909 Y2.2462
N17680 X5.044 Y2.2707
N17685 X4.9968 Y2.2943
N17690 X4.9492 Y2.3173
N17695 X4.9012 Y2.3394
N17700 X4.8529 Y2.3607
N17705 X4.8042 Y2.3813
N17710 X4.7552 Y2.401
N17715 X4.7059 Y2.42
N17720 X4.6562 Y2.4382
N17725 X4.6063 Y2.4555
N17730 X4.5561 Y2.472
N17735 X4.5057 Y2.4877
N17740 X4.455 Y2.5026
N17745 X4.404 Y2.5166
N17750 X4.3529 Y2.5298
N17755 X4.3015 Y2.5422
N17760 X4.2499 Y2.5537
N17765 X4.1982 Y2.5644
N17770 X4.1463 Y2.5743
N17775 X4.0942 Y2.5833
N17780 X4.042 Y2.5915
N17785 X3.9897 Y2.5988
N17790 X3.9372 Y2.6052
N17795 X3.8847 Y2.6109
N17800 X3.832 Y2.6156
N17805 X3.7793 Y2.6195
N17810 X3.7266 Y2.6226
N17815 X3.6738 Y2.6248
N17820 X3.621 Y2.6261
N17825 X3.5681 Y2.6266
N17830 X3.5153 Y2.6262
N17835 X3.4625 Y2.625
N17840 X3.4097 Y2.6229
N17845 X3.3569 Y2.6199
N17850 X3.3042 Y2.6161
N17855 X3.2516 Y2.6115
N17860 X3.199 Y2.6059
N17865 X3.1466 Y2.5996
N17870 X3.0942 Y2.5924
N17875 X3.042 Y2.5844
N17880 X2.9899 Y2.5755
N17885 X2.938 Y2.5658
N17890 X2.8862 Y2.5552
N17895 X2.8346 Y2.5438
N17900 X2.7832 Y2.5316
N17905 X2.732 Y2.5185
N17910 X2.681 Y2.5046
N17915 X2.6303 Y2.4899
N17920 X2.5797 Y2.4744
N17925 X2.5295 Y2.458
N17930 X2.4795 Y2.4409
N17935 X2.4298 Y2.4229
N17940 X2.3804 Y2.4042
N17945 X2.3313 Y2.3846
N17950 X2.2826 Y2.3643
N17955 X2.2341 Y2.3432
N17960 X2.186 Y2.3213
N17965 X2.1383 Y2.2987
N17970 X2.0909 Y2.2753
N17975 X2.0439 Y2.2511
N17980 X1.9973 Y2.2262
N17985 X1.9511 Y2.2005
N17990 X1.9054 Y2.1741
N17995 X1.86 Y2.1469
N18000 X1.8152 Y2.119
N18005 X1.7707 Y2.0904
N18010 X1.7268 Y2.0611
N18015 X1.6833 Y2.0311
N18020 X1.6403 Y2.0004
N18025 X1.5978 Y1.969
N18030 X1.5558 Y1.9369
N18035 X1.5143 Y1.9042
N18040 X1.4733 Y1.8708
N18045 X1.4329 Y1.8368
N18050 X1.3931 Y1.8021
N18055 X1.3537 Y1.7668
N18060 X1.315 Y1.7308
N18065 X1.2769 Y1.6943
N18070 X1.2393 Y1.6571
N18075 X1.2023 Y1.6193
N18080 X1.166 Y1.581
N18085 X1.1303 Y1.542
N18090 X1.0952 Y1.5025
N18095 X1.0607 Y1.4625
N18100 X1.0269 Y1.4219
N18105 X0.9938 Y1.3807
N18110 X0.9613 Y1.3391
N18115 X0.9295 Y1.2969
N18120 X0.8983 Y1.2542
N18125 X0.8678 Y1.211
N18130 X0.8381 Y1.1674
N18135 X0.809 Y1.1233
N18140 X0.7806 Y1.0787
N18145 X0.753 Y1.0336
N18150 X0.726 Y0.9882
N18155 X0.6998 Y0.9423
N18160 X0.6744 Y0.896
N18165 X0.6497 Y0.8493
N18170 X0.6257 Y0.8022
N18175 X0.6025 Y0.7547
N18180 X0.5801 Y0.7069
N18185 X0.5584 Y0.6587
N18190 X0.5375 Y0.6101
N18195 X0.5174 Y0.5613
N18200 X0.498 Y0.5121
N18205 X0.4795 Y0.4626
N18210 X0.4617 Y0.4129
N18215 X0.4447 Y0.3628
N18220 X0.4285 Y0.3125
N18225 X0.4132 Y0.262
N18230 X0.3986 Y0.2112
N18235 X0.3848 Y0.1602
N18240 X0.3719 Y0.1089
N18245 X0.3598 Y0.0575
N18250 X0.3485 Y0.0059
N18255 X0.338 Y-0.0459
N18260 X0.3284 Y-0.0979
N18265 X0.3196 Y-0.15
N18270 X0.3116 Y-0.2022
N18275 X0.3045 Y-0.2546
N18280 X0.2982 Y-0.307
N18285 X0.2927 Y-0.3596
N18290 X0.2881 Y-0.4122
N18295 X0.2843 Y-0.4649
N18300 X0.2813 Y-0.5177
N18305 X0.2792 Y-0.5705
N18310 X0.2779 Y-0.6233
N18315 X0.2774 Y-0.6761
N18320 X0.2778 Y-0.729
N18325 X0.2791 Y-0.7818
N18330 X0.2811 Y-0.8346
N18335 X0.2841 Y-0.8874
N18340 X0.2879 Y-0.9401
N18345 X0.2925 Y-0.9927
N18350 X0.2979 Y-1.0453
N18355 X0.3042 Y-1.0977
N18360 X0.3113 Y-1.1501
N18365 X0.3193 Y-1.2023
N18370 X0.3281 Y-1.2544
N18375 X0.3377 Y-1.3064
N18380 X0.3481 Y-1.3582
N18385 X0.3593 Y-1.4098
N18390 X0.3714 Y-1.4613
N18395 X0.3843 Y-1.5125
N18400 X0.398 Y-1.5636
N18405 X0.4125 Y-1.6144
N18410 X0.4278 Y-1.6649
N18415 X0.4439 Y-1.7153
N18420 X0.4608 Y-1.7653
N18425 X0.4785 Y-1.8151
N18430 X0.497 Y-1.8646
N18435 X0.5163 Y-1.9138
N18440 X0.5364 Y-1.9627
N18445 X0.5572 Y-2.0112
N18450 X0.5789 Y-2.0594
N18455 X0.6012 Y-2.1073
N18460 X0.6244 Y-2.1548
N18465 X0.6482 Y-2.202
N18470 X0.6729 Y-2.2487
N18475 X0.6982 Y-2.2951
N18480 X0.7243 Y-2.341
N18485 X0.7511 Y-2.3865
N18490 X0.7787 Y-2.4316
N18495 X0.8069 Y-2.4763
N18500 X0.8359 Y-2.5205
N18505 X0.8656 Y-2.5642
N18510 X0.8959 Y-2.6075
N18515 X0.927 Y-2.6502
N18520 X0.9587 Y-2.6925
N18525 X0.9911 Y-2.7342
N18530 X1.0242 Y-2.7754
N18535 X1.0579 Y-2.8161
N18540 X1.0922 Y-2.8563
N18545 X1.1272 Y-2.8959
N18550 X1.1628 Y-2.935
N18555 X1.199 Y-2.9735
N18560 X1.2358 Y-3.0114
N18565 X1.2732 Y-3.0487
N18570 X1.3112 Y-3.0854
N18575 X1.3498 Y-3.1215
N18580 X1.3889 Y-3.157
N18585 X1.4286 Y-3.1919
N18590 X1.4689 Y-3.2261
N18595 X1.5097 Y-3.2597
N18600 X1.551 Y-3.2926
N18605 X1.5929 Y-3.3249
N18610 X1.6352 Y-3.3564
N18615 X1.6781 Y-3.3874
N18620 X1.7214 Y-3.4176
N18625 X1.7652 Y-3.4471
N18630 X1.8095 Y-3.476
N18635 X1.8542 Y-3.5041
N18640 X1.8994 Y-3.5316
N18645 X1.945 Y-3.5583
N18650 X1.991 Y-3.5843
N18655 X2.0374 Y-3.6095
N18660 X2.0842 Y-3.634
N18665 X2.1314 Y-3.6578
N18670 X2.179 Y-3.6808
N18675 X2.2269 Y-3.703
N18680 X2.2752 Y-3.7245
N18685 X2.3238 Y-3.7452
N18690 X2.3727 Y-3.7652
N18695 X2.422 Y-3.7843
N18700 X2.4715 Y-3.8027
N18705 X2.5213 Y-3.8203
N18710 X2.5715 Y-3.837
N18715 X2.6218 Y-3.853
N18720 X2.6724 Y-3.8682
N18725 X2.7233 Y-3.8826
N18730 X2.7743 Y-3.8962
N18735 X2.8256 Y-3.909
N18740 X2.8771 Y-3.921
N18745 X2.9287 Y-3.9321
N18750 X2.9805 Y-3.9424
N18755 X3.0325 Y-3.9519
N18760 X3.0846 Y-3.9606
N18765 X3.1369 Y-3.9685
N18770 X3.1893 Y-3.9755
N18775 X3.2418 Y-3.9816
N18780 X3.2943 Y-3.987
N18785 X3.347 Y-3.9915
N18790 X3.3997 Y-3.9951
N18795 X3.4525 Y-3.998
N18800 X3.5053 Y-4.
N18805 X3.5581 Y-4.0012
N18810 X3.6109 Y-4.0015
N18815 X3.6638 Y-4.001
N18820 X3.7166 Y-3.9997
N18825 X3.7694 Y-3.9975
N18830 X3.8221 Y-3.9945
N18835 X3.8748 Y-3.9907
N18840 X3.9275 Y-3.986
N18845 X3.98 Y-3.9805
N18850 X4.0325 Y-3.9742
N18855 X4.0848 Y-3.9671
N18860 X4.1371 Y-3.9591
N18865 X4.1892 Y-3.9502
N18870 X4.2411 Y-3.9406
N18875 X4.2929 Y-3.9302
N18880 X4.3445 Y-3.9189
N18885 X4.396 Y-3.9068
N18890 X4.4472 Y-3.8939
N18895 X4.4983 Y-3.8803
N18900 X4.5491 Y-3.8658
N18905 X4.5997 Y-3.8505
N18910 X4.65 Y-3.8345
N18915 X4.7001 Y-3.8176
N18920 X4.7499 Y-3.8
N18925 X4.7994 Y-3.7816
N18930 X4.8487 Y-3.7624
N18935 X4.8976 Y-3.7424
N18940 X4.9462 Y-3.7217
N18945 X4.9945 Y-3.7002
N18950 X5.0424 Y-3.6779
N18955 X5.09 Y-3.6549
N18960 X5.1372 Y-3.6312
N18965 X5.184 Y-3.6067
N18970 X5.2305 Y-3.5815
N18975 X5.2765 Y-3.5556
N18980 X5.3222 Y-3.529
N18985 X5.3674 Y-3.5016
N18990 X5.4122 Y-3.4736
N18995 X5.4565 Y-3.4449
N19000 X5.5004 Y-3.4155
N19005 X5.5439 Y-3.3854
N19010 X5.5868 Y-3.3546
N19015 X5.6293 Y-3.3232
N19020 X5.6713 Y-3.2911
N19025 X5.7128 Y-3.2584
N19030 X5.7537 Y-3.225
N19035 X5.7941 Y-3.191
N19040 X5.834 Y-3.1563
N19045 X5.8734 Y-3.1211
N19050 X5.9122 Y-3.0852
N19055 X5.9505 Y-3.0487
N19060 X5.9881 Y-3.0117
N19065 X6.0252 Y-2.9741
N19070 X6.0617 Y-2.9359
N19075 X6.0977 Y-2.8971
N19080 X6.133 Y-2.8578
N19085 X6.1677 Y-2.818
N19090 X6.2018 Y-2.7776
N19095 X6.2353 Y-2.7367
N19100 X6.2681 Y-2.6953
N19105 X6.3003 Y-2.6534
N19110 X6.3318 Y-2.611
N19115 X6.3626 Y-2.5681
N19120 X6.3928 Y-2.5247
N19125 X6.4223 Y-2.4809
N19130 X6.4512 Y-2.4366
N19135 X6.4793 Y-2.3919
N19140 X6.5068 Y-2.3467
N19145 X6.5335 Y-2.3012
N19150 X6.5596 Y-2.2552
N19155 X6.5849 Y-2.2088
N19160 X6.6095 Y-2.1621
N19165 X6.6334 Y-2.1149
N19170 X6.6566 Y-2.0674
N19175 X6.679 Y-2.0196
N19180 X6.7007 Y-1.9714
N19185 X6.7217 Y-1.9229
N19190 X6.7419 Y-1.8741
N19195 X6.7613 Y-1.8249
N19200 X6.78 Y-1.7755
N19205 X6.7979 Y-1.7258
N19210 X6.815 Y-1.6758
N19215 X6.8313 Y-1.6256
N19220 X6.8469 Y-1.5751
N19225 X6.8617 Y-1.5243
N19230 X6.8757 Y-1.4734
N19235 X6.8889 Y-1.4222
N19240 X6.9013 Y-1.3709
N19245 X6.9129 Y-1.3193
N19250 X6.9238 Y-1.2676
N19255 X6.9338 Y-1.2157
N19260 X6.943 Y-1.1637
N19265 X6.9515 Y-1.1115
N19270 X6.9591 Y-1.0592
N19275 X6.9659 Y-1.0068
N19280 X6.9719 Y-0.9543
N19285 X6.9771 Y-0.9017
N19290 X6.9799 Y-0.8678
N19295 X6.9801 Y-0.8646
N19300 X6.9803 Y-0.8614
N19305 Y-0.8581
N19310 Y-0.4795
N19315 X6.9777 Y-0.4268
N19320 X6.9767 Y-0.3739
N19325 X6.9744 Y-0.3211
N19330 X6.971 Y-0.2684
N19335 X6.9666 Y-0.2158
N19340 X6.961 Y-0.1632
N19345 X6.9545 Y-0.1108
N19350 X6.9471 Y-0.0585
N19355 X6.9388 Y-0.0063
N19360 X6.9295 Y0.0458
N19365 X6.9194 Y0.0976
N19370 X6.9085 Y0.1493
N19375 X6.8967 Y0.2008
N19380 X6.8841 Y0.2521
N19385 X6.8706 Y0.3032
N19390 X6.8564 Y0.3541
N19395 X6.8413 Y0.4048
N19400 X6.8255 Y0.4552
N19405 X6.8089 Y0.5053
N19410 X6.7914 Y0.5552
N19415 X6.7733 Y0.6048
N19420 X6.7543 Y0.6542
N19425 X6.7346 Y0.7032
N19430 X6.7141 Y0.7519
N19435 X6.6929 Y0.8003
N19440 X6.6709 Y0.8484
N19445 X6.6482 Y0.8961
N19450 X6.6248 Y0.9434
N19455 X6.6006 Y0.9904
N19460 X6.5756 Y1.037
N19465 X6.55 Y1.0832
N19470 X6.5236 Y1.129
N19475 X6.4965 Y1.1743
N19480 X6.4688 Y1.2193
N19485 X6.4403 Y1.2638
N19490 X6.4112 Y1.3079
N19495 X6.3813 Y1.3515
N19500 X6.3508 Y1.3947
N19505 X6.3197 Y1.4373
N19510 X6.2879 Y1.4795
N19515 X6.2554 Y1.5212
N19520 X6.2223 Y1.5624
N19525 X6.1886 Y1.6031
N19530 X6.1542 Y1.6432
N19535 X6.1192 Y1.6828
N19540 X6.0836 Y1.7219
N19545 X6.0474 Y1.7604
N19550 X6.0106 Y1.7983
N19555 X5.9732 Y1.8356
N19560 X5.9353 Y1.8724
N19565 X5.8968 Y1.9086
N19570 X5.8577 Y1.9441
N19575 X5.8181 Y1.9791
N19580 X5.7779 Y2.0135
N19585 X5.7373 Y2.0472
N19590 X5.6961 Y2.0803
N19595 X5.6544 Y2.1127
N19600 X5.6122 Y2.1446
N19605 X5.5695 Y2.1757
N19610 X5.5264 Y2.2062
N19615 X5.4827 Y2.236
N19620 X5.4387 Y2.2652
N19625 X5.3941 Y2.2937
N19630 X5.3492 Y2.3214
N19635 X5.3038 Y2.3485
N19640 X5.258 Y2.3749
N19645 X5.2118 Y2.4005
N19650 X5.1652 Y2.4254
N19655 X5.1183 Y2.4496
N19660 X5.0709 Y2.4731
N19665 X5.0232 Y2.4959
N19670 X4.9752 Y2.5179
N19675 X4.9268 Y2.5392
N19680 X4.8781 Y2.5597
N19685 X4.8291 Y2.5795
N19690 X4.7799 Y2.5985
N19695 X4.7303 Y2.6168
N19700 X4.6804 Y2.6343
N19705 X4.6303 Y2.6511
N19710 X4.5799 Y2.667
N19715 X4.5293 Y2.6822
N19720 X4.4785 Y2.6966
N19725 X4.4274 Y2.7102
N19730 X4.3762 Y2.7231
N19735 X4.3247 Y2.7351
N19740 X4.2731 Y2.7463
N19745 X4.2213 Y2.7568
N19750 X4.1693 Y2.7664
N19755 X4.1172 Y2.7753
N19760 X4.065 Y2.7833
N19765 X4.0127 Y2.7906
N19770 X3.9602 Y2.7971
N19775 X3.9077 Y2.8027
N19780 X3.8551 Y2.8076
N19785 X3.8024 Y2.8116
N19790 X3.7496 Y2.8149
N19795 X3.6969 Y2.8173
N19800 X3.644 Y2.8189
N19805 X3.5912 Y2.8197
N19810 X3.5384
N19815 X3.4855 Y2.8189
N19820 X3.4327 Y2.8173
N19825 X3.3799 Y2.8148
N19830 X3.3272 Y2.8116
N19835 X3.2745 Y2.8075
N19840 X3.2219 Y2.8027
N19845 X3.1694 Y2.797
N19850 X3.1169 Y2.7906
N19855 X3.0646 Y2.7833
N19860 X3.0123 Y2.7753
N19865 X2.9602 Y2.7665
N19870 X2.9083 Y2.7568
N19875 X2.8565 Y2.7464
N19880 X2.8048 Y2.7352
N19885 X2.7534 Y2.7232
N19890 X2.7021 Y2.7104
N19895 X2.651 Y2.6969
N19900 X2.6002 Y2.6825
N19905 X2.5496 Y2.6674
N19910 X2.4992 Y2.6515
N19915 X2.449 Y2.6349
N19920 X2.3991 Y2.6174
N19925 X2.3495 Y2.5993
N19930 X2.3002 Y2.5803
N19935 X2.2511 Y2.5606
N19940 X2.2024 Y2.5402
N19945 X2.154 Y2.5191
N19950 X2.1059 Y2.4972
N19955 X2.0581 Y2.4746
N19960 X2.0107 Y2.4513
N19965 X1.9637 Y2.4272
N19970 X1.917 Y2.4025
N19975 X1.8707 Y2.377
N19980 X1.8248 Y2.3508
N19985 X1.7793 Y2.324
N19990 X1.7342 Y2.2964
N19995 X1.6895 Y2.2682
N20000 X1.6453 Y2.2392
N20005 X1.6015 Y2.2097
N20010 X1.5582 Y2.1794
N20015 X1.5153 Y2.1485
N20020 X1.4729 Y2.117
N20025 X1.431 Y2.0848
N20030 X1.3896 Y2.052
N20035 X1.3487 Y2.0185
N20040 X1.3083 Y1.9845
N20045 X1.2684 Y1.9499
N20050 X1.229 Y1.9146
N20055 X1.1902 Y1.8788
N20060 X1.1519 Y1.8423
N20065 X1.1142 Y1.8053
N20070 X1.077 Y1.7678
N20075 X1.0404 Y1.7297
N20080 X1.0044 Y1.691
N20085 X0.969 Y1.6517
N20090 X0.9359 Y1.6139
N20095 X0.9258 Y1.6006
N20100 X0.9177 Y1.5859
N20105 X0.9118 Y1.5702
N20110 X0.9082 Y1.5538
N20115 X0.907 Y1.5371
N20120 Y1.4686
N20125 Y1.4536
N20130 X0.9066 Y1.4386
N20135 X0.904 Y1.4086
N20140 X0.9009 Y1.3937
N20145 X0.8977 Y1.3787
N20150 X0.8935 Y1.3637
N20155 X0.8879 Y1.3487
N20160 X0.8843 Y1.3399
N20165 X0.8693 Y1.3111
N20170 X0.8652 Y1.3037
N20175 X0.8547 Y1.2888
N20180 X0.8432 Y1.2738
N20185 X0.8393 Y1.2695
N20190 X0.8293 Y1.2588
N20195 X0.8243 Y1.2536
N20200 X0.8094 Y1.2402
N20205 X0.7944 Y1.2287
N20210 X0.7794 Y1.2195
N20215 X0.7644 Y1.2106
N20220 X0.7494 Y1.203
N20225 X0.7441 Y1.2003
N20230 X0.7158 Y1.1827
N20235 X0.6833 Y1.1587
N20240 X0.6461 Y1.1263
N20245 X0.6092 Y1.0885
N20250 X0.575 Y1.0482
N20255 X0.543 Y1.0061
N20260 X0.5131 Y0.9626
N20265 X0.4848 Y0.9179
N20270 X0.4581 Y0.8724
N20275 X0.4327 Y0.826
N20280 X0.4085 Y0.779
N20285 X0.3855 Y0.7315
N20290 X0.3635 Y0.6835
N20295 X0.3424 Y0.635
N20300 X0.3223 Y0.5861
N20305 X0.3031 Y0.5369
N20310 X0.2847 Y0.4874
N20315 X0.2672 Y0.4375
N20320 X0.2505 Y0.3874
N20325 X0.2346 Y0.337
N20330 X0.2195 Y0.2863
N20335 X0.2053 Y0.2355
N20340 X0.1918 Y0.1844
N20345 X0.1792 Y0.1331
N20350 X0.1673 Y0.0816
N20355 X0.1562 Y0.0299
N20360 X0.1459 Y-0.0219
N20365 X0.1364 Y-0.0739
N20370 X0.1277 Y-0.126
N20375 X0.1198 Y-0.1783
N20380 X0.1127 Y-0.2306
N20385 X0.1064 Y-0.2831
N20390 X0.1008 Y-0.3356
N20395 X0.0961 Y-0.3883
N20400 X0.0921 Y-0.441
N20405 X0.0889 Y-0.4937
N20410 X0.0865 Y-0.5465
N20415 X0.085 Y-0.5993
N20420 X0.0842 Y-0.6521
N20425 Y-0.705
N20430 X0.085 Y-0.7578
N20435 X0.0866 Y-0.8106
N20440 X0.089 Y-0.8634
N20445 X0.0922 Y-0.9162
N20450 X0.0962 Y-0.9689
N20455 X0.101 Y-1.0215
N20460 X0.1066 Y-1.074
N20465 X0.113 Y-1.1265
N20470 X0.1202 Y-1.1788
N20475 X0.1281 Y-1.2311
N20480 X0.1368 Y-1.2832
N20485 X0.1463 Y-1.3352
N20490 X0.1566 Y-1.387
N20495 X0.1677 Y-1.4387
N20500 X0.1795 Y-1.4902
N20505 X0.1921 Y-1.5415
N20510 X0.2054 Y-1.5926
N20515 X0.2196 Y-1.6435
N20520 X0.2345 Y-1.6942
N20525 X0.2502 Y-1.7447
N20530 X0.2666 Y-1.7949
N20535 X0.2838 Y-1.8449
N20540 X0.3017 Y-1.8946
N20545 X0.3204 Y-1.944
N20550 X0.3399 Y-1.9931
N20555 X0.36 Y-2.042
N20560 X0.3809 Y-2.0905
N20565 X0.4025 Y-2.1387
N20570 X0.4249 Y-2.1866
N20575 X0.4479 Y-2.2342
N20580 X0.4717 Y-2.2814
N20585 X0.4961 Y-2.3282
N20590 X0.5213 Y-2.3747
N20595 X0.5471 Y-2.4208
N20600 X0.5737 Y-2.4664
N20605 X0.6009 Y-2.5117
N20610 X0.6288 Y-2.5566
N20615 X0.6574 Y-2.601
N20620 X0.6866 Y-2.645
N20625 X0.7166 Y-2.6886
N20630 X0.7471 Y-2.7317
N20635 X0.7783 Y-2.7743
N20640 X0.8102 Y-2.8165
N20645 X0.8427 Y-2.8582
N20650 X0.8758 Y-2.8994
N20655 X0.9095 Y-2.9401
N20660 X0.9438 Y-2.9803
N20665 X0.9787 Y-3.0199
N20670 X1.0142 Y-3.0591
N20675 X1.0503 Y-3.0977
N20680 X1.0869 Y-3.1357
N20685 X1.1241 Y-3.1733
N20690 X1.1619 Y-3.2102
N20695 X1.2002 Y-3.2466
N20700 X1.2391 Y-3.2824
N20705 X1.2785 Y-3.3175
N20710 X1.3185 Y-3.3521
N20715 X1.3589 Y-3.3861
N20720 X1.3999 Y-3.4195
N20725 X1.4414 Y-3.4523
N20730 X1.4833 Y-3.4844
N20735 X1.5257 Y-3.5159
N20740 X1.5686 Y-3.5468
N20745 X1.612 Y-3.577
N20750 X1.6558 Y-3.6065
N20755 X1.6697 Y-3.6157
N20760 X1.6848 Y-3.624
N20765 X1.7009 Y-3.63
N20770 X1.7177 Y-3.6336
N20775 X1.7349 Y-3.6347
N20780 X1.752 Y-3.6332
N20785 X1.7688 Y-3.6292
N20790 X1.7836 Y-3.6245
N20795 X1.7986 Y-3.6202
N20800 X1.8286 Y-3.6135
N20805 X1.844 Y-3.6115
N20810 X1.8585 Y-3.6106
N20815 X1.8735 Y-3.6108
N20820 X1.8885 Y-3.6112
N20825 X1.896 Y-3.6115
N20830 X1.9185 Y-3.6151
N20835 X1.9335 Y-3.6181
N20840 X1.9634 Y-3.627
N20845 X1.9959 Y-3.6415
N20850 X2.0084 Y-3.6488
N20855 X2.0234 Y-3.6585
