(VECTRIC POST REV.)
(C9BFEAB1355AE3F66DEE4C3477420302)
T1M6
G17
G0Z2.0000
G0X0.0000Y0.0000S18000M3
G0X3.2243Y5.4009
G0Z0.5000
G1Z-0.0123F100.0
G2X6.0000Y8.1766I2.7757J0.0000F200.0
G2X8.7757Y5.4009I0.0000J-2.7757
G2X6.0000Y2.6251I-2.7757J0.0000
G2X3.2243Y5.4009I0.0000J2.7757
G1Z-0.0247F100.0
G2X6.0000Y8.1766I2.7757J0.0000F200.0
G2X8.7757Y5.4009I0.0000J-2.7757
G2X6.0000Y2.6251I-2.7757J0.0000
G2X3.2243Y5.4009I0.0000J2.7757
G1Z-0.0370F100.0
G2X6.0000Y8.1766I2.7757J0.0000F200.0
G2X8.7757Y5.4009I0.0000J-2.7757
G2X6.0000Y2.6251I-2.7757J0.0000
G2X3.2243Y5.4009I0.0000J2.7757
G1Z-0.0493F100.0
G2X6.0000Y8.1766I2.7757J0.0000F200.0
G2X8.7757Y5.4009I0.0000J-2.7757
G2X6.0000Y2.6251I-2.7757J0.0000
G2X3.2243Y5.4009I0.0000J2.7757
G1Z-0.0617F100.0
G2X6.0000Y8.1766I2.7757J0.0000F200.0
G2X8.7757Y5.4009I0.0000J-2.7757
G2X6.0000Y2.6251I-2.7757J0.0000
G2X3.2243Y5.4009I0.0000J2.7757
G1Z-0.0740F100.0
G2X6.0000Y8.1766I2.7757J0.0000F200.0
G2X8.7757Y5.4009I0.0000J-2.7757
G2X6.0000Y2.6251I-2.7757J0.0000
G2X3.2243Y5.4009I0.0000J2.7757
G1Z-0.0863F100.0
G2X6.0000Y8.1766I2.7757J0.0000F200.0
G2X8.7757Y5.4009I0.0000J-2.7757
G2X6.0000Y2.6251I-2.7757J0.0000
G2X3.2243Y5.4009I0.0000J2.7757
G1Z-0.0987F100.0
G2X6.0000Y8.1766I2.7757J0.0000F200.0
G2X8.7757Y5.4009I0.0000J-2.7757
G2X6.0000Y2.6251I-2.7757J0.0000
G2X3.2243Y5.4009I0.0000J2.7757
G1Z-0.1110F100.0
G2X6.0000Y8.1766I2.7757J0.0000F200.0
G2X8.7757Y5.4009I0.0000J-2.7757
G2X6.0000Y2.6251I-2.7757J0.0000
G2X3.2243Y5.4009I0.0000J2.7757
G1Z-0.1233F100.0
G2X6.0000Y8.1766I2.7757J0.0000F200.0
G2X8.7757Y5.4009I0.0000J-2.7757
G2X6.0000Y2.6251I-2.7757J0.0000
G2X3.2243Y5.4009I0.0000J2.7757
G1Z-0.1357F100.0
G2X6.0000Y8.1766I2.7757J0.0000F200.0
G2X8.7757Y5.4009I0.0000J-2.7757
G2X6.0000Y2.6251I-2.7757J0.0000
G2X3.2243Y5.4009I0.0000J2.7757
G1Z-0.1480F100.0
G2X6.0000Y8.1766I2.7757J0.0000F200.0
G2X8.7757Y5.4009I0.0000J-2.7757
G2X6.0000Y2.6251I-2.7757J0.0000
G2X3.2243Y5.4009I0.0000J2.7757
G1Z-0.1603F100.0
G2X6.0000Y8.1766I2.7757J0.0000F200.0
G2X8.7757Y5.4009I0.0000J-2.7757
G2X6.0000Y2.6251I-2.7757J0.0000
G2X3.2243Y5.4009I0.0000J2.7757
G1Z-0.1727F100.0
G2X6.0000Y8.1766I2.7757J0.0000F200.0
G2X8.7757Y5.4009I0.0000J-2.7757
G2X6.0000Y2.6251I-2.7757J0.0000
G2X3.2243Y5.4009I0.0000J2.7757
G1Z-0.1850F100.0
G2X6.0000Y8.1766I2.7757J0.0000F200.0
G2X8.7757Y5.4009I0.0000J-2.7757
G2X6.0000Y2.6251I-2.7757J0.0000
G2X3.2243Y5.4009I0.0000J2.7757
G0Z0.5000
G0Z2.0000
M0
M06T3
G43H3
S18000M03
G0X7.3675Y8.7108
G0Z0.5000
G1Z-0.1850F95.0
G2X9.2675Y10.6108I1.9000J0.0000F100.0
G2X11.1675Y8.7108I0.0000J-1.9000
G2X9.2675Y6.8108I-1.9000J0.0000
G2X7.3675Y8.7108I0.0000J1.9000
G0Z0.5000
G0Z2.0000
M0
M06T2
G43H2
S18000M03
G0X2.9362Y6.9125
G0Z0.5000
G1Z-0.1850F100.0
G2X1.1379Y8.7108I0.0000J1.7983F125.0
G2X2.9362Y10.5091I1.7983J0.0000
G2X4.7345Y8.7108I0.0000J-1.7983
G2X2.9362Y6.9125I-1.7983J0.0000
G0Z0.5000
G0Z2.0000
M0
M06T9
G43H9
S18000M03
G0X5.0919Y5.8381
G0Z0.5000
G1Z-0.0123F100.0
G2X4.3919Y6.5381I0.0000J0.7000F200.0
G2X5.0919Y7.2381I0.7000J0.0000
G2X5.7919Y6.5381I0.0000J-0.7000
G2X5.0919Y5.8381I-0.7000J0.0000
G1Z-0.0247F100.0
G2X4.3919Y6.5381I0.0000J0.7000F200.0
G2X5.0919Y7.2381I0.7000J0.0000
G2X5.7919Y6.5381I0.0000J-0.7000
G2X5.0919Y5.8381I-0.7000J0.0000
G1Z-0.0370F100.0
G2X4.3919Y6.5381I0.0000J0.7000F200.0
G2X5.0919Y7.2381I0.7000J0.0000
G2X5.7919Y6.5381I0.0000J-0.7000
G2X5.0919Y5.8381I-0.7000J0.0000
G1Z-0.0493F100.0
G2X4.3919Y6.5381I0.0000J0.7000F200.0
G2X5.0919Y7.2381I0.7000J0.0000
G2X5.7919Y6.5381I0.0000J-0.7000
G2X5.0919Y5.8381I-0.7000J0.0000
G1Z-0.0617F100.0
G2X4.3919Y6.5381I0.0000J0.7000F200.0
G2X5.0919Y7.2381I0.7000J0.0000
G2X5.7919Y6.5381I0.0000J-0.7000
G2X5.0919Y5.8381I-0.7000J0.0000
G1Z-0.0740F100.0
G2X4.3919Y6.5381I0.0000J0.7000F200.0
G2X5.0919Y7.2381I0.7000J0.0000
G2X5.7919Y6.5381I0.0000J-0.7000
G2X5.0919Y5.8381I-0.7000J0.0000
G1Z-0.0863F100.0
G2X4.3919Y6.5381I0.0000J0.7000F200.0
G2X5.0919Y7.2381I0.7000J0.0000
G2X5.7919Y6.5381I0.0000J-0.7000
G2X5.0919Y5.8381I-0.7000J0.0000
G1Z-0.0987F100.0
G2X4.3919Y6.5381I0.0000J0.7000F200.0
G2X5.0919Y7.2381I0.7000J0.0000
G2X5.7919Y6.5381I0.0000J-0.7000
G2X5.0919Y5.8381I-0.7000J0.0000
G1Z-0.1110F100.0
G2X4.3919Y6.5381I0.0000J0.7000F200.0
G2X5.0919Y7.2381I0.7000J0.0000
G2X5.7919Y6.5381I0.0000J-0.7000
G2X5.0919Y5.8381I-0.7000J0.0000
G1Z-0.1233F100.0
G2X4.3919Y6.5381I0.0000J0.7000F200.0
G2X5.0919Y7.2381I0.7000J0.0000
G2X5.7919Y6.5381I0.0000J-0.7000
G2X5.0919Y5.8381I-0.7000J0.0000
G1Z-0.1357F100.0
G2X4.3919Y6.5381I0.0000J0.7000F200.0
G2X5.0919Y7.2381I0.7000J0.0000
G2X5.7919Y6.5381I0.0000J-0.7000
G2X5.0919Y5.8381I-0.7000J0.0000
G1Z-0.1480F100.0
G2X4.3919Y6.5381I0.0000J0.7000F200.0
G2X5.0919Y7.2381I0.7000J0.0000
G2X5.7919Y6.5381I0.0000J-0.7000
G2X5.0919Y5.8381I-0.7000J0.0000
G1Z-0.1603F100.0
G2X4.3919Y6.5381I0.0000J0.7000F200.0
G2X5.0919Y7.2381I0.7000J0.0000
G2X5.7919Y6.5381I0.0000J-0.7000
G2X5.0919Y5.8381I-0.7000J0.0000
G1Z-0.1727F100.0
G2X4.3919Y6.5381I0.0000J0.7000F200.0
G2X5.0919Y7.2381I0.7000J0.0000
G2X5.7919Y6.5381I0.0000J-0.7000
G2X5.0919Y5.8381I-0.7000J0.0000
G1Z-0.1850F100.0
G2X4.3919Y6.5381I0.0000J0.7000F200.0
G2X5.0919Y7.2381I0.7000J0.0000
G2X5.7919Y6.5381I0.0000J-0.7000
G2X5.0919Y5.8381I-0.7000J0.0000
G0Z0.5000
G0Z2.0000
M0
M06T3
G43H3
S18000M03
G0X6.3550Y6.5381
G0Z0.5000
G1Z-0.1850F95.0
G2X7.0100Y7.1931I0.6550J0.0000F100.0
G2X7.6649Y6.5381I0.0000J-0.6550
G2X7.0100Y5.8831I-0.6550J0.0000
G2X6.3550Y6.5381I0.0000J0.6550
G0Z0.5000
G0Z2.0000
M0
M06T2
G43H2
S18000M03
G0X5.6000Y4.6880
G0Z0.5000
G1Z-0.1850F100.0
G2X6.0000Y5.0880I0.4000J0.0000F125.0
G2X6.4000Y4.6880I0.0000J-0.4000
G2X6.0000Y4.2880I-0.4000J0.0000
G2X5.6000Y4.6880I0.0000J0.4000
G0Z0.5000
G0Z2.0000
G0X0.0000Y0.0000
M30
