(VECTRIC POST REV.)
(C9BFEAB1355AE3F66DEE4C3477420302)
T1M6
G17
G0Z2.0000
G0X0.0000Y0.0000S24000M3
G0X10.8053Y0.0003
G0Z0.5000
G1Z-0.0011F30.0
G1X10.8347Y0.0121Z-0.0018F60.0
X10.8640Y0.0240Z-0.0008
Z0.0200
X10.8632Y0.0574
G1Z-0.0006F30.0
G1X10.8432Y0.0493Z-0.0021F60.0
X10.8033Y0.0332Z-0.0006
X10.7234Y0.0009Z-0.0010
Z0.0200
X10.6407Y0.0013
G1Z-0.0017F30.0
G1X10.8627Y0.0910Z-0.0003F60.0
Z0.0200
X10.8634Y0.1250
G1Z-0.0016F30.0
G1X10.7443Y0.0769Z-0.0009F60.0
X10.5558Y0.0008Z-0.0032
Z0.0200
X10.4728Y0.0010
G1Z-0.0041F30.0
G1X10.6629Y0.0778Z-0.0012F60.0
X10.8430Y0.1506Z-0.0014
X10.8631Y0.1587Z-0.0015
Z0.0200
X10.8628Y0.1924
G1Z-0.0042F30.0
G1X10.8225Y0.1761Z-0.0014F60.0
X10.5407Y0.0622Z-0.0018
X10.4401Y0.0216Z-0.0040
X10.3897Y0.0012Z-0.0039
Z0.0200
X10.3053Y0.0009
G1Z-0.0044F30.0
G1X10.7038Y0.1619Z-0.0006F60.0
X10.8234Y0.2102Z-0.0022
X10.8632Y0.2263Z-0.0010
Z0.0200
X10.8630Y0.2600
G1Z-0.0013F30.0
G1X10.5125Y0.1184Z-0.0016F60.0
X10.2221Y0.0011Z-0.0044
Z0.0200
X10.1389Y0.0012
G1Z-0.0045F30.0
G1X10.4003Y0.1068Z-0.0023F60.0
X10.6617Y0.2124Z-0.0015
X10.8629Y0.2937Z-0.0013
Z0.0200
X10.8631Y0.3276
G1Z-0.0012F30.0
G1X10.7234Y0.2711Z-0.0013F60.0
X10.6635Y0.2469Z-0.0016
X10.3940Y0.1381Z-0.0023
X10.0547Y0.0009Z-0.0046
Z0.0200
X9.9714Y0.0011
G1Z-0.0048F30.0
G1X10.6326Y0.2682Z-0.0010F60.0
X10.6927Y0.2925Z-0.0018
X10.8630Y0.3613Z-0.0011
Z0.0200
X10.8629Y0.3950
G1Z-0.0014F30.0
G1X10.3001Y0.1676Z-0.0025F60.0
X9.9082Y0.0093Z-0.0059
X9.8881Y0.0012Z-0.0067
Z0.0200
X9.8040Y0.0010
G1Z-0.0049F30.0
G1X9.9439Y0.0575Z-0.0068F60.0
X9.9938Y0.0777Z-0.0045
X10.2636Y0.1867Z-0.0035
X10.4634Y0.2674Z-0.0013
X10.8631Y0.4289Z-0.0021
Z0.0200
X10.8630Y0.4626
G1Z-0.0019F30.0
G1X10.3820Y0.2683Z-0.0016F60.0
X10.2618Y0.2197Z-0.0031
X10.0112Y0.1185Z-0.0048
X9.9311Y0.0861Z-0.0060
X9.7206Y0.0011Z-0.0054
Z0.0200
X9.6373Y0.0012
G1Z-0.0125F30.0
G1X9.6674Y0.0133Z-0.0072F60.0
X9.7679Y0.0539Z-0.0053
X9.9587Y0.1310Z-0.0054
X10.0291Y0.1595Z-0.0057
X10.1597Y0.2122Z-0.0029
X10.6519Y0.4111Z-0.0013
X10.7423Y0.4476Z-0.0014
X10.7624Y0.4558Z-0.0030
X10.8227Y0.4801Z-0.0022
X10.8629Y0.4963Z-0.0026
Z0.0200
X10.8631Y0.5302
G1Z-0.0039F30.0
G1X10.6031Y0.4252Z-0.0010F60.0
X10.2832Y0.2959Z-0.0024
X10.2532Y0.2838Z-0.0055
X10.2432Y0.2797Z-0.0027
X10.0732Y0.2111Z-0.0052
X9.9832Y0.1747Z-0.0050
X9.8732Y0.1303Z-0.0046
X9.6733Y0.0495Z-0.0067
X9.6433Y0.0374Z-0.0104
X9.6233Y0.0293Z-0.0150
X9.5733Y0.0091Z-0.0142
X9.5533Y0.0010Z-0.0132
Z0.0200
X9.4699Y0.0011
G1Z-0.0048F30.0
G1X9.5200Y0.0213Z-0.0134F60.0
X9.6102Y0.0578Z-0.0161
X9.6302Y0.0659Z-0.0132
X9.6503Y0.0740Z-0.0083
X9.7104Y0.0983Z-0.0060
X9.9810Y0.2076Z-0.0039
X10.0913Y0.2521Z-0.0053
X10.3719Y0.3655Z-0.0012
X10.7527Y0.5194Z-0.0026
X10.8630Y0.5639Z-0.0048
Z0.0200
X10.8629Y0.5977
G1Z-0.0052F30.0
G1X10.7323Y0.5449Z-0.0039F60.0
X10.5013Y0.4516Z-0.0010
X10.2201Y0.3380Z-0.0028
X10.0895Y0.2852Z-0.0056
X9.9790Y0.2406Z-0.0037
X9.7983Y0.1675Z-0.0044
X9.6576Y0.1107Z-0.0070
X9.6376Y0.1026Z-0.0099
X9.6175Y0.0945Z-0.0161
X9.5773Y0.0783Z-0.0160
X9.4869Y0.0417Z-0.0077
X9.4467Y0.0255Z-0.0051
X9.3865Y0.0011Z-0.0050
Z0.0200
X9.3025Y0.0010
G1Z-0.0048F30.0
G1X9.3626Y0.0253Z-0.0060F60.0
X9.3926Y0.0374Z-0.0109
X9.4126Y0.0455Z-0.0113
X9.4526Y0.0616Z-0.0054
X9.4926Y0.0778Z-0.0082
X9.5326Y0.0940Z-0.0122
X9.6026Y0.1223Z-0.0173
X9.6226Y0.1304Z-0.0131
X9.6427Y0.1384Z-0.0080
X9.8227Y0.2112Z-0.0028
X10.1228Y0.3324Z-0.0045
X10.2228Y0.3728Z-0.0041
X10.2329Y0.3769Z-0.0066
X10.2629Y0.3890Z-0.0030
X10.4529Y0.4658Z-0.0009
X10.6730Y0.5547Z-0.0041
X10.8631Y0.6315Z-0.0060
Z0.0200
X10.8630Y0.6652
G1Z-0.0057F30.0
G1X10.6324Y0.5721Z-0.0050F60.0
X10.4620Y0.5033Z-0.0016
X10.2616Y0.4223Z-0.0033
X10.0711Y0.3453Z-0.0027
X9.7604Y0.2198Z-0.0030
X9.6702Y0.1833Z-0.0066
X9.6401Y0.1712Z-0.0076
X9.6000Y0.1550Z-0.0170
X9.4998Y0.1145Z-0.0098
X9.4697Y0.1023Z-0.0057
X9.4396Y0.0902Z-0.0076
X9.4096Y0.0780Z-0.0152
X9.3895Y0.0699Z-0.0147
X9.3594Y0.0578Z-0.0067
X9.3093Y0.0375Z-0.0055
X9.2793Y0.0254Z-0.0074
X9.2492Y0.0132Z-0.0110
X9.2291Y0.0051Z-0.0103
X9.2191Y0.0011Z-0.0118
Z0.0200
X9.1357Y0.0011
G1Z-0.0087F30.0
G1X9.1658Y0.0133Z-0.0174F60.0
X9.2361Y0.0417Z-0.0191
X9.2562Y0.0498Z-0.0174
X9.2963Y0.0661Z-0.0072
X9.3466Y0.0863Z-0.0061
X9.3666Y0.0945Z-0.0103
X9.3968Y0.1066Z-0.0163
X9.4168Y0.1147Z-0.0150
X9.4570Y0.1310Z-0.0073
X9.4771Y0.1391Z-0.0081
X9.5173Y0.1553Z-0.0141
X9.5675Y0.1756Z-0.0156
X9.5876Y0.1837Z-0.0173
X9.5976Y0.1878Z-0.0161
X9.6277Y0.1999Z-0.0079
X9.7784Y0.2608Z-0.0022
X10.0194Y0.3582Z-0.0027
X10.0696Y0.3785Z-0.0028
X10.3708Y0.5002Z-0.0024
X10.7223Y0.6422Z-0.0064
X10.8629Y0.6990Z-0.0049
Z0.0200
X10.8630Y0.7328
G1Z-0.0040F30.0
G1X10.6929Y0.6641Z-0.0067F60.0
X10.5428Y0.6034Z-0.0082
X10.4728Y0.5751Z-0.0092
X10.3527Y0.5266Z-0.0027
X10.0625Y0.4094Z-0.0025
X10.0425Y0.4013Z-0.0037
X10.0025Y0.3851Z-0.0023
X9.7223Y0.2719Z-0.0029
X9.6522Y0.2436Z-0.0071
X9.6122Y0.2274Z-0.0094
X9.5822Y0.2153Z-0.0164
X9.5321Y0.1951Z-0.0164
X9.5121Y0.1870Z-0.0178
X9.5021Y0.1830Z-0.0169
X9.4721Y0.1708Z-0.0085
X9.4521Y0.1628Z-0.0086
X9.4321Y0.1547Z-0.0151
X9.3920Y0.1385Z-0.0172
X9.3720Y0.1304Z-0.0139
X9.3420Y0.1183Z-0.0076
X9.3220Y0.1102Z-0.0093
X9.3020Y0.1021Z-0.0120
X9.2920Y0.0981Z-0.0117
X9.2519Y0.0819Z-0.0194
X9.1619Y0.0455Z-0.0197
X9.1419Y0.0374Z-0.0154
X9.1218Y0.0293Z-0.0102
X9.0718Y0.0091Z-0.0134
X9.0518Y0.0010Z-0.0104
Z0.0200
X8.9683Y0.0011
G1Z-0.0200F30.0
G1X9.0385Y0.0294Z-0.0171F60.0
X9.0686Y0.0416Z-0.0192
X9.0886Y0.0497Z-0.0162
X9.1087Y0.0578Z-0.0107
X9.1287Y0.0659Z-0.0110
X9.1588Y0.0780Z-0.0194
X9.1889Y0.0902Z-0.0200
X9.2290Y0.1064Z-0.0150
X9.2992Y0.1347Z-0.0173
X9.3292Y0.1469Z-0.0102
X9.3493Y0.1550Z-0.0122
X9.3693Y0.1631Z-0.0170
X9.4194Y0.1833Z-0.0166
X9.4495Y0.1955Z-0.0076
X9.4696Y0.2036Z-0.0093
X9.4996Y0.2157Z-0.0193
X9.5097Y0.2198Z-0.0203
X9.5397Y0.2319Z-0.0162
X9.5798Y0.2481Z-0.0172
X9.6099Y0.2603Z-0.0094
X9.7402Y0.3129Z-0.0017
X10.0009Y0.4183Z-0.0025
X10.3016Y0.5398Z-0.0028
X10.3718Y0.5681Z-0.0056
X10.4319Y0.5924Z-0.0115
X10.5422Y0.6370Z-0.0102
X10.7226Y0.7099Z-0.0051
X10.8630Y0.7666Z-0.0032
Z0.0200
X10.8629Y0.8003
G1Z-0.0027F30.0
G1X10.8328Y0.7881Z-0.0032F60.0
X10.8127Y0.7800Z-0.0044
X10.7926Y0.7719Z-0.0029
X10.5516Y0.6746Z-0.0087
X10.4512Y0.6340Z-0.0109
X10.3709Y0.6015Z-0.0046
X10.2805Y0.5650Z-0.0023
X10.0094Y0.4555Z-0.0026
X9.7183Y0.3378Z-0.0020
X9.6580Y0.3135Z-0.0060
X9.6078Y0.2932Z-0.0094
X9.5677Y0.2770Z-0.0184
X9.5275Y0.2608Z-0.0174
X9.4974Y0.2486Z-0.0195
X9.4572Y0.2324Z-0.0109
X9.4371Y0.2243Z-0.0116
X9.3970Y0.2080Z-0.0160
X9.3568Y0.1918Z-0.0162
X9.3367Y0.1837Z-0.0121
X9.3066Y0.1715Z-0.0161
X9.2664Y0.1553Z-0.0115
X9.2464Y0.1472Z-0.0090
X9.2263Y0.1391Z-0.0115
X9.2062Y0.1310Z-0.0180
X9.1660Y0.1147Z-0.0210
X9.1359Y0.1026Z-0.0185
X9.1158Y0.0944Z-0.0157
X9.0757Y0.0782Z-0.0180
X9.0355Y0.0620Z-0.0114
X8.9853Y0.0417Z-0.0142
X8.9451Y0.0255Z-0.0210
X8.9050Y0.0093Z-0.0208
X8.8849Y0.0011Z-0.0157
Z0.0200
X8.8010Y0.0010
G1Z-0.0198F30.0
G1X8.8511Y0.0213Z-0.0184F60.0
X8.8711Y0.0293Z-0.0169
X8.9011Y0.0415Z-0.0216
X8.9512Y0.0617Z-0.0205
X9.0112Y0.0860Z-0.0089
X9.0513Y0.1021Z-0.0098
X9.0913Y0.1183Z-0.0138
X9.1214Y0.1305Z-0.0199
X9.1814Y0.1547Z-0.0197
X9.2415Y0.1790Z-0.0078
X9.2915Y0.1992Z-0.0098
X9.3316Y0.2154Z-0.0173
X9.3616Y0.2275Z-0.0172
X9.4016Y0.2437Z-0.0102
X9.4216Y0.2518Z-0.0131
X9.4517Y0.2639Z-0.0125
X9.4817Y0.2760Z-0.0209
X9.5017Y0.2841Z-0.0221
X9.5317Y0.2963Z-0.0185
X9.5618Y0.3084Z-0.0200
X9.6018Y0.3246Z-0.0101
X9.7119Y0.3691Z-0.0023
X9.9221Y0.4540Z-0.0018
X10.3626Y0.6319Z-0.0026
X10.4526Y0.6683Z-0.0061
X10.5027Y0.6885Z-0.0081
X10.7930Y0.8058Z-0.0023
X10.8630Y0.8341Z-0.0019
Z0.0200
X10.8630Y0.8679
G1Z-0.0016F30.0
G1X10.6224Y0.7707Z-0.0035F60.0
X10.5221Y0.7302Z-0.0056
X10.3517Y0.6613Z-0.0018
X9.9306Y0.4912Z-0.0017
X9.6900Y0.3940Z-0.0037
X9.5998Y0.3575Z-0.0097
X9.5497Y0.3373Z-0.0203
X9.5196Y0.3251Z-0.0194
X9.4895Y0.3130Z-0.0230
X9.4594Y0.3008Z-0.0198
X9.4394Y0.2927Z-0.0127
X9.4093Y0.2806Z-0.0103
X9.3993Y0.2765Z-0.0079
X9.3893Y0.2725Z-0.0079
X9.3492Y0.2563Z-0.0177
X9.3091Y0.2401Z-0.0147
X9.2890Y0.2320Z-0.0100
X9.2489Y0.2158Z-0.0079
X9.2088Y0.1996Z-0.0133
X9.1787Y0.1874Z-0.0192
X9.1186Y0.1631Z-0.0197
X9.0785Y0.1469Z-0.0110
X9.0284Y0.1267Z-0.0087
X8.9883Y0.1105Z-0.0122
X8.9482Y0.0942Z-0.0204
X8.8780Y0.0659Z-0.0214
X8.8178Y0.0416Z-0.0164
X8.7878Y0.0294Z-0.0142
X8.7577Y0.0173Z-0.0119
X8.7276Y0.0051Z-0.0145
X8.7176Y0.0011Z-0.0167
Z0.0200
X8.6341Y0.0011
G1Z-0.0225F30.0
G1X8.6843Y0.0214Z-0.0214F60.0
X8.7646Y0.0539Z-0.0095
X8.8249Y0.0782Z-0.0112
X8.8650Y0.0944Z-0.0202
X8.9152Y0.1147Z-0.0212
X8.9755Y0.1391Z-0.0182
X9.0256Y0.1593Z-0.0146
X9.0558Y0.1715Z-0.0101
X9.0758Y0.1796Z-0.0104
X9.1160Y0.1958Z-0.0203
X9.1461Y0.2080Z-0.0195
X9.1963Y0.2283Z-0.0137
X9.2365Y0.2445Z-0.0133
X9.2666Y0.2567Z-0.0087
X9.2867Y0.2648Z-0.0110
X9.3168Y0.2770Z-0.0163
X9.3469Y0.2891Z-0.0175
X9.3570Y0.2932Z-0.0160
X9.3770Y0.3013Z-0.0092
X9.3971Y0.3094Z-0.0075
X9.4272Y0.3216Z-0.0144
X9.4574Y0.3338Z-0.0217
X9.5076Y0.3540Z-0.0223
X9.5477Y0.3703Z-0.0191
X9.5879Y0.3865Z-0.0107
X9.6983Y0.4311Z-0.0040
X9.9995Y0.5528Z-0.0011
X10.3609Y0.6988Z-0.0020
X10.5718Y0.7840Z-0.0030
X10.6722Y0.8246Z-0.0016
X10.8629Y0.9016Z-0.0011
Z0.0200
X10.8630Y0.9355
G1Z-0.0012F30.0
G1X10.1322Y0.6402Z-0.0019F60.0
X9.8719Y0.5350Z-0.0021
X9.6716Y0.4541Z-0.0053
X9.5815Y0.4177Z-0.0111
X9.5314Y0.3975Z-0.0222
X9.4914Y0.3813Z-0.0243
X9.4313Y0.3570Z-0.0183
X9.4013Y0.3449Z-0.0079
X9.3713Y0.3327Z-0.0096
X9.3312Y0.3166Z-0.0165
X9.3012Y0.3044Z-0.0160
X9.2711Y0.2923Z-0.0105
X9.2411Y0.2802Z-0.0144
X9.2011Y0.2640Z-0.0097
X9.1810Y0.2559Z-0.0119
X9.1510Y0.2437Z-0.0196
X9.1110Y0.2276Z-0.0191
X9.0809Y0.2154Z-0.0122
X9.0609Y0.2073Z-0.0137
X9.0208Y0.1912Z-0.0190
X8.9908Y0.1790Z-0.0172
X8.9608Y0.1669Z-0.0165
X8.8907Y0.1386Z-0.0219
X8.8607Y0.1264Z-0.0218
X8.8206Y0.1103Z-0.0123
X8.7806Y0.0941Z-0.0095
X8.7205Y0.0698Z-0.0131
X8.6804Y0.0536Z-0.0218
X8.6003Y0.0213Z-0.0223
X8.5503Y0.0010Z-0.0199
Z0.0200
X8.4668Y0.0011
G1Z-0.0128F30.0
G1X8.4969Y0.0132Z-0.0109F60.0
X8.5570Y0.0375Z-0.0132
X8.5871Y0.0497Z-0.0207
X8.6573Y0.0781Z-0.0219
X8.7074Y0.0983Z-0.0202
X8.7375Y0.1105Z-0.0168
X8.7576Y0.1186Z-0.0170
X8.8077Y0.1388Z-0.0112
X8.8277Y0.1469Z-0.0134
X8.8478Y0.1550Z-0.0185
X8.8979Y0.1753Z-0.0206
X8.9180Y0.1834Z-0.0199
X8.9581Y0.1996Z-0.0116
X8.9781Y0.2077Z-0.0116
X9.0082Y0.2198Z-0.0172
X9.0784Y0.2482Z-0.0179
X9.1085Y0.2603Z-0.0210
X9.1486Y0.2765Z-0.0193
X9.1987Y0.2968Z-0.0084
X9.2288Y0.3089Z-0.0096
X9.3090Y0.3413Z-0.0171
X9.3290Y0.3495Z-0.0144
X9.3491Y0.3576Z-0.0112
X9.3892Y0.3738Z-0.0093
X9.4293Y0.3900Z-0.0191
X9.4594Y0.4021Z-0.0196
X9.4794Y0.4102Z-0.0236
X9.5295Y0.4305Z-0.0233
X9.5696Y0.4467Z-0.0123
X9.6298Y0.4710Z-0.0070
X9.7802Y0.5317Z-0.0033
X10.1612Y0.6857Z-0.0016
X10.3216Y0.7505Z-0.0022
X10.4319Y0.7950Z-0.0019
X10.4519Y0.8031Z-0.0037
X10.4619Y0.8072Z-0.0017
X10.8630Y0.9692Z-0.0015
Z0.0200
X10.8629Y1.0030
G1Z-0.0017F30.0
G1X10.3610Y0.8002Z-0.0024F60.0
X10.0197Y0.6623Z-0.0023
X9.6984Y0.5325Z-0.0053
X9.5980Y0.4919Z-0.0087
X9.5579Y0.4757Z-0.0139
X9.5177Y0.4595Z-0.0255
X9.4876Y0.4473Z-0.0249
X9.4474Y0.4311Z-0.0162
X9.4073Y0.4148Z-0.0168
X9.3772Y0.4027Z-0.0113
X9.3571Y0.3946Z-0.0112
X9.3470Y0.3905Z-0.0089
X9.3370Y0.3865Z-0.0096
X9.3069Y0.3743Z-0.0169
X9.2768Y0.3621Z-0.0158
X9.2366Y0.3459Z-0.0068
X9.1965Y0.3297Z-0.0072
X9.1664Y0.3175Z-0.0117
X9.1362Y0.3053Z-0.0195
X9.1061Y0.2932Z-0.0205
X9.0860Y0.2851Z-0.0174
X9.0559Y0.2729Z-0.0169
X9.0258Y0.2607Z-0.0107
X8.9656Y0.2364Z-0.0085
X8.9053Y0.2120Z-0.0194
X8.8451Y0.1877Z-0.0206
X8.8150Y0.1755Z-0.0140
X8.7748Y0.1593Z-0.0204
X8.7246Y0.1390Z-0.0214
X8.6845Y0.1228Z-0.0184
X8.6243Y0.0985Z-0.0214
X8.5841Y0.0823Z-0.0209
X8.5439Y0.0660Z-0.0126
X8.5038Y0.0498Z-0.0103
X8.4636Y0.0336Z-0.0118
X8.4335Y0.0214Z-0.0167
X8.4134Y0.0133Z-0.0211
X8.3833Y0.0011Z-0.0226
Z0.0200
X8.2995Y0.0011
G1Z-0.0184F30.0
G1X8.3296Y0.0132Z-0.0233F60.0
X8.4097Y0.0456Z-0.0217
X8.4597Y0.0658Z-0.0143
X8.5098Y0.0860Z-0.0125
X8.5399Y0.0982Z-0.0128
X8.5699Y0.1103Z-0.0196
X8.5999Y0.1224Z-0.0213
X8.6400Y0.1386Z-0.0204
X8.6700Y0.1507Z-0.0151
X8.7001Y0.1629Z-0.0135
X8.7301Y0.1750Z-0.0192
X8.8803Y0.2357Z-0.0213
X8.9104Y0.2478Z-0.0171
X8.9404Y0.2600Z-0.0085
X9.0205Y0.2923Z-0.0067
X9.0606Y0.3085Z-0.0104
X9.0806Y0.3166Z-0.0108
X9.1106Y0.3288Z-0.0177
X9.1307Y0.3369Z-0.0167
X9.1607Y0.3490Z-0.0084
X9.2008Y0.3652Z-0.0058
X9.2508Y0.3854Z-0.0076
X9.3009Y0.4056Z-0.0159
X9.3209Y0.4137Z-0.0135
X9.3409Y0.4218Z-0.0095
X9.3810Y0.4380Z-0.0160
X9.4311Y0.4582Z-0.0144
X9.4611Y0.4704Z-0.0197
X9.4911Y0.4825Z-0.0255
X9.5212Y0.4946Z-0.0244
X9.5512Y0.5068Z-0.0149
X9.5913Y0.5230Z-0.0088
X9.7515Y0.5877Z-0.0041
X10.2522Y0.7900Z-0.0020
X10.4625Y0.8749Z-0.0015
X10.8630Y1.0368Z-0.0017
Z0.0200
X10.8630Y1.0705
G1Z-0.0015F30.0
G1X10.6725Y0.9936Z-0.0020F60.0
X10.5321Y0.9368Z-0.0015
X10.3015Y0.8437Z-0.0022
X9.7801Y0.6330Z-0.0043
X9.6197Y0.5682Z-0.0073
X9.5596Y0.5439Z-0.0139
X9.5094Y0.5237Z-0.0255
X9.4793Y0.5115Z-0.0243
X9.4392Y0.4953Z-0.0156
X9.3991Y0.4791Z-0.0137
X9.3691Y0.4669Z-0.0157
X9.3490Y0.4588Z-0.0093
X9.3290Y0.4507Z-0.0083
X9.3089Y0.4426Z-0.0113
X9.2387Y0.4143Z-0.0051
X9.1485Y0.3778Z-0.0067
X9.1184Y0.3657Z-0.0102
X9.0683Y0.3454Z-0.0068
X8.9480Y0.2968Z-0.0067
X8.9078Y0.2806Z-0.0121
X8.8778Y0.2685Z-0.0205
X8.7976Y0.2360Z-0.0191
X8.7474Y0.2158Z-0.0127
X8.7274Y0.2077Z-0.0126
X8.6973Y0.1955Z-0.0106
X8.6672Y0.1834Z-0.0136
X8.6371Y0.1712Z-0.0197
X8.5670Y0.1429Z-0.0213
X8.5369Y0.1307Z-0.0145
X8.4567Y0.0983Z-0.0209
X8.3564Y0.0578Z-0.0223
X8.3163Y0.0416Z-0.0225
X8.3063Y0.0376Z-0.0211
X8.2862Y0.0294Z-0.0145
X8.2160Y0.0011Z-0.0111
Z0.0200
X8.1325Y0.0011
G1Z-0.0222F30.0
G1X8.1727Y0.0174Z-0.0137F60.0
X8.2329Y0.0417Z-0.0123
X8.2731Y0.0579Z-0.0154
X8.3032Y0.0701Z-0.0212
X8.3333Y0.0822Z-0.0226
X8.3835Y0.1025Z-0.0171
X8.4236Y0.1187Z-0.0154
X8.4538Y0.1309Z-0.0207
X8.5843Y0.1836Z-0.0225
X8.6244Y0.1999Z-0.0209
X8.6746Y0.2201Z-0.0109
X8.7047Y0.2323Z-0.0082
X8.7348Y0.2445Z-0.0091
X8.7649Y0.2566Z-0.0096
X8.7951Y0.2688Z-0.0125
X8.8252Y0.2810Z-0.0117
X8.8553Y0.2931Z-0.0165
X8.8754Y0.3013Z-0.0166
X8.9155Y0.3175Z-0.0068
X9.0862Y0.3864Z-0.0056
X9.2869Y0.4675Z-0.0059
X9.3472Y0.4919Z-0.0073
X9.3873Y0.5081Z-0.0134
X9.4074Y0.5162Z-0.0132
X9.4375Y0.5284Z-0.0179
X9.4676Y0.5405Z-0.0252
X9.5078Y0.5568Z-0.0251
X9.5881Y0.5892Z-0.0120
X9.6483Y0.6135Z-0.0074
X9.8390Y0.6906Z-0.0043
X10.0298Y0.7677Z-0.0029
X10.2707Y0.8650Z-0.0018
X10.5015Y0.9583Z-0.0018
X10.8629Y1.1043Z-0.0014
Z0.0200
X10.8630Y1.1381
G1Z-0.0015F30.0
G1X10.5225Y1.0005Z-0.0020F60.0
X10.2621Y0.8953Z-0.0025
X9.8915Y0.7456Z-0.0038
X9.6712Y0.6566Z-0.0094
X9.6111Y0.6323Z-0.0115
X9.5310Y0.5999Z-0.0213
X9.5010Y0.5878Z-0.0252
X9.4509Y0.5675Z-0.0236
X9.4008Y0.5473Z-0.0120
X9.3708Y0.5352Z-0.0098
X9.3407Y0.5230Z-0.0057
X8.9301Y0.3571Z-0.0053
X8.8400Y0.3207Z-0.0075
X8.7999Y0.3045Z-0.0070
X8.6797Y0.2560Z-0.0085
X8.6497Y0.2438Z-0.0116
X8.6096Y0.2277Z-0.0197
X8.5796Y0.2155Z-0.0224
X8.4994Y0.1831Z-0.0208
X8.4694Y0.1710Z-0.0169
X8.4394Y0.1589Z-0.0151
X8.4093Y0.1467Z-0.0111
X8.3893Y0.1386Z-0.0128
X8.3592Y0.1265Z-0.0202
X8.3192Y0.1103Z-0.0227
X8.2891Y0.0982Z-0.0205
X8.2491Y0.0820Z-0.0127
X8.2190Y0.0698Z-0.0152
X8.1890Y0.0577Z-0.0199
X8.0988Y0.0213Z-0.0231
X8.0488Y0.0011Z-0.0239
Z0.0200
X7.9653Y0.0011
G1Z-0.0117F30.0
G1X7.9853Y0.0092Z-0.0142F60.0
X8.0054Y0.0173Z-0.0210
X8.0555Y0.0376Z-0.0237
X8.1157Y0.0619Z-0.0207
X8.1758Y0.0862Z-0.0225
X8.2059Y0.0983Z-0.0222
X8.2460Y0.1145Z-0.0142
X8.2761Y0.1267Z-0.0208
X8.3363Y0.1510Z-0.0212
X8.4165Y0.1834Z-0.0085
X8.4766Y0.2077Z-0.0128
X8.4967Y0.2158Z-0.0177
X8.5669Y0.2442Z-0.0195
X8.5869Y0.2523Z-0.0202
X8.6370Y0.2725Z-0.0093
X8.7473Y0.3171Z-0.0061
X9.2687Y0.5277Z-0.0049
X9.3690Y0.5682Z-0.0074
X9.3890Y0.5763Z-0.0090
X9.4091Y0.5844Z-0.0105
X9.4392Y0.5966Z-0.0201
X9.4592Y0.6047Z-0.0222
X9.5094Y0.6250Z-0.0241
X9.5495Y0.6412Z-0.0194
X9.6497Y0.6817Z-0.0117
X9.7600Y0.7262Z-0.0075
X9.9906Y0.8194Z-0.0028
X10.3316Y0.9571Z-0.0019
X10.5822Y1.0584Z-0.0016
X10.8630Y1.1718Z-0.0017
Z0.0200
X10.8629Y1.2056
G1Z-0.0013F30.0
G1X10.4413Y1.0353Z-0.0016F60.0
X10.1904Y0.9339Z-0.0024
X9.9696Y0.8447Z-0.0036
X9.7387Y0.7514Z-0.0073
X9.6183Y0.7027Z-0.0162
X9.5380Y0.6703Z-0.0193
X9.4878Y0.6500Z-0.0202
X9.3974Y0.6135Z-0.0073
X9.2268Y0.5446Z-0.0047
X8.7952Y0.3702Z-0.0052
X8.6346Y0.3053Z-0.0073
X8.5844Y0.2850Z-0.0144
X8.5543Y0.2728Z-0.0120
X8.5242Y0.2607Z-0.0096
X8.4840Y0.2445Z-0.0085
X8.4037Y0.2120Z-0.0085
X8.3636Y0.1958Z-0.0114
X8.3335Y0.1836Z-0.0207
X8.2732Y0.1593Z-0.0228
X8.1628Y0.1147Z-0.0219
X8.1227Y0.0985Z-0.0153
X8.0825Y0.0822Z-0.0179
X8.0624Y0.0741Z-0.0193
X8.0323Y0.0620Z-0.0227
X7.9821Y0.0417Z-0.0196
X7.9621Y0.0336Z-0.0165
X7.9119Y0.0133Z-0.0102
X7.8818Y0.0011Z-0.0105
Z0.0200
X7.7980Y0.0011
G1Z-0.0156F30.0
G1X7.8280Y0.0132Z-0.0113F60.0
X7.8581Y0.0253Z-0.0146
X7.8881Y0.0375Z-0.0112
X7.9182Y0.0496Z-0.0127
X7.9382Y0.0577Z-0.0131
X7.9583Y0.0658Z-0.0192
X8.0284Y0.0941Z-0.0220
X8.0484Y0.1022Z-0.0216
X8.0885Y0.1184Z-0.0140
X8.1185Y0.1306Z-0.0123
X8.1486Y0.1427Z-0.0170
X8.1686Y0.1508Z-0.0164
X8.1987Y0.1629Z-0.0202
X8.2387Y0.1791Z-0.0222
X8.2988Y0.2034Z-0.0223
X8.3789Y0.2358Z-0.0079
X8.6394Y0.3410Z-0.0063
X8.8097Y0.4098Z-0.0048
X9.2203Y0.5757Z-0.0044
X9.4006Y0.6486Z-0.0064
X9.4707Y0.6769Z-0.0125
X9.4908Y0.6850Z-0.0158
X9.5208Y0.6971Z-0.0172
X9.6009Y0.7295Z-0.0186
X9.6410Y0.7457Z-0.0150
X9.7011Y0.7700Z-0.0085
X9.8413Y0.8266Z-0.0040
X10.2420Y0.9885Z-0.0025
X10.4123Y1.0573Z-0.0020
X10.6827Y1.1666Z-0.0016
X10.8630Y1.2394Z-0.0013
Z0.0200
X10.8630Y1.2732
G1Z-0.0014F30.0
G1X10.5120Y1.1314Z-0.0015F60.0
X10.2112Y1.0098Z-0.0022
X10.0508Y0.9450Z-0.0032
X9.7700Y0.8316Z-0.0051
X9.6698Y0.7911Z-0.0091
X9.6296Y0.7749Z-0.0135
X9.5895Y0.7587Z-0.0196
X9.5294Y0.7344Z-0.0170
X9.4792Y0.7141Z-0.0079
X9.2887Y0.6371Z-0.0046
X8.8074Y0.4427Z-0.0042
X8.3662Y0.2644Z-0.0076
X8.3362Y0.2523Z-0.0090
X8.3161Y0.2442Z-0.0149
X8.2961Y0.2361Z-0.0217
X8.2559Y0.2199Z-0.0208
X8.1958Y0.1956Z-0.0173
X8.1757Y0.1874Z-0.0124
X8.1256Y0.1672Z-0.0110
X8.0955Y0.1550Z-0.0102
X8.0454Y0.1348Z-0.0191
X7.9752Y0.1064Z-0.0208
X7.9451Y0.0943Z-0.0166
X7.9251Y0.0862Z-0.0113
X7.8850Y0.0700Z-0.0134
X7.8549Y0.0578Z-0.0181
X7.8248Y0.0457Z-0.0165
X7.7847Y0.0295Z-0.0220
X7.7145Y0.0011Z-0.0222
Z0.0200
X7.6310Y0.0011
G1Z-0.0218F30.0
G1X7.6611Y0.0133Z-0.0208F60.0
X7.6912Y0.0255Z-0.0221
X7.7615Y0.0538Z-0.0214
X7.8719Y0.0985Z-0.0205
X7.9120Y0.1147Z-0.0135
X7.9722Y0.1390Z-0.0219
X8.0124Y0.1552Z-0.0205
X8.0425Y0.1674Z-0.0143
X8.1128Y0.1958Z-0.0082
X8.1328Y0.2039Z-0.0113
X8.1730Y0.2201Z-0.0090
X8.2131Y0.2363Z-0.0129
X8.2432Y0.2485Z-0.0135
X8.2734Y0.2607Z-0.0170
X8.2934Y0.2688Z-0.0160
X8.3336Y0.2850Z-0.0069
X8.4641Y0.3377Z-0.0059
X8.6146Y0.3985Z-0.0060
X8.8154Y0.4796Z-0.0041
X9.3373Y0.6905Z-0.0048
X9.4979Y0.7554Z-0.0069
X9.5280Y0.7676Z-0.0119
X9.5581Y0.7797Z-0.0176
X9.5782Y0.7878Z-0.0187
X9.6384Y0.8122Z-0.0103
X9.7087Y0.8406Z-0.0060
X9.9395Y0.9338Z-0.0034
X10.1001Y0.9987Z-0.0026
X10.5317Y1.1731Z-0.0017
X10.7626Y1.2664Z-0.0014
X10.8629Y1.3069Z-0.0013
Z0.0200
X10.8630Y1.3407
G1Z-0.0011F30.0
G1X10.3621Y1.1384Z-0.0021F60.0
X10.1117Y1.0372Z-0.0027
X9.7210Y0.8793Z-0.0056
X9.6409Y0.8470Z-0.0085
X9.5708Y0.8186Z-0.0164
X9.5507Y0.8105Z-0.0144
X9.5207Y0.7984Z-0.0073
X9.4405Y0.7660Z-0.0049
X8.8796Y0.5394Z-0.0042
X8.6792Y0.4584Z-0.0041
X8.6491Y0.4463Z-0.0069
X8.6091Y0.4301Z-0.0049
X8.3386Y0.3208Z-0.0057
X8.2585Y0.2884Z-0.0095
X8.2184Y0.2722Z-0.0074
X8.0982Y0.2237Z-0.0082
X8.0581Y0.2075Z-0.0086
X8.0281Y0.1953Z-0.0158
X8.0080Y0.1872Z-0.0201
X7.9379Y0.1589Z-0.0220
X7.7977Y0.1022Z-0.0220
X7.7376Y0.0780Z-0.0177
X7.6474Y0.0415Z-0.0226
X7.5973Y0.0213Z-0.0185
X7.5572Y0.0051Z-0.0109
X7.5472Y0.0011Z-0.0106
Z0.0200
X7.4637Y0.0011
G1Z-0.0092F30.0
G1X7.4938Y0.0133Z-0.0092F60.0
X7.5239Y0.0254Z-0.0115
X7.5439Y0.0335Z-0.0096
X7.5640Y0.0416Z-0.0128
X7.5740Y0.0457Z-0.0172
X7.5941Y0.0538Z-0.0208
X7.6442Y0.0740Z-0.0206
X7.6843Y0.0902Z-0.0151
X7.7244Y0.1064Z-0.0139
X7.7345Y0.1105Z-0.0124
X7.7545Y0.1186Z-0.0156
X7.7846Y0.1307Z-0.0192
X7.8147Y0.1429Z-0.0200
X7.8548Y0.1591Z-0.0196
X7.8748Y0.1672Z-0.0229
X7.9350Y0.1915Z-0.0214
X7.9751Y0.2077Z-0.0206
X8.0353Y0.2320Z-0.0109
X8.0553Y0.2401Z-0.0075
X8.2458Y0.3171Z-0.0064
X8.2759Y0.3293Z-0.0066
X8.4063Y0.3819Z-0.0045
X8.8074Y0.5440Z-0.0039
X8.8274Y0.5521Z-0.0053
X8.8876Y0.5764Z-0.0035
X9.5093Y0.8276Z-0.0050
X9.5293Y0.8357Z-0.0085
X9.5494Y0.8438Z-0.0158
X9.5694Y0.8519Z-0.0163
X9.6396Y0.8802Z-0.0071
X9.7399Y0.9207Z-0.0050
X9.7600Y0.9288Z-0.0067
X9.7800Y0.9369Z-0.0043
X10.3215Y1.1557Z-0.0020
X10.5822Y1.2610Z-0.0018
X10.8630Y1.3745Z-0.0013
Z0.0200
X10.8629Y1.4082
G1Z-0.0013F30.0
G1X10.1202Y1.1082Z-0.0027F60.0
X9.7388Y0.9541Z-0.0047
X9.6284Y0.9095Z-0.0064
X9.5481Y0.8770Z-0.0175
X9.5381Y0.8730Z-0.0155
X9.5180Y0.8649Z-0.0062
X9.4176Y0.8243Z-0.0047
X8.8355Y0.5891Z-0.0040
X8.5143Y0.4594Z-0.0043
X8.3236Y0.3823Z-0.0054
X8.0527Y0.2728Z-0.0064
X8.0025Y0.2525Z-0.0094
X7.9824Y0.2444Z-0.0133
X7.9623Y0.2363Z-0.0197
X7.9523Y0.2323Z-0.0211
X7.9222Y0.2201Z-0.0184
X7.8620Y0.1958Z-0.0207
X7.8218Y0.1796Z-0.0170
X7.8017Y0.1714Z-0.0128
X7.7716Y0.1593Z-0.0148
X7.7315Y0.1431Z-0.0099
X7.6813Y0.1228Z-0.0124
X7.6612Y0.1147Z-0.0190
X7.6412Y0.1066Z-0.0205
X7.6010Y0.0903Z-0.0198
X7.5709Y0.0782Z-0.0188
X7.5207Y0.0579Z-0.0159
X7.4906Y0.0457Z-0.0087
X7.4003Y0.0092Z-0.0119
X7.3802Y0.0011Z-0.0145
Z0.0200
X7.2965Y0.0011
G1Z-0.0228F30.0
G1X7.3466Y0.0213Z-0.0183F60.0
X7.3766Y0.0334Z-0.0119
X7.3966Y0.0415Z-0.0107
X7.4167Y0.0496Z-0.0140
X7.4367Y0.0577Z-0.0125
X7.4568Y0.0658Z-0.0104
X7.4768Y0.0739Z-0.0125
X7.4968Y0.0820Z-0.0109
X7.5269Y0.0942Z-0.0195
X7.5870Y0.1185Z-0.0209
X7.6371Y0.1387Z-0.0188
X7.6972Y0.1630Z-0.0088
X7.7273Y0.1751Z-0.0084
X7.7473Y0.1832Z-0.0115
X7.7974Y0.2035Z-0.0102
X7.8475Y0.2237Z-0.0156
X7.8775Y0.2358Z-0.0153
X7.9176Y0.2520Z-0.0176
X7.9376Y0.2601Z-0.0173
X7.9877Y0.2804Z-0.0072
X8.3784Y0.4382Z-0.0039
X9.0397Y0.7054Z-0.0039
X9.1899Y0.7661Z-0.0040
X9.5005Y0.8916Z-0.0051
X9.5205Y0.8997Z-0.0085
X9.5306Y0.9037Z-0.0141
X9.5406Y0.9077Z-0.0168
X9.5706Y0.9199Z-0.0139
X9.6307Y0.9442Z-0.0060
X9.9313Y1.0656Z-0.0036
X10.1216Y1.1425Z-0.0029
X10.3721Y1.2437Z-0.0017
X10.8630Y1.4420Z-0.0016
Z0.0200
X10.8630Y1.4758
G1Z-0.0015F30.0
G1X10.1109Y1.1719Z-0.0026F60.0
X9.8000Y1.0464Z-0.0036
X9.6496Y0.9856Z-0.0053
X9.5995Y0.9653Z-0.0084
X9.5494Y0.9451Z-0.0152
X9.5293Y0.9370Z-0.0139
X9.5092Y0.9289Z-0.0067
X9.4792Y0.9167Z-0.0047
X8.6469Y0.5804Z-0.0034
X8.4162Y0.4873Z-0.0031
X8.2959Y0.4386Z-0.0044
X8.1154Y0.3657Z-0.0049
X7.9851Y0.3131Z-0.0060
X7.9450Y0.2968Z-0.0086
X7.9249Y0.2887Z-0.0118
X7.8547Y0.2604Z-0.0079
X7.8146Y0.2442Z-0.0114
X7.7845Y0.2320Z-0.0069
X7.7444Y0.2158Z-0.0089
X7.7143Y0.2037Z-0.0069
X7.6542Y0.1794Z-0.0129
X7.6341Y0.1713Z-0.0158
X7.6040Y0.1591Z-0.0172
X7.5639Y0.1429Z-0.0206
X7.5338Y0.1307Z-0.0209
X7.5138Y0.1226Z-0.0181
X7.4937Y0.1145Z-0.0108
X7.4636Y0.1024Z-0.0113
X7.4135Y0.0821Z-0.0185
X7.3834Y0.0700Z-0.0171
X7.3333Y0.0497Z-0.0205
X7.2932Y0.0335Z-0.0207
X7.2129Y0.0011Z-0.0232
Z0.0200
X7.1294Y0.0011
G1Z-0.0186F30.0
G1X7.1495Y0.0092Z-0.0211F60.0
X7.2097Y0.0336Z-0.0205
X7.2499Y0.0498Z-0.0215
X7.3101Y0.0741Z-0.0231
X7.3603Y0.0944Z-0.0201
X7.4305Y0.1228Z-0.0203
X7.4707Y0.1390Z-0.0141
X7.4907Y0.1471Z-0.0169
X7.5309Y0.1633Z-0.0215
X7.5710Y0.1795Z-0.0198
X7.5911Y0.1877Z-0.0197
X7.6312Y0.2039Z-0.0096
X7.6714Y0.2201Z-0.0080
X7.7316Y0.2444Z-0.0061
X7.7617Y0.2566Z-0.0065
X7.8320Y0.2850Z-0.0068
X8.1130Y0.3985Z-0.0041
X8.2234Y0.4431Z-0.0037
X8.2334Y0.4472Z-0.0052
X8.2635Y0.4593Z-0.0037
X8.6148Y0.6013Z-0.0039
X8.9761Y0.7472Z-0.0037
X9.4578Y0.9419Z-0.0055
X9.5080Y0.9621Z-0.0061
X9.5381Y0.9743Z-0.0140
X9.5582Y0.9824Z-0.0135
X9.6184Y1.0067Z-0.0065
X9.6586Y1.0230Z-0.0057
X9.7690Y1.0676Z-0.0035
X9.9296Y1.1325Z-0.0036
X9.9496Y1.1406Z-0.0052
X9.9898Y1.1568Z-0.0035
X10.3210Y1.2906Z-0.0016
X10.8629Y1.5096Z-0.0016
Z0.0200
X10.8630Y1.5434
G1Z-0.0016F30.0
G1X10.0915Y1.2317Z-0.0022F60.0
X9.7008Y1.0738Z-0.0038
X9.6807Y1.0657Z-0.0082
X9.6707Y1.0616Z-0.0038
X9.5705Y1.0212Z-0.0120
X9.5405Y1.0090Z-0.0143
X9.5204Y1.0009Z-0.0111
X9.5004Y0.9928Z-0.0066
X9.4503Y0.9726Z-0.0096
X9.4202Y0.9604Z-0.0105
X9.4002Y0.9524Z-0.0124
X9.3701Y0.9402Z-0.0130
X9.3401Y0.9281Z-0.0080
X9.2900Y0.9078Z-0.0053
X8.7389Y0.6852Z-0.0037
X8.0777Y0.4180Z-0.0034
X7.7871Y0.3006Z-0.0056
X7.6969Y0.2642Z-0.0066
X7.6569Y0.2480Z-0.0061
X7.6268Y0.2359Z-0.0083
X7.5767Y0.2156Z-0.0189
X7.4364Y0.1589Z-0.0216
X7.3663Y0.1306Z-0.0214
X7.3363Y0.1185Z-0.0220
X7.2862Y0.0982Z-0.0192
X7.2461Y0.0820Z-0.0212
X7.2160Y0.0699Z-0.0233
X7.1559Y0.0456Z-0.0195
X7.1158Y0.0294Z-0.0133
X7.0758Y0.0132Z-0.0138
X7.0457Y0.0011Z-0.0109
Z0.0200
X6.9622Y0.0011
G1Z-0.0176F30.0
G1X7.0324Y0.0295Z-0.0091F60.0
X7.1126Y0.0619Z-0.0112
X7.1527Y0.0781Z-0.0211
X7.2028Y0.0983Z-0.0223
X7.2931Y0.1348Z-0.0151
X7.3232Y0.1470Z-0.0197
X7.3934Y0.1753Z-0.0206
X7.4134Y0.1834Z-0.0200
X7.4435Y0.1956Z-0.0221
X7.5037Y0.2199Z-0.0198
X7.5237Y0.2280Z-0.0210
X7.5538Y0.2401Z-0.0159
X7.5739Y0.2482Z-0.0150
X7.5939Y0.2563Z-0.0112
X7.6140Y0.2644Z-0.0099
X7.6441Y0.2766Z-0.0061
X7.7042Y0.3009Z-0.0058
X8.2558Y0.5237Z-0.0026
X8.7371Y0.7182Z-0.0039
X9.1382Y0.8803Z-0.0048
X9.2284Y0.9167Z-0.0078
X9.2786Y0.9370Z-0.0098
X9.3287Y0.9572Z-0.0081
X9.3488Y0.9653Z-0.0113
X9.3789Y0.9775Z-0.0175
X9.4190Y0.9937Z-0.0169
X9.4390Y1.0018Z-0.0159
X9.4691Y1.0140Z-0.0156
X9.4992Y1.0261Z-0.0080
X9.5092Y1.0302Z-0.0092
X9.5293Y1.0383Z-0.0153
X9.5995Y1.0666Z-0.0092
X9.6296Y1.0788Z-0.0044
X9.7699Y1.1355Z-0.0030
X10.8429Y1.5690Z-0.0015
X10.8630Y1.5771Z-0.0017
Z0.0200
X10.8629Y1.6109
G1Z-0.0012F30.0
G1X9.9697Y1.2500Z-0.0030F60.0
X9.6185Y1.1081Z-0.0028
X9.5884Y1.0959Z-0.0067
X9.5583Y1.0838Z-0.0123
X9.5382Y1.0756Z-0.0131
X9.5081Y1.0635Z-0.0084
X9.4880Y1.0554Z-0.0099
X9.4579Y1.0432Z-0.0170
X9.4177Y1.0270Z-0.0180
X9.3776Y1.0108Z-0.0103
X9.3274Y0.9905Z-0.0071
X9.2973Y0.9783Z-0.0120
X9.2672Y0.9662Z-0.0173
X9.2371Y0.9540Z-0.0176
X9.1970Y0.9378Z-0.0079
X9.1769Y0.9297Z-0.0080
X9.1568Y0.9216Z-0.0117
X9.0866Y0.8932Z-0.0074
X9.0263Y0.8689Z-0.0040
X8.7152Y0.7432Z-0.0044
X8.6952Y0.7350Z-0.0055
X8.6651Y0.7229Z-0.0030
X8.1331Y0.5080Z-0.0030
X7.7016Y0.3336Z-0.0052
X7.5711Y0.2809Z-0.0070
X7.5511Y0.2728Z-0.0088
X7.5209Y0.2606Z-0.0180
X7.5009Y0.2525Z-0.0183
X7.4808Y0.2444Z-0.0179
X7.4407Y0.2282Z-0.0208
X7.3804Y0.2039Z-0.0192
X7.3503Y0.1917Z-0.0153
X7.3202Y0.1795Z-0.0167
X7.2801Y0.1633Z-0.0123
X7.2500Y0.1512Z-0.0149
X7.2299Y0.1430Z-0.0139
X7.1898Y0.1268Z-0.0216
X7.1295Y0.1025Z-0.0202
X7.1095Y0.0944Z-0.0159
X7.0794Y0.0822Z-0.0156
X7.0593Y0.0741Z-0.0103
X7.0192Y0.0579Z-0.0091
X6.9690Y0.0376Z-0.0123
X6.9389Y0.0255Z-0.0162
X6.8786Y0.0011Z-0.0203
Z0.0200
X6.7949Y0.0011
G1Z-0.0144F30.0
G1X6.8150Y0.0092Z-0.0195F60.0
X6.8550Y0.0254Z-0.0216
X6.9051Y0.0456Z-0.0179
X6.9352Y0.0577Z-0.0116
X6.9753Y0.0739Z-0.0112
X6.9953Y0.0820Z-0.0114
X7.0154Y0.0901Z-0.0090
X7.0554Y0.1063Z-0.0122
X7.0655Y0.1104Z-0.0125
X7.0955Y0.1225Z-0.0202
X7.1757Y0.1549Z-0.0225
X7.2057Y0.1671Z-0.0190
X7.2358Y0.1792Z-0.0113
X7.2859Y0.1994Z-0.0100
X7.3260Y0.2156Z-0.0102
X7.3460Y0.2237Z-0.0093
X7.3961Y0.2440Z-0.0183
X7.4362Y0.2602Z-0.0157
X7.4763Y0.2764Z-0.0177
X7.5063Y0.2885Z-0.0163
X7.5464Y0.3047Z-0.0074
X7.5865Y0.3209Z-0.0054
X7.6266Y0.3371Z-0.0051
X8.1376Y0.5435Z-0.0022
X8.1676Y0.5557Z-0.0024
X8.7288Y0.7824Z-0.0031
X9.0594Y0.9160Z-0.0058
X9.0895Y0.9281Z-0.0115
X9.1195Y0.9403Z-0.0186
X9.1596Y0.9565Z-0.0180
X9.1897Y0.9686Z-0.0135
X9.2197Y0.9808Z-0.0199
X9.2498Y0.9929Z-0.0201
X9.3099Y1.0172Z-0.0082
X9.3500Y1.0334Z-0.0079
X9.3901Y1.0496Z-0.0120
X9.4001Y1.0536Z-0.0162
X9.4302Y1.0658Z-0.0184
X9.4702Y1.0820Z-0.0149
X9.5003Y1.0941Z-0.0066
X9.5404Y1.1103Z-0.0101
X9.5905Y1.1305Z-0.0037
X9.6907Y1.1710Z-0.0028
X10.1115Y1.3411Z-0.0028
X10.6225Y1.5475Z-0.0014
X10.8630Y1.6447Z-0.0010
Z0.0200
X10.8630Y1.6784
G1Z-0.0007F30.0
G1X9.5994Y1.1679Z-0.0040F60.0
X9.4992Y1.1274Z-0.0057
X9.4591Y1.1112Z-0.0130
X9.4189Y1.0950Z-0.0167
X9.3989Y1.0869Z-0.0162
X9.3688Y1.0748Z-0.0097
X9.3086Y1.0504Z-0.0085
X9.2886Y1.0423Z-0.0117
X9.2585Y1.0302Z-0.0193
X9.1682Y0.9937Z-0.0200
X9.1281Y0.9775Z-0.0139
X9.1081Y0.9694Z-0.0137
X9.0780Y0.9573Z-0.0075
X9.0379Y0.9411Z-0.0075
X9.0078Y0.9289Z-0.0137
X8.9777Y0.9167Z-0.0132
X8.9677Y0.9127Z-0.0142
X8.9376Y0.9005Z-0.0073
X8.8072Y0.8479Z-0.0041
X8.3159Y0.6493Z-0.0025
X7.6540Y0.3819Z-0.0038
X7.5437Y0.3374Z-0.0060
X7.5036Y0.3212Z-0.0117
X7.4836Y0.3131Z-0.0139
X7.4334Y0.2928Z-0.0080
X7.3833Y0.2726Z-0.0123
X7.3632Y0.2644Z-0.0112
X7.3432Y0.2563Z-0.0073
X7.2930Y0.2361Z-0.0105
X7.2730Y0.2280Z-0.0070
X7.2228Y0.2077Z-0.0123
X7.1927Y0.1956Z-0.0186
X7.0925Y0.1551Z-0.0213
X7.0724Y0.1470Z-0.0164
X7.0624Y0.1429Z-0.0125
X7.0523Y0.1389Z-0.0108
X7.0323Y0.1307Z-0.0127
X7.0122Y0.1226Z-0.0110
X6.9822Y0.1105Z-0.0160
X6.9721Y0.1064Z-0.0162
X6.9521Y0.0983Z-0.0127
X6.8819Y0.0700Z-0.0192
X6.8217Y0.0457Z-0.0218
X6.7615Y0.0214Z-0.0210
X6.7114Y0.0011Z-0.0217
Z0.0200
X6.6279Y0.0011
G1Z-0.0209F30.0
G1X6.6981Y0.0295Z-0.0216F60.0
X6.7684Y0.0579Z-0.0232
X6.8386Y0.0863Z-0.0201
X6.8587Y0.0944Z-0.0222
X6.9390Y0.1268Z-0.0193
X6.9892Y0.1471Z-0.0192
X7.0293Y0.1633Z-0.0100
X7.0393Y0.1674Z-0.0099
X7.0694Y0.1795Z-0.0178
X7.1196Y0.1998Z-0.0209
X7.1497Y0.2120Z-0.0204
X7.1899Y0.2282Z-0.0129
X7.2300Y0.2444Z-0.0096
X7.2702Y0.2606Z-0.0063
X7.3103Y0.2768Z-0.0080
X7.3605Y0.2971Z-0.0072
X7.3906Y0.3093Z-0.0073
X7.4307Y0.3255Z-0.0061
X7.4709Y0.3417Z-0.0076
X7.5210Y0.3620Z-0.0048
X7.7719Y0.4634Z-0.0030
X8.4142Y0.7229Z-0.0021
X8.7755Y0.8688Z-0.0044
X8.8156Y0.8850Z-0.0071
X8.8458Y0.8972Z-0.0087
X8.8658Y0.9053Z-0.0093
X8.8859Y0.9134Z-0.0078
X8.9260Y0.9296Z-0.0155
X8.9562Y0.9418Z-0.0186
X9.0063Y0.9621Z-0.0146
X9.0665Y0.9864Z-0.0053
X9.1368Y1.0148Z-0.0104
X9.1669Y1.0270Z-0.0185
X9.1970Y1.0391Z-0.0215
X9.2673Y1.0675Z-0.0183
X9.3074Y1.0837Z-0.0157
X9.3275Y1.0918Z-0.0139
X9.3475Y1.0999Z-0.0091
X9.3877Y1.1162Z-0.0078
X9.4178Y1.1283Z-0.0102
X9.4579Y1.1445Z-0.0066
X9.5483Y1.1810Z-0.0046
X9.6085Y1.2054Z-0.0067
X9.7189Y1.2500Z-0.0037
X10.2809Y1.4770Z-0.0019
X10.8629Y1.7122Z-0.0009
Z0.0200
X10.8630Y1.7460
G1Z-0.0008F30.0
G1X9.8008Y1.3169Z-0.0031F60.0
X9.5804Y1.2278Z-0.0065
X9.5202Y1.2035Z-0.0044
X9.3499Y1.1347Z-0.0067
X9.3098Y1.1185Z-0.0099
X9.2597Y1.0982Z-0.0127
X9.2397Y1.0901Z-0.0167
X9.2096Y1.0780Z-0.0173
X9.1795Y1.0658Z-0.0201
X9.1495Y1.0537Z-0.0177
X9.1294Y1.0456Z-0.0111
X9.1094Y1.0375Z-0.0115
X9.0793Y1.0254Z-0.0064
X9.0192Y1.0011Z-0.0086
X8.9892Y0.9889Z-0.0140
X8.9691Y0.9808Z-0.0198
X8.9290Y0.9646Z-0.0205
X8.8890Y0.9484Z-0.0161
X8.8489Y0.9322Z-0.0184
X8.8088Y0.9160Z-0.0178
X8.7386Y0.8877Z-0.0045
X8.1975Y0.6691Z-0.0017
X7.5662Y0.4140Z-0.0037
X7.4761Y0.3776Z-0.0049
X7.4560Y0.3695Z-0.0074
X7.4159Y0.3533Z-0.0049
X7.2857Y0.3007Z-0.0064
X7.2456Y0.2845Z-0.0072
X7.1955Y0.2642Z-0.0088
X7.1454Y0.2440Z-0.0198
X7.0953Y0.2237Z-0.0221
X7.0452Y0.2035Z-0.0180
X7.0251Y0.1954Z-0.0163
X6.9750Y0.1752Z-0.0217
X6.8949Y0.1428Z-0.0211
X6.7045Y0.0659Z-0.0214
X6.6744Y0.0537Z-0.0170
X6.6444Y0.0416Z-0.0203
X6.5943Y0.0213Z-0.0139
X6.5542Y0.0051Z-0.0163
X6.5442Y0.0011Z-0.0162
Z0.0200
X6.4606Y0.0011
G1Z-0.0238F30.0
G1X6.5108Y0.0214Z-0.0227F60.0
X6.5509Y0.0376Z-0.0139
X6.5910Y0.0538Z-0.0100
X6.6211Y0.0659Z-0.0134
X6.6812Y0.0902Z-0.0134
X6.7214Y0.1064Z-0.0217
X6.7715Y0.1267Z-0.0226
X6.8517Y0.1591Z-0.0185
X6.8918Y0.1753Z-0.0219
X6.9921Y0.2158Z-0.0217
X7.0824Y0.2523Z-0.0216
X7.1325Y0.2726Z-0.0196
X7.2027Y0.3009Z-0.0065
X7.3932Y0.3779Z-0.0049
X7.8144Y0.5481Z-0.0021
X8.5064Y0.8276Z-0.0029
X8.6367Y0.8803Z-0.0047
X8.6969Y0.9046Z-0.0073
X8.7270Y0.9168Z-0.0056
X8.7571Y0.9289Z-0.0075
X8.7871Y0.9411Z-0.0164
X8.8774Y0.9775Z-0.0212
X8.9476Y1.0059Z-0.0214
X8.9677Y1.0140Z-0.0202
X9.0178Y1.0343Z-0.0092
X9.0579Y1.0505Z-0.0085
X9.0679Y1.0545Z-0.0078
X9.0880Y1.0626Z-0.0100
X9.1080Y1.0707Z-0.0101
X9.1381Y1.0829Z-0.0155
X9.1582Y1.0910Z-0.0143
X9.1883Y1.1031Z-0.0100
X9.3287Y1.1599Z-0.0057
X9.5794Y1.2612Z-0.0045
X9.6496Y1.2895Z-0.0061
X9.8301Y1.3624Z-0.0029
X10.3214Y1.5610Z-0.0022
X10.8630Y1.7798Z-0.0009
Z0.0200
X10.8629Y1.8135
G1Z-0.0009F30.0
G1X9.7992Y1.3837Z-0.0033F60.0
X9.6286Y1.3148Z-0.0062
X9.5383Y1.2783Z-0.0037
X9.1569Y1.1242Z-0.0067
X9.0867Y1.0959Z-0.0063
X9.0566Y1.0837Z-0.0104
X9.0365Y1.0756Z-0.0151
X9.0064Y1.0634Z-0.0158
X8.9662Y1.0472Z-0.0205
X8.8558Y1.0026Z-0.0203
X8.8358Y0.9945Z-0.0168
X8.8157Y0.9864Z-0.0116
X8.7956Y0.9783Z-0.0113
X8.7555Y0.9621Z-0.0063
X8.7153Y0.9458Z-0.0085
X8.6953Y0.9377Z-0.0151
X8.6852Y0.9337Z-0.0163
X8.6652Y0.9256Z-0.0136
X8.6451Y0.9175Z-0.0158
X8.6250Y0.9093Z-0.0095
X8.6150Y0.9053Z-0.0079
X8.5949Y0.8972Z-0.0092
X8.5548Y0.8810Z-0.0051
X8.3440Y0.7958Z-0.0019
X7.5613Y0.4796Z-0.0028
X7.4007Y0.4147Z-0.0041
X7.3004Y0.3741Z-0.0057
X7.1900Y0.3295Z-0.0066
X7.1398Y0.3093Z-0.0133
X7.1298Y0.3052Z-0.0155
X7.1097Y0.2971Z-0.0154
X7.0896Y0.2890Z-0.0203
X6.9792Y0.2444Z-0.0210
X6.9391Y0.2282Z-0.0208
X6.9190Y0.2201Z-0.0184
X6.8789Y0.2039Z-0.0209
X6.8488Y0.1917Z-0.0142
X6.8387Y0.1876Z-0.0137
X6.8086Y0.1755Z-0.0175
X6.7584Y0.1552Z-0.0209
X6.7183Y0.1390Z-0.0232
X6.6882Y0.1268Z-0.0190
X6.6681Y0.1187Z-0.0123
X6.5778Y0.0822Z-0.0094
X6.5076Y0.0538Z-0.0192
X6.4574Y0.0336Z-0.0223
X6.3972Y0.0092Z-0.0224
X6.3771Y0.0011Z-0.0171
Z0.0200
X6.2934Y0.0011
G1Z-0.0219F30.0
G1X6.3435Y0.0213Z-0.0154F60.0
X6.3635Y0.0294Z-0.0164
X6.3836Y0.0375Z-0.0228
X6.4337Y0.0578Z-0.0228
X6.4838Y0.0780Z-0.0162
X6.5339Y0.0982Z-0.0115
X6.6040Y0.1266Z-0.0101
X6.6341Y0.1387Z-0.0159
X6.6541Y0.1468Z-0.0158
X6.6742Y0.1549Z-0.0194
X6.6942Y0.1630Z-0.0190
X6.7243Y0.1752Z-0.0225
X6.7644Y0.1914Z-0.0196
X6.7944Y0.2035Z-0.0134
X6.8345Y0.2197Z-0.0109
X6.8846Y0.2400Z-0.0157
X6.9147Y0.2521Z-0.0127
X6.9548Y0.2683Z-0.0189
X7.0149Y0.2926Z-0.0191
X7.0349Y0.3007Z-0.0194
X7.0851Y0.3209Z-0.0166
X7.1151Y0.3331Z-0.0083
X7.1552Y0.3493Z-0.0061
X7.2554Y0.3898Z-0.0049
X7.6863Y0.5639Z-0.0023
X8.3677Y0.8392Z-0.0022
X8.4880Y0.8878Z-0.0052
X8.5181Y0.8999Z-0.0080
X8.5281Y0.9040Z-0.0093
X8.5581Y0.9161Z-0.0058
X8.5782Y0.9242Z-0.0099
X8.5982Y0.9323Z-0.0155
X8.6383Y0.9485Z-0.0189
X8.6884Y0.9687Z-0.0150
X8.7185Y0.9809Z-0.0079
X8.7485Y0.9930Z-0.0050
X8.8087Y1.0173Z-0.0082
X8.8187Y1.0214Z-0.0100
X8.8387Y1.0295Z-0.0179
X8.8888Y1.0497Z-0.0222
X8.9289Y1.0659Z-0.0178
X8.9690Y1.0821Z-0.0131
X9.0091Y1.0983Z-0.0083
X9.1093Y1.1388Z-0.0055
X9.3999Y1.2562Z-0.0049
X9.6204Y1.3453Z-0.0048
X9.6905Y1.3736Z-0.0063
X9.8609Y1.4424Z-0.0031
X10.2818Y1.6125Z-0.0020
X10.8630Y1.8473Z-0.0006
Z0.0200
X10.8630Y1.8811
G1Z-0.0009F30.0
G1X10.2212Y1.6218Z-0.0015F60.0
X9.7599Y1.4354Z-0.0045
X9.6495Y1.3908Z-0.0055
X9.5593Y1.3544Z-0.0033
X8.9877Y1.1234Z-0.0058
X8.9476Y1.1072Z-0.0089
X8.9275Y1.0991Z-0.0119
X8.9075Y1.0910Z-0.0115
X8.8673Y1.0748Z-0.0199
X8.8473Y1.0667Z-0.0182
X8.8373Y1.0626Z-0.0197
X8.8272Y1.0586Z-0.0183
X8.8172Y1.0545Z-0.0136
X8.7871Y1.0424Z-0.0104
X8.7570Y1.0302Z-0.0059
X8.7069Y1.0100Z-0.0064
X8.6668Y0.9938Z-0.0129
X8.6467Y0.9857Z-0.0191
X8.6166Y0.9735Z-0.0200
X8.5865Y0.9613Z-0.0190
X8.5665Y0.9532Z-0.0139
X8.5565Y0.9492Z-0.0128
X8.5264Y0.9370Z-0.0177
X8.4963Y0.9249Z-0.0143
X8.4762Y0.9168Z-0.0153
X8.4662Y0.9127Z-0.0141
X8.4462Y0.9046Z-0.0070
X8.4161Y0.8925Z-0.0049
X8.3459Y0.8641Z-0.0029
X8.2556Y0.8276Z-0.0033
X8.0751Y0.7547Z-0.0018
X7.2628Y0.4265Z-0.0037
X7.1124Y0.3658Z-0.0065
X7.0723Y0.3495Z-0.0134
X7.0522Y0.3414Z-0.0165
X7.0121Y0.3252Z-0.0148
X6.9921Y0.3171Z-0.0128
X6.9620Y0.3050Z-0.0160
X6.9118Y0.2847Z-0.0092
X6.8517Y0.2604Z-0.0120
X6.8216Y0.2483Z-0.0090
X6.7915Y0.2361Z-0.0118
X6.7614Y0.2239Z-0.0198
X6.7012Y0.1996Z-0.0235
X6.6411Y0.1753Z-0.0194
X6.6210Y0.1672Z-0.0135
X6.5809Y0.1510Z-0.0119
X6.5608Y0.1429Z-0.0115
X6.5408Y0.1348Z-0.0141
X6.5007Y0.1186Z-0.0123
X6.4706Y0.1064Z-0.0146
X6.4405Y0.0943Z-0.0224
X6.3904Y0.0740Z-0.0223
X6.3603Y0.0619Z-0.0202
X6.3502Y0.0578Z-0.0185
X6.2901Y0.0335Z-0.0240
X6.2500Y0.0173Z-0.0227
X6.2299Y0.0092Z-0.0216
X6.2099Y0.0011Z-0.0231
Z0.0200
X6.1263Y0.0011
G1Z-0.0232F30.0
G1X6.1564Y0.0133Z-0.0226F60.0
X6.1765Y0.0214Z-0.0211
X6.2166Y0.0376Z-0.0238
X6.4274Y0.1228Z-0.0232
X6.4976Y0.1511Z-0.0137
X6.5277Y0.1633Z-0.0174
X6.5679Y0.1795Z-0.0121
X6.6080Y0.1957Z-0.0129
X6.6381Y0.2079Z-0.0208
X6.6883Y0.2282Z-0.0208
X6.7485Y0.2525Z-0.0183
X6.7786Y0.2647Z-0.0132
X6.8187Y0.2809Z-0.0076
X6.8388Y0.2890Z-0.0083
X6.8589Y0.2971Z-0.0102
X6.8990Y0.3133Z-0.0064
X6.9392Y0.3295Z-0.0118
X6.9893Y0.3498Z-0.0070
X7.0395Y0.3701Z-0.0081
X7.0797Y0.3863Z-0.0063
X7.0997Y0.3944Z-0.0079
X7.1399Y0.4106Z-0.0046
X7.6115Y0.6012Z-0.0021
X8.1735Y0.8282Z-0.0023
X8.3842Y0.9134Z-0.0040
X8.3943Y0.9174Z-0.0050
X8.4244Y0.9296Z-0.0132
X8.4645Y0.9458Z-0.0176
X8.5448Y0.9783Z-0.0214
X8.6351Y1.0147Z-0.0195
X8.6552Y1.0229Z-0.0166
X8.6853Y1.0350Z-0.0092
X8.6953Y1.0391Z-0.0088
X8.7154Y1.0472Z-0.0106
X8.7355Y1.0553Z-0.0081
X8.7656Y1.0675Z-0.0104
X8.7856Y1.0756Z-0.0097
X8.8057Y1.0837Z-0.0146
X8.8258Y1.0918Z-0.0163
X8.8559Y1.1039Z-0.0102
X8.8860Y1.1161Z-0.0087
X8.9964Y1.1607Z-0.0046
X9.5383Y1.3796Z-0.0041
X9.6687Y1.4324Z-0.0046
X9.7290Y1.4567Z-0.0065
X9.8694Y1.5134Z-0.0034
X10.3411Y1.7040Z-0.0016
X10.7726Y1.8783Z-0.0010
X10.7827Y1.8824Z-0.0023
X10.8529Y1.9108Z-0.0009
X10.8629Y1.9148
Z0.0200
X10.8630Y1.9486
G1Z-0.0008F30.0
G1X10.3519Y1.7421Z-0.0016F60.0
X9.9610Y1.5842Z-0.0026
X9.7406Y1.4951Z-0.0061
X9.7005Y1.4790Z-0.0055
X9.6303Y1.4506Z-0.0034
X9.4700Y1.3858Z-0.0044
X9.4199Y1.3656Z-0.0079
X9.3598Y1.3413Z-0.0046
X9.0290Y1.2077Z-0.0045
X8.8787Y1.1469Z-0.0049
X8.8487Y1.1348Z-0.0068
X8.7785Y1.1064Z-0.0064
X8.7384Y1.0903Z-0.0088
X8.7084Y1.0781Z-0.0160
X8.6683Y1.0619Z-0.0177
X8.6081Y1.0376Z-0.0205
X8.4979Y0.9931Z-0.0195
X8.4578Y0.9769Z-0.0152
X8.4378Y0.9688Z-0.0157
X8.3977Y0.9526Z-0.0063
X8.3476Y0.9323Z-0.0058
X8.3275Y0.9242Z-0.0064
X8.2874Y0.9080Z-0.0047
X8.1471Y0.8514Z-0.0023
X7.4657Y0.5760Z-0.0025
X7.1249Y0.4384Z-0.0042
X7.0047Y0.3898Z-0.0057
X6.9245Y0.3574Z-0.0066
X6.8443Y0.3250Z-0.0070
X6.8143Y0.3128Z-0.0071
X6.7842Y0.3007Z-0.0102
X6.7541Y0.2886Z-0.0113
X6.7241Y0.2764Z-0.0158
X6.6940Y0.2643Z-0.0211
X6.6239Y0.2359Z-0.0199
X6.5938Y0.2238Z-0.0127
X6.5738Y0.2157Z-0.0145
X6.5537Y0.2076Z-0.0196
X6.5136Y0.1914Z-0.0199
X6.4234Y0.1549Z-0.0227
X6.2631Y0.0902Z-0.0227
X6.2330Y0.0780Z-0.0213
X6.1929Y0.0618Z-0.0231
X6.1629Y0.0497Z-0.0195
X6.1228Y0.0335Z-0.0229
X6.0927Y0.0213Z-0.0215
X6.0426Y0.0011Z-0.0247
Z0.0200
X5.9591Y0.0011
G1Z-0.0165F30.0
G1X5.9791Y0.0092Z-0.0158F60.0
X6.0092Y0.0214Z-0.0223
X6.0594Y0.0416Z-0.0240
X6.1496Y0.0781Z-0.0158
X6.1697Y0.0862Z-0.0148
X6.2098Y0.1024Z-0.0186
X6.2399Y0.1145Z-0.0160
X6.2800Y0.1308Z-0.0232
X6.3602Y0.1632Z-0.0224
X6.5307Y0.2320Z-0.0219
X6.5909Y0.2564Z-0.0195
X6.6510Y0.2807Z-0.0226
X6.6912Y0.2969Z-0.0202
X6.7513Y0.3212Z-0.0073
X6.8215Y0.3495Z-0.0063
X6.9519Y0.4022Z-0.0058
X7.1324Y0.4752Z-0.0037
X7.8143Y0.7507Z-0.0017
X8.1653Y0.8925Z-0.0029
X8.2456Y0.9249Z-0.0059
X8.2756Y0.9370Z-0.0150
X8.2957Y0.9452Z-0.0152
X8.3258Y0.9573Z-0.0147
X8.3659Y0.9735Z-0.0061
X8.3960Y0.9857Z-0.0051
X8.4662Y1.0140Z-0.0108
X8.4963Y1.0262Z-0.0185
X8.5564Y1.0505Z-0.0219
X8.6066Y1.0708Z-0.0186
X8.6467Y1.0870Z-0.0155
X8.6768Y1.0991Z-0.0084
X8.7369Y1.1234Z-0.0080
X8.7670Y1.1356Z-0.0047
X9.1982Y1.3098Z-0.0042
X9.2684Y1.3382Z-0.0074
X9.3286Y1.3625Z-0.0117
X9.3587Y1.3746Z-0.0124
X9.3788Y1.3827Z-0.0089
X9.3988Y1.3908Z-0.0107
X9.4189Y1.3989Z-0.0131
X9.4389Y1.4071Z-0.0095
X9.4690Y1.4192Z-0.0049
X9.6997Y1.5124Z-0.0038
X9.7799Y1.5448Z-0.0056
X10.1509Y1.6947Z-0.0016
X10.6624Y1.9014Z-0.0014
X10.8630Y1.9824Z-0.0009
Z0.0200
X10.8629Y2.0162
G1Z-0.0010F30.0
G1X10.4515Y1.8499Z-0.0018F60.0
X10.0501Y1.6878Z-0.0020
X9.7591Y1.5702Z-0.0049
X9.5182Y1.4729Z-0.0037
X9.4681Y1.4526Z-0.0073
X9.4279Y1.4364Z-0.0135
X9.3878Y1.4202Z-0.0103
X9.3075Y1.3877Z-0.0158
X9.2674Y1.3715Z-0.0146
X9.2172Y1.3512Z-0.0054
X9.1670Y1.3310Z-0.0056
X8.9362Y1.2377Z-0.0034
X8.6452Y1.1201Z-0.0061
X8.6151Y1.1080Z-0.0090
X8.5850Y1.0958Z-0.0159
X8.5448Y1.0796Z-0.0169
X8.5248Y1.0715Z-0.0210
X8.4947Y1.0593Z-0.0204
X8.4746Y1.0512Z-0.0155
X8.4545Y1.0431Z-0.0080
X8.3843Y1.0147Z-0.0044
X8.3341Y0.9944Z-0.0107
X8.3140Y0.9863Z-0.0151
X8.2739Y0.9701Z-0.0160
X8.2538Y0.9620Z-0.0176
X8.2137Y0.9458Z-0.0121
X8.1936Y0.9377Z-0.0056
X8.1635Y0.9255Z-0.0048
X8.0130Y0.8647Z-0.0025
X7.5514Y0.6782Z-0.0021
X7.3406Y0.5931Z-0.0021
X6.8891Y0.4106Z-0.0050
X6.7486Y0.3539Z-0.0071
X6.6783Y0.3255Z-0.0185
X6.6181Y0.3011Z-0.0209
X6.5880Y0.2890Z-0.0208
X6.5479Y0.2728Z-0.0228
X6.4174Y0.2201Z-0.0204
X6.3873Y0.2079Z-0.0175
X6.3070Y0.1755Z-0.0228
X6.2769Y0.1633Z-0.0226
X6.2368Y0.1471Z-0.0132
X6.1666Y0.1187Z-0.0121
X6.1364Y0.1065Z-0.0108
X6.0762Y0.0822Z-0.0224
X6.0160Y0.0579Z-0.0238
X5.9659Y0.0376Z-0.0214
X5.9257Y0.0214Z-0.0155
X5.8856Y0.0052Z-0.0130
X5.8755Y0.0011Z-0.0137
Z0.0200
X5.7918Y0.0011
G1Z-0.0211F30.0
G1X5.8319Y0.0173Z-0.0152F60.0
X5.8720Y0.0335Z-0.0169
X5.9021Y0.0456Z-0.0145
X5.9322Y0.0578Z-0.0152
X5.9622Y0.0699Z-0.0232
X6.0123Y0.0902Z-0.0224
X6.0624Y0.1104Z-0.0207
X6.0925Y0.1226Z-0.0155
X6.1125Y0.1307Z-0.0134
X6.1326Y0.1388Z-0.0109
X6.1727Y0.1549Z-0.0121
X6.1927Y0.1630Z-0.0157
X6.2228Y0.1752Z-0.0137
X6.2428Y0.1833Z-0.0190
X6.2929Y0.2035Z-0.0220
X6.3330Y0.2197Z-0.0180
X6.3631Y0.2319Z-0.0152
X6.3932Y0.2440Z-0.0133
X6.4333Y0.2602Z-0.0198
X6.4733Y0.2764Z-0.0194
X6.4934Y0.2845Z-0.0210
X6.5235Y0.2967Z-0.0199
X6.5736Y0.3169Z-0.0205
X6.6136Y0.3331Z-0.0172
X6.6337Y0.3412Z-0.0197
X6.6437Y0.3453Z-0.0189
X6.6638Y0.3534Z-0.0130
X6.7038Y0.3696Z-0.0081
X6.7840Y0.4019Z-0.0058
X7.1148Y0.5356Z-0.0030
X7.3553Y0.6327Z-0.0024
X7.5758Y0.7218Z-0.0015
X8.0268Y0.9040Z-0.0028
X8.0668Y0.9202Z-0.0055
X8.0869Y0.9283Z-0.0090
X8.1170Y0.9405Z-0.0086
X8.1370Y0.9486Z-0.0137
X8.1570Y0.9567Z-0.0141
X8.1771Y0.9648Z-0.0101
X8.2072Y0.9769Z-0.0158
X8.2573Y0.9972Z-0.0191
X8.2773Y1.0053Z-0.0184
X8.2973Y1.0134Z-0.0112
X8.3374Y1.0296Z-0.0063
X8.3976Y1.0539Z-0.0053
X8.4176Y1.0620Z-0.0084
X8.4377Y1.0701Z-0.0144
X8.4677Y1.0822Z-0.0176
X8.5178Y1.1025Z-0.0164
X8.5579Y1.1186Z-0.0091
X8.6581Y1.1591Z-0.0044
X9.0991Y1.3373Z-0.0044
X9.1392Y1.3535Z-0.0088
X9.1693Y1.3656Z-0.0123
X9.2094Y1.3818Z-0.0077
X9.2294Y1.3899Z-0.0077
X9.2695Y1.4061Z-0.0131
X9.2996Y1.4183Z-0.0137
X9.3196Y1.4264Z-0.0152
X9.3497Y1.4385Z-0.0085
X9.3797Y1.4507Z-0.0104
X9.4098Y1.4628Z-0.0137
X9.4499Y1.4790Z-0.0134
X9.4799Y1.4912Z-0.0054
X9.5601Y1.5236Z-0.0028
X9.7906Y1.6167Z-0.0047
X10.3318Y1.8353Z-0.0010
X10.6024Y1.9447Z-0.0020
X10.8630Y2.0500Z-0.0007
Z0.0200
X10.8630Y2.0837
G1Z-0.0010F30.0
G1X10.5019Y1.9379Z-0.0021F60.0
X10.2312Y1.8285Z-0.0013
X9.8701Y1.6826Z-0.0039
X9.5191Y1.5408Z-0.0043
X9.4790Y1.5246Z-0.0062
X9.4489Y1.5124Z-0.0112
X9.3888Y1.4881Z-0.0086
X9.3687Y1.4800Z-0.0060
X9.3487Y1.4719Z-0.0077
X9.3286Y1.4638Z-0.0123
X9.2985Y1.4516Z-0.0107
X9.2785Y1.4435Z-0.0082
X9.2383Y1.4273Z-0.0110
X9.2183Y1.4192Z-0.0085
X9.1782Y1.4030Z-0.0147
X9.1381Y1.3868Z-0.0128
X9.1080Y1.3747Z-0.0055
X9.0077Y1.3341Z-0.0035
X8.6968Y1.2085Z-0.0041
X8.5664Y1.1559Z-0.0054
X8.5464Y1.1478Z-0.0071
X8.4962Y1.1275Z-0.0075
X8.4561Y1.1113Z-0.0140
X8.4361Y1.1032Z-0.0121
X8.4160Y1.0951Z-0.0078
X8.3959Y1.0870Z-0.0109
X8.3659Y1.0748Z-0.0076
X8.3458Y1.0667Z-0.0093
X8.3157Y1.0546Z-0.0074
X8.2856Y1.0424Z-0.0129
X8.2656Y1.0343Z-0.0184
X8.1954Y1.0059Z-0.0201
X8.1151Y0.9735Z-0.0186
X8.0750Y0.9573Z-0.0158
X8.0449Y0.9452Z-0.0075
X7.9747Y0.9168Z-0.0027
X7.5034Y0.7264Z-0.0020
X7.0120Y0.5278Z-0.0032
X6.7513Y0.4225Z-0.0052
X6.7212Y0.4103Z-0.0069
X6.6610Y0.3860Z-0.0090
X6.6209Y0.3698Z-0.0172
X6.5908Y0.3577Z-0.0173
X6.5607Y0.3455Z-0.0206
X6.5006Y0.3212Z-0.0188
X6.4705Y0.3090Z-0.0130
X6.4604Y0.3050Z-0.0125
X6.4404Y0.2969Z-0.0157
X6.3802Y0.2726Z-0.0101
X6.3401Y0.2564Z-0.0133
X6.3200Y0.2483Z-0.0192
X6.2398Y0.2158Z-0.0214
X6.1997Y0.1996Z-0.0186
X6.1796Y0.1915Z-0.0128
X6.1295Y0.1713Z-0.0101
X6.0994Y0.1591Z-0.0129
X6.0794Y0.1510Z-0.0126
X6.0392Y0.1348Z-0.0176
X6.0092Y0.1227Z-0.0230
X5.9590Y0.1024Z-0.0223
X5.9390Y0.0943Z-0.0180
X5.9289Y0.0902Z-0.0145
X5.9189Y0.0862Z-0.0132
X5.8688Y0.0659Z-0.0214
X5.8086Y0.0416Z-0.0220
X5.7083Y0.0011Z-0.0243
Z0.0200
X5.6248Y0.0011
G1Z-0.0201F30.0
G1X5.6749Y0.0214Z-0.0235F60.0
X5.7452Y0.0498Z-0.0243
X5.7753Y0.0619Z-0.0225
X5.8255Y0.0822Z-0.0229
X5.9559Y0.1349Z-0.0220
X5.9860Y0.1471Z-0.0241
X6.0161Y0.1592Z-0.0212
X6.0663Y0.1795Z-0.0123
X6.0864Y0.1876Z-0.0143
X6.0964Y0.1917Z-0.0161
X6.1265Y0.2038Z-0.0120
X6.1566Y0.2160Z-0.0131
X6.1666Y0.2201Z-0.0126
X6.1967Y0.2322Z-0.0208
X6.2469Y0.2525Z-0.0217
X6.2770Y0.2647Z-0.0195
X6.2971Y0.2728Z-0.0199
X6.3473Y0.2930Z-0.0123
X6.3874Y0.3092Z-0.0096
X6.4175Y0.3214Z-0.0113
X6.4577Y0.3376Z-0.0085
X6.5179Y0.3620Z-0.0147
X6.5480Y0.3741Z-0.0116
X6.5881Y0.3903Z-0.0166
X6.6082Y0.3984Z-0.0147
X6.6282Y0.4066Z-0.0091
X6.6885Y0.4309Z-0.0051
X7.2604Y0.6620Z-0.0015
X7.9328Y0.9336Z-0.0032
X7.9930Y0.9579Z-0.0044
X8.0331Y0.9742Z-0.0144
X8.1034Y1.0025Z-0.0179
X8.1234Y1.0106Z-0.0176
X8.1435Y1.0188Z-0.0205
X8.1836Y1.0350Z-0.0194
X8.2438Y1.0593Z-0.0204
X8.3041Y1.0836Z-0.0158
X8.3241Y1.0917Z-0.0142
X8.3442Y1.0998Z-0.0133
X8.3843Y1.1161Z-0.0067
X8.4345Y1.1363Z-0.0055
X8.5449Y1.1809Z-0.0046
X8.9162Y1.3309Z-0.0031
X9.0567Y1.3877Z-0.0051
X9.0868Y1.3999Z-0.0075
X9.1068Y1.4080Z-0.0082
X9.1369Y1.4201Z-0.0162
X9.2273Y1.4566Z-0.0145
X9.2674Y1.4728Z-0.0065
X9.2975Y1.4850Z-0.0062
X9.3276Y1.4972Z-0.0081
X9.3677Y1.5134Z-0.0058
X9.4079Y1.5296Z-0.0082
X9.4380Y1.5418Z-0.0131
X9.4581Y1.5499Z-0.0106
X9.4781Y1.5580Z-0.0053
X9.5785Y1.5985Z-0.0030
X9.8595Y1.7120Z-0.0040
X10.3110Y1.8945Z-0.0008
X10.6422Y2.0283Z-0.0020
X10.8629Y2.1175Z-0.0006
Z0.0200
X10.8630Y2.1513
G1Z-0.0007F30.0
G1X10.5322Y2.0176Z-0.0017F60.0
X10.1614Y1.8678Z-0.0016
X9.9209Y1.7706Z-0.0028
X9.6503Y1.6613Z-0.0035
X9.4899Y1.5965Z-0.0040
X9.4699Y1.5884Z-0.0067
X9.4398Y1.5763Z-0.0133
X9.4198Y1.5682Z-0.0131
X9.3897Y1.5560Z-0.0081
X9.3696Y1.5479Z-0.0080
X9.3496Y1.5398Z-0.0106
X9.2895Y1.5155Z-0.0060
X9.2394Y1.4953Z-0.0091
X9.2093Y1.4831Z-0.0163
X9.1391Y1.4548Z-0.0174
X9.0890Y1.4345Z-0.0128
X9.0489Y1.4183Z-0.0052
X8.8385Y1.3333Z-0.0033
X8.3874Y1.1511Z-0.0045
X8.3173Y1.1227Z-0.0110
X8.2872Y1.1106Z-0.0117
X8.2672Y1.1025Z-0.0165
X8.1970Y1.0742Z-0.0196
X8.1168Y1.0418Z-0.0176
X8.0767Y1.0256Z-0.0111
X8.0467Y1.0134Z-0.0143
X8.0266Y1.0053Z-0.0112
X7.9966Y0.9932Z-0.0052
X7.9465Y0.9729Z-0.0046
X7.9164Y0.9608Z-0.0052
X7.7059Y0.8757Z-0.0020
X7.5255Y0.8028Z-0.0025
X7.2349Y0.6854Z-0.0017
X6.6636Y0.4546Z-0.0053
X6.6035Y0.4303Z-0.0060
X6.5634Y0.4141Z-0.0081
X6.5233Y0.3979Z-0.0068
X6.4832Y0.3817Z-0.0096
X6.4431Y0.3655Z-0.0064
X6.4030Y0.3493Z-0.0089
X6.3729Y0.3372Z-0.0074
X6.3529Y0.3291Z-0.0115
X6.3228Y0.3169Z-0.0131
X6.2527Y0.2886Z-0.0215
X6.1925Y0.2643Z-0.0215
X6.1825Y0.2602Z-0.0203
X6.1625Y0.2521Z-0.0131
X6.1424Y0.2440Z-0.0120
X6.1124Y0.2319Z-0.0165
X6.0823Y0.2197Z-0.0189
X6.0622Y0.2116Z-0.0180
X6.0221Y0.1954Z-0.0227
X5.8718Y0.1347Z-0.0237
X5.7716Y0.0942Z-0.0218
X5.7215Y0.0740Z-0.0201
X5.6613Y0.0497Z-0.0228
X5.6112Y0.0294Z-0.0219
X5.5511Y0.0051Z-0.0124
X5.5411Y0.0011Z-0.0122
Z0.0200
X5.4575Y0.0011
G1Z-0.0100F30.0
G1X5.5678Y0.0457Z-0.0142F60.0
X5.6080Y0.0619Z-0.0231
X5.7082Y0.1024Z-0.0181
X5.7283Y0.1105Z-0.0151
X5.7484Y0.1186Z-0.0177
X5.7584Y0.1227Z-0.0201
X5.7985Y0.1389Z-0.0198
X5.8186Y0.1470Z-0.0183
X5.8486Y0.1591Z-0.0224
X5.9088Y0.1834Z-0.0220
X5.9991Y0.2199Z-0.0235
X6.1094Y0.2645Z-0.0209
X6.1495Y0.2807Z-0.0174
X6.1796Y0.2928Z-0.0208
X6.2297Y0.3131Z-0.0220
X6.2698Y0.3293Z-0.0180
X6.2899Y0.3374Z-0.0116
X6.3300Y0.3536Z-0.0085
X6.3501Y0.3617Z-0.0094
X6.3902Y0.3779Z-0.0063
X6.4504Y0.4022Z-0.0061
X6.5707Y0.4509Z-0.0067
X6.6108Y0.4671Z-0.0044
X7.4031Y0.7872Z-0.0017
X7.7441Y0.9249Z-0.0032
X7.8343Y0.9614Z-0.0053
X7.8644Y0.9735Z-0.0123
X7.8945Y0.9857Z-0.0105
X7.9145Y0.9938Z-0.0128
X7.9446Y1.0060Z-0.0058
X7.9948Y1.0262Z-0.0045
X8.0249Y1.0384Z-0.0072
X8.0750Y1.0586Z-0.0081
X8.1051Y1.0708Z-0.0173
X8.1452Y1.0870Z-0.0203
X8.2154Y1.1154Z-0.0131
X8.2355Y1.1235Z-0.0081
X8.2655Y1.1356Z-0.0091
X8.3057Y1.1518Z-0.0050
X8.4761Y1.2207Z-0.0038
X8.8171Y1.3585Z-0.0048
X8.9074Y1.3949Z-0.0036
X9.0377Y1.4476Z-0.0066
X9.0678Y1.4598Z-0.0082
X9.0879Y1.4679Z-0.0152
X9.1481Y1.4922Z-0.0185
X9.2082Y1.5165Z-0.0155
X9.2383Y1.5286Z-0.0103
X9.2584Y1.5367Z-0.0124
X9.2985Y1.5530Z-0.0079
X9.3186Y1.5611Z-0.0099
X9.3386Y1.5692Z-0.0144
X9.3687Y1.5813Z-0.0083
X9.3888Y1.5894Z-0.0078
X9.4188Y1.6016Z-0.0140
X9.4389Y1.6097Z-0.0136
X9.4790Y1.6259Z-0.0054
X9.5893Y1.6705Z-0.0030
X9.9403Y1.8123Z-0.0024
X10.5320Y2.0513Z-0.0012
X10.6724Y2.1081Z-0.0019
X10.8630Y2.1850Z-0.0008
Z0.0200
X10.8629Y2.2188
G1Z-0.0009F30.0
G1X10.5820Y2.1053Z-0.0020F60.0
X10.2308Y1.9634Z-0.0009
X9.7391Y1.7647Z-0.0028
X9.5183Y1.6755Z-0.0029
X9.4681Y1.6553Z-0.0048
X9.4380Y1.6431Z-0.0116
X9.3878Y1.6228Z-0.0095
X9.3577Y1.6107Z-0.0157
X9.3276Y1.5985Z-0.0126
X9.3076Y1.5904Z-0.0081
X9.2875Y1.5823Z-0.0110
X9.2674Y1.5742Z-0.0155
X9.1872Y1.5417Z-0.0165
X9.1269Y1.5174Z-0.0175
X9.0768Y1.4971Z-0.0150
X9.0567Y1.4890Z-0.0111
X9.0266Y1.4769Z-0.0106
X8.9965Y1.4647Z-0.0049
X8.8560Y1.4079Z-0.0049
X8.8259Y1.3958Z-0.0103
X8.8159Y1.3917Z-0.0106
X8.7958Y1.3836Z-0.0073
X8.7557Y1.3674Z-0.0078
X8.7256Y1.3552Z-0.0056
X8.6051Y1.3066Z-0.0034
X8.2539Y1.1647Z-0.0045
X8.1837Y1.1363Z-0.0101
X8.1636Y1.1282Z-0.0107
X8.1335Y1.1160Z-0.0172
X8.0934Y1.0998Z-0.0170
X8.0833Y1.0958Z-0.0158
X8.0633Y1.0877Z-0.0084
X8.0432Y1.0796Z-0.0070
X7.9629Y1.0471Z-0.0049
X7.9228Y1.0309Z-0.0097
X7.9027Y1.0228Z-0.0144
X7.8425Y0.9985Z-0.0150
X7.8224Y0.9904Z-0.0116
X7.7923Y0.9782Z-0.0128
X7.7723Y0.9701Z-0.0060
X7.7020Y0.9417Z-0.0032
X7.5013Y0.8606Z-0.0023
X7.0799Y0.6903Z-0.0021
X6.9996Y0.6579Z-0.0028
X6.6685Y0.5241Z-0.0038
X6.5179Y0.4633Z-0.0050
X6.4878Y0.4511Z-0.0068
X6.4577Y0.4390Z-0.0058
X6.3574Y0.3984Z-0.0067
X6.3172Y0.3822Z-0.0067
X6.2269Y0.3457Z-0.0215
X6.1667Y0.3214Z-0.0221
X6.0363Y0.2687Z-0.0234
X5.9660Y0.2403Z-0.0200
X5.9058Y0.2160Z-0.0240
X5.8356Y0.1876Z-0.0190
X5.8155Y0.1795Z-0.0140
X5.8055Y0.1755Z-0.0133
X5.7653Y0.1592Z-0.0177
X5.7453Y0.1511Z-0.0159
X5.7352Y0.1471Z-0.0132
X5.6951Y0.1309Z-0.0143
X5.6650Y0.1187Z-0.0217
X5.6249Y0.1025Z-0.0224
X5.5747Y0.0822Z-0.0193
X5.5345Y0.0660Z-0.0148
X5.5044Y0.0538Z-0.0127
X5.4342Y0.0254Z-0.0137
X5.4242Y0.0214Z-0.0154
X5.3941Y0.0092Z-0.0125
X5.3740Y0.0011Z-0.0142
Z0.0200
X5.2903Y0.0011
G1Z-0.0160F30.0
G1X5.3304Y0.0173Z-0.0218F60.0
X5.3805Y0.0375Z-0.0165
X5.4106Y0.0497Z-0.0200
X5.4507Y0.0659Z-0.0133
X5.4807Y0.0780Z-0.0163
X5.5108Y0.0902Z-0.0147
X5.5409Y0.1023Z-0.0156
X5.5609Y0.1104Z-0.0210
X5.6411Y0.1428Z-0.0238
X5.6712Y0.1550Z-0.0189
X5.7213Y0.1752Z-0.0104
X5.7714Y0.1955Z-0.0132
X5.8015Y0.2076Z-0.0115
X5.8315Y0.2198Z-0.0210
X5.8616Y0.2319Z-0.0227
X5.9518Y0.2683Z-0.0167
X5.9618Y0.2724Z-0.0155
X6.0019Y0.2886Z-0.0209
X6.0721Y0.3169Z-0.0220
X6.1222Y0.3372Z-0.0231
X6.2024Y0.3696Z-0.0199
X6.2425Y0.3858Z-0.0150
X6.2525Y0.3898Z-0.0124
X6.2926Y0.4060Z-0.0089
X6.3226Y0.4182Z-0.0056
X6.4429Y0.4668Z-0.0048
X6.8338Y0.6247Z-0.0033
X7.0643Y0.7178Z-0.0026
X7.3550Y0.8353Z-0.0019
X7.5555Y0.9163Z-0.0031
X7.6256Y0.9446Z-0.0039
X7.6958Y0.9730Z-0.0081
X7.7158Y0.9811Z-0.0088
X7.7559Y0.9973Z-0.0063
X7.7960Y1.0135Z-0.0155
X7.8361Y1.0296Z-0.0178
X7.8561Y1.0377Z-0.0170
X7.8762Y1.0458Z-0.0097
X7.9463Y1.0742Z-0.0057
X8.0065Y1.0985Z-0.0057
X8.0366Y1.1106Z-0.0132
X8.0666Y1.1228Z-0.0156
X8.0967Y1.1349Z-0.0112
X8.1268Y1.1471Z-0.0119
X8.1568Y1.1592Z-0.0056
X8.2270Y1.1876Z-0.0045
X8.5978Y1.3374Z-0.0035
X8.6680Y1.3658Z-0.0065
X8.6880Y1.3739Z-0.0128
X8.6981Y1.3779Z-0.0136
X8.7181Y1.3860Z-0.0108
X8.7582Y1.4022Z-0.0131
X8.7983Y1.4184Z-0.0111
X8.8183Y1.4265Z-0.0116
X8.8684Y1.4467Z-0.0045
X8.9987Y1.4994Z-0.0054
X9.0388Y1.5156Z-0.0133
X9.1090Y1.5439Z-0.0161
X9.1691Y1.5682Z-0.0169
X9.2293Y1.5925Z-0.0149
X9.2794Y1.6128Z-0.0124
X9.3094Y1.6249Z-0.0121
X9.3395Y1.6371Z-0.0151
X9.3696Y1.6492Z-0.0131
X9.3997Y1.6614Z-0.0094
X9.4197Y1.6695Z-0.0066
X9.4397Y1.6776Z-0.0080
X9.4798Y1.6938Z-0.0034
X10.5122Y2.1109Z-0.0008
X10.6725Y2.1757Z-0.0022
X10.8630Y2.2526Z-0.0006
Z0.0200
X10.8630Y2.2864
G1Z-0.0009F30.0
G1X10.6122Y2.1851Z-0.0022F60.0
X10.5420Y2.1567Z-0.0017
X10.2813Y2.0513Z-0.0008
X9.5091Y1.7394Z-0.0030
X9.3887Y1.6907Z-0.0068
X9.3386Y1.6705Z-0.0114
X9.3185Y1.6624Z-0.0144
X9.2884Y1.6502Z-0.0117
X9.2584Y1.6381Z-0.0079
X9.2383Y1.6300Z-0.0096
X9.2182Y1.6218Z-0.0161
X9.1982Y1.6137Z-0.0173
X9.1079Y1.5773Z-0.0142
X9.0879Y1.5692Z-0.0108
X9.0678Y1.5611Z-0.0125
X9.0277Y1.5449Z-0.0092
X9.0076Y1.5368Z-0.0053
X8.9174Y1.5003Z-0.0052
X8.8372Y1.4679Z-0.0056
X8.7770Y1.4436Z-0.0097
X8.7569Y1.4355Z-0.0153
X8.6767Y1.4030Z-0.0143
X8.6165Y1.3787Z-0.0047
X8.3959Y1.2896Z-0.0028
X8.1151Y1.1761Z-0.0049
X8.0750Y1.1599Z-0.0094
X8.0549Y1.1518Z-0.0133
X8.0349Y1.1437Z-0.0107
X8.0148Y1.1356Z-0.0070
X7.9947Y1.1275Z-0.0107
X7.9847Y1.1235Z-0.0107
X7.9647Y1.1154Z-0.0065
X7.9446Y1.1073Z-0.0082
X7.9346Y1.1032Z-0.0094
X7.9045Y1.0911Z-0.0061
X7.8744Y1.0789Z-0.0092
X7.8543Y1.0708Z-0.0152
X7.8042Y1.0505Z-0.0186
X7.6738Y0.9979Z-0.0141
X7.6437Y0.9857Z-0.0146
X7.6137Y0.9735Z-0.0057
X7.5134Y0.9330Z-0.0027
X7.1523Y0.7872Z-0.0019
X6.4503Y0.5035Z-0.0042
X6.3701Y0.4711Z-0.0056
X6.2397Y0.4184Z-0.0074
X6.2096Y0.4063Z-0.0129
X6.1896Y0.3982Z-0.0184
X6.1695Y0.3901Z-0.0179
X6.1294Y0.3739Z-0.0220
X6.0592Y0.3455Z-0.0216
X6.0291Y0.3334Z-0.0191
X5.9990Y0.3212Z-0.0183
X5.9589Y0.3050Z-0.0122
X5.9389Y0.2969Z-0.0146
X5.9188Y0.2888Z-0.0139
X5.8787Y0.2726Z-0.0206
X5.8185Y0.2483Z-0.0193
X5.7985Y0.2402Z-0.0156
X5.7784Y0.2321Z-0.0159
X5.7483Y0.2199Z-0.0105
X5.6781Y0.1915Z-0.0136
X5.6480Y0.1794Z-0.0190
X5.6179Y0.1672Z-0.0228
X5.5678Y0.1470Z-0.0221
X5.5277Y0.1308Z-0.0135
X5.4976Y0.1186Z-0.0150
X5.4775Y0.1105Z-0.0189
X5.4474Y0.0983Z-0.0199
X5.4174Y0.0862Z-0.0226
X5.3672Y0.0659Z-0.0238
X5.3171Y0.0457Z-0.0233
X5.2970Y0.0376Z-0.0190
X5.2669Y0.0254Z-0.0119
X5.2068Y0.0011Z-0.0096
Z0.0200
X5.1232Y0.0011
G1Z-0.0098F30.0
G1X5.2336Y0.0457Z-0.0114F60.0
X5.2737Y0.0619Z-0.0161
X5.3139Y0.0781Z-0.0237
X5.4543Y0.1349Z-0.0236
X5.5246Y0.1633Z-0.0158
X5.5547Y0.1754Z-0.0204
X5.5848Y0.1876Z-0.0233
X5.6149Y0.1998Z-0.0225
X5.6651Y0.2200Z-0.0130
X5.6851Y0.2282Z-0.0127
X5.7052Y0.2363Z-0.0151
X5.7253Y0.2444Z-0.0120
X5.7554Y0.2565Z-0.0125
X5.7955Y0.2728Z-0.0206
X5.8658Y0.3011Z-0.0219
X5.8959Y0.3133Z-0.0184
X5.9360Y0.3295Z-0.0117
X5.9561Y0.3376Z-0.0102
X5.9962Y0.3538Z-0.0133
X6.0363Y0.3701Z-0.0115
X6.0765Y0.3863Z-0.0187
X6.1166Y0.4025Z-0.0173
X6.1467Y0.4146Z-0.0197
X6.1768Y0.4268Z-0.0173
X6.2270Y0.4471Z-0.0072
X6.2671Y0.4633Z-0.0067
X6.2872Y0.4714Z-0.0090
X6.3173Y0.4836Z-0.0048
X6.5581Y0.5809Z-0.0033
X7.1702Y0.8282Z-0.0019
X7.5516Y0.9822Z-0.0034
X7.5716Y0.9903Z-0.0071
X7.5917Y0.9985Z-0.0119
X7.6619Y1.0268Z-0.0171
X7.7221Y1.0512Z-0.0205
X7.7623Y1.0674Z-0.0188
X7.8426Y1.0998Z-0.0181
X7.9028Y1.1241Z-0.0115
X7.9228Y1.1322Z-0.0144
X7.9630Y1.1485Z-0.0060
X8.0131Y1.1687Z-0.0059
X8.2138Y1.2498Z-0.0034
X8.4145Y1.3309Z-0.0039
X8.4948Y1.3633Z-0.0057
X8.5149Y1.3714Z-0.0086
X8.5450Y1.3836Z-0.0082
X8.5650Y1.3917Z-0.0099
X8.5951Y1.4039Z-0.0055
X8.6252Y1.4160Z-0.0072
X8.6453Y1.4241Z-0.0131
X8.6855Y1.4404Z-0.0164
X8.7457Y1.4647Z-0.0141
X8.7758Y1.4768Z-0.0069
X8.8159Y1.4931Z-0.0051
X8.8460Y1.5052Z-0.0074
X8.8861Y1.5214Z-0.0044
X9.0166Y1.5741Z-0.0052
X9.0868Y1.6025Z-0.0076
X9.1370Y1.6228Z-0.0130
X9.1571Y1.6309Z-0.0122
X9.1972Y1.6471Z-0.0159
X9.2173Y1.6552Z-0.0150
X9.2574Y1.6714Z-0.0058
X9.3176Y1.6958Z-0.0083
X9.3477Y1.7079Z-0.0052
X9.6086Y1.8133Z-0.0021
X9.9097Y1.9350Z-0.0022
X10.2408Y2.0688Z-0.0009
X10.2609Y2.0769Z-0.0044
X10.2709Y2.0809Z-0.0009
X10.6121Y2.2188Z-0.0016
X10.7124Y2.2593Z-0.0020
X10.8629Y2.3201Z-0.0008
Z0.0200
X10.8630Y2.3539
G1Z-0.0011F30.0
G1X10.6024Y2.2486Z-0.0012F60.0
X9.9809Y1.9975Z-0.0015
X9.5299Y1.8153Z-0.0027
X9.2392Y1.6979Z-0.0055
X9.1891Y1.6776Z-0.0106
X9.1390Y1.6574Z-0.0067
X9.0989Y1.6412Z-0.0071
X9.0688Y1.6290Z-0.0045
X9.0388Y1.6169Z-0.0059
X8.9987Y1.6007Z-0.0050
X8.8082Y1.5237Z-0.0051
X8.7481Y1.4994Z-0.0107
X8.6980Y1.4792Z-0.0158
X8.6479Y1.4589Z-0.0150
X8.6178Y1.4468Z-0.0080
X8.5977Y1.4387Z-0.0085
X8.5577Y1.4225Z-0.0138
X8.4975Y1.3982Z-0.0136
X8.4674Y1.3861Z-0.0091
X8.4474Y1.3780Z-0.0109
X8.4073Y1.3618Z-0.0049
X8.3472Y1.3375Z-0.0033
X8.0465Y1.2160Z-0.0036
X7.9563Y1.1795Z-0.0051
X7.9262Y1.1674Z-0.0099
X7.9062Y1.1593Z-0.0128
X7.8761Y1.1471Z-0.0107
X7.8661Y1.1431Z-0.0116
X7.8460Y1.1350Z-0.0169
X7.7859Y1.1107Z-0.0189
X7.7257Y1.0864Z-0.0176
X7.6656Y1.0621Z-0.0167
X7.6355Y1.0499Z-0.0120
X7.6055Y1.0378Z-0.0161
X7.5854Y1.0297Z-0.0114
X7.5654Y1.0216Z-0.0059
X7.5052Y0.9973Z-0.0047
X7.4852Y0.9892Z-0.0059
X7.4551Y0.9770Z-0.0038
X7.2146Y0.8798Z-0.0024
X6.8337Y0.7260Z-0.0024
X6.4528Y0.5721Z-0.0036
X6.2323Y0.4830Z-0.0056
X6.1922Y0.4668Z-0.0076
X6.1621Y0.4546Z-0.0155
X6.1321Y0.4425Z-0.0124
X6.1020Y0.4303Z-0.0095
X6.0719Y0.4182Z-0.0125
X6.0218Y0.3979Z-0.0082
X5.9917Y0.3858Z-0.0107
X5.9617Y0.3736Z-0.0078
X5.9115Y0.3534Z-0.0130
X5.8815Y0.3413Z-0.0193
X5.7913Y0.3048Z-0.0228
X5.7812Y0.3008Z-0.0217
X5.7612Y0.2927Z-0.0144
X5.7411Y0.2846Z-0.0129
X5.7011Y0.2684Z-0.0176
X5.6710Y0.2562Z-0.0143
X5.6309Y0.2400Z-0.0216
X5.5708Y0.2157Z-0.0244
X5.4906Y0.1833Z-0.0227
X5.4304Y0.1590Z-0.0232
X5.3102Y0.1104Z-0.0244
X5.2701Y0.0942Z-0.0225
X5.2300Y0.0780Z-0.0117
X5.1398Y0.0416Z-0.0102
X5.0395Y0.0011Z-0.0112
Z0.0200
X4.9560Y0.0011
G1Z-0.0114F30.0
G1X5.0663Y0.0457Z-0.0120F60.0
X5.1566Y0.0821Z-0.0102
X5.2368Y0.1146Z-0.0131
X5.2568Y0.1227Z-0.0176
X5.2769Y0.1308Z-0.0224
X5.3571Y0.1632Z-0.0228
X5.3973Y0.1794Z-0.0194
X5.4374Y0.1956Z-0.0218
X5.5477Y0.2402Z-0.0226
X5.6480Y0.2807Z-0.0215
X5.7081Y0.3050Z-0.0214
X5.7382Y0.3171Z-0.0152
X5.7483Y0.3212Z-0.0146
X5.7783Y0.3334Z-0.0214
X5.8185Y0.3496Z-0.0223
X5.9087Y0.3860Z-0.0102
X5.9388Y0.3982Z-0.0104
X5.9789Y0.4144Z-0.0073
X6.0391Y0.4387Z-0.0084
X6.0692Y0.4509Z-0.0088
X6.1193Y0.4711Z-0.0065
X6.1494Y0.4833Z-0.0089
X6.1895Y0.4995Z-0.0054
X6.5606Y0.6494Z-0.0025
X7.1623Y0.8925Z-0.0025
X7.3930Y0.9857Z-0.0045
X7.4231Y0.9979Z-0.0115
X7.4331Y1.0019Z-0.0116
X7.4532Y1.0100Z-0.0085
X7.4732Y1.0181Z-0.0120
X7.4832Y1.0222Z-0.0119
X7.5133Y1.0343Z-0.0058
X7.5534Y1.0505Z-0.0049
X7.5735Y1.0586Z-0.0078
X7.6337Y1.0830Z-0.0073
X7.6638Y1.0951Z-0.0166
X7.7039Y1.1113Z-0.0198
X7.7340Y1.1235Z-0.0192
X7.7540Y1.1316Z-0.0155
X7.7841Y1.1437Z-0.0151
X7.8042Y1.1518Z-0.0105
X7.8443Y1.1681Z-0.0096
X7.8744Y1.1802Z-0.0053
X8.0649Y1.2572Z-0.0030
X8.1251Y1.2815Z-0.0031
X8.3558Y1.3747Z-0.0043
X8.4159Y1.3990Z-0.0097
X8.4360Y1.4071Z-0.0139
X8.5062Y1.4355Z-0.0163
X8.5964Y1.4719Z-0.0150
X8.6265Y1.4841Z-0.0152
X8.6566Y1.4963Z-0.0168
X8.6767Y1.5044Z-0.0153
X8.6967Y1.5125Z-0.0163
X8.7268Y1.5246Z-0.0086
X8.7669Y1.5408Z-0.0076
X8.7870Y1.5489Z-0.0077
X8.8070Y1.5570Z-0.0058
X8.9475Y1.6138Z-0.0048
X9.0879Y1.6705Z-0.0045
X9.1179Y1.6826Z-0.0057
X9.1581Y1.6989Z-0.0048
X9.1982Y1.7151Z-0.0047
X9.4990Y1.8366Z-0.0030
X9.7999Y1.9582Z-0.0024
X9.9503Y2.0190Z-0.0018
X10.3615Y2.1851Z-0.0006
X10.6323Y2.2945Z-0.0017
X10.8630Y2.3877Z-0.0010
Z0.0200
X10.8629Y2.4214
G1Z-0.0010F30.0
G1X10.6422Y2.3322Z-0.0024F60.0
X10.5719Y2.3039Z-0.0008
X9.9899Y2.0687Z-0.0019
X9.8093Y1.9958Z-0.0030
X9.4882Y1.8660Z-0.0026
X9.1972Y1.7485Z-0.0043
X9.0869Y1.7039Z-0.0042
X8.9464Y1.6471Z-0.0055
X8.8862Y1.6228Z-0.0071
X8.8661Y1.6147Z-0.0104
X8.8360Y1.6025Z-0.0071
X8.8059Y1.5903Z-0.0081
X8.7758Y1.5782Z-0.0135
X8.7457Y1.5660Z-0.0084
X8.7256Y1.5579Z-0.0097
X8.6955Y1.5457Z-0.0144
X8.6353Y1.5214Z-0.0174
X8.6052Y1.5093Z-0.0168
X8.5851Y1.5011Z-0.0179
X8.5350Y1.4809Z-0.0158
X8.4948Y1.4647Z-0.0146
X8.4346Y1.4403Z-0.0110
X8.4146Y1.4322Z-0.0121
X8.3644Y1.4120Z-0.0097
X8.3343Y1.3998Z-0.0040
X7.8827Y1.2174Z-0.0037
X7.8025Y1.1849Z-0.0052
X7.7423Y1.1606Z-0.0129
X7.7222Y1.1525Z-0.0134
X7.7021Y1.1444Z-0.0168
X7.6821Y1.1363Z-0.0161
X7.6620Y1.1282Z-0.0176
X7.6419Y1.1201Z-0.0139
X7.6218Y1.1120Z-0.0074
X7.5315Y1.0755Z-0.0050
X7.4914Y1.0592Z-0.0095
X7.4713Y1.0511Z-0.0146
X7.4111Y1.0268Z-0.0149
X7.3810Y1.0147Z-0.0101
X7.3610Y1.0065Z-0.0113
X7.3308Y0.9944Z-0.0048
X7.2305Y0.9538Z-0.0030
X6.9094Y0.8241Z-0.0023
X6.3174Y0.5849Z-0.0035
X6.1568Y0.5200Z-0.0054
X6.1368Y0.5119Z-0.0082
X6.0966Y0.4957Z-0.0056
X5.9963Y0.4552Z-0.0078
X5.9561Y0.4390Z-0.0078
X5.9260Y0.4268Z-0.0092
X5.8959Y0.4146Z-0.0076
X5.8357Y0.3903Z-0.0198
X5.7956Y0.3741Z-0.0229
X5.6752Y0.3255Z-0.0218
X5.4946Y0.2525Z-0.0221
X5.4645Y0.2403Z-0.0155
X5.4243Y0.2241Z-0.0187
X5.3942Y0.2119Z-0.0155
X5.3340Y0.1876Z-0.0226
X5.2738Y0.1633Z-0.0225
X5.2136Y0.1390Z-0.0132
X5.1333Y0.1065Z-0.0106
X5.0731Y0.0822Z-0.0119
X5.0430Y0.0700Z-0.0170
X5.0029Y0.0538Z-0.0149
X4.9527Y0.0336Z-0.0111
X4.8724Y0.0011Z-0.0112
Z0.0200
X4.7888Y0.0011
G1Z-0.0141F30.0
G1X4.8389Y0.0213Z-0.0122F60.0
X4.9491Y0.0659Z-0.0117
X4.9792Y0.0780Z-0.0146
X5.0093Y0.0902Z-0.0203
X5.0494Y0.1064Z-0.0204
X5.0794Y0.1185Z-0.0165
X5.0995Y0.1266Z-0.0178
X5.1396Y0.1428Z-0.0126
X5.2198Y0.1752Z-0.0149
X5.2599Y0.1914Z-0.0224
X5.3000Y0.2076Z-0.0239
X5.3400Y0.2238Z-0.0215
X5.3801Y0.2400Z-0.0126
X5.4102Y0.2522Z-0.0117
X5.4603Y0.2724Z-0.0125
X5.4804Y0.2805Z-0.0172
X5.4904Y0.2846Z-0.0208
X5.5104Y0.2927Z-0.0225
X5.5806Y0.3210Z-0.0191
X5.6007Y0.3291Z-0.0182
X5.6307Y0.3413Z-0.0223
X5.6909Y0.3656Z-0.0214
X5.7711Y0.3980Z-0.0223
X5.8112Y0.4142Z-0.0199
X5.8613Y0.4344Z-0.0123
X5.9214Y0.4587Z-0.0066
X5.9715Y0.4790Z-0.0075
X6.2121Y0.5761Z-0.0049
X6.4927Y0.6895Z-0.0027
X7.0140Y0.9001Z-0.0022
X7.2044Y0.9771Z-0.0039
X7.2646Y1.0014Z-0.0059
X7.2846Y1.0095Z-0.0068
X7.3147Y1.0216Z-0.0046
X7.3247Y1.0257Z-0.0055
X7.3548Y1.0378Z-0.0138
X7.3949Y1.0540Z-0.0176
X7.4149Y1.0621Z-0.0162
X7.4350Y1.0702Z-0.0119
X7.4550Y1.0783Z-0.0127
X7.4851Y1.0905Z-0.0063
X7.5552Y1.1188Z-0.0049
X7.5953Y1.1350Z-0.0113
X7.6154Y1.1431Z-0.0123
X7.6254Y1.1472Z-0.0138
X7.6555Y1.1593Z-0.0106
X7.6855Y1.1715Z-0.0150
X7.7056Y1.1796Z-0.0106
X7.7357Y1.1917Z-0.0057
X7.9361Y1.2727Z-0.0038
X8.0063Y1.3011Z-0.0033
X8.3270Y1.4306Z-0.0045
X8.4072Y1.4630Z-0.0121
X8.4373Y1.4752Z-0.0086
X8.4974Y1.4995Z-0.0138
X8.5275Y1.5116Z-0.0132
X8.5776Y1.5319Z-0.0162
X8.6879Y1.5764Z-0.0160
X8.7079Y1.5845Z-0.0145
X8.7280Y1.5926Z-0.0147
X8.7480Y1.6007Z-0.0140
X8.7881Y1.6169Z-0.0146
X8.8282Y1.6331Z-0.0092
X8.8583Y1.6453Z-0.0141
X8.8683Y1.6493Z-0.0139
X8.9084Y1.6655Z-0.0051
X9.2091Y1.7870Z-0.0041
X9.4797Y1.8964Z-0.0030
X10.3117Y2.2325Z-0.0010
X10.5322Y2.3216Z-0.0013
X10.6525Y2.3702Z-0.0017
X10.8630Y2.4552Z-0.0012
Z0.0200
X10.8630Y2.4890
G1Z-0.0012F30.0
G1X10.6524Y2.4039Z-0.0016F60.0
X10.0707Y2.1689Z-0.0011
X9.8601Y2.0838Z-0.0025
X9.5091Y1.9420Z-0.0032
X9.3787Y1.8893Z-0.0040
X8.9575Y1.7191Z-0.0040
X8.8973Y1.6948Z-0.0050
X8.8572Y1.6786Z-0.0137
X8.7268Y1.6259Z-0.0155
X8.7067Y1.6178Z-0.0139
X8.6666Y1.6016Z-0.0167
X8.5964Y1.5733Z-0.0171
X8.5463Y1.5530Z-0.0141
X8.5162Y1.5408Z-0.0082
X8.4560Y1.5165Z-0.0097
X8.4159Y1.5003Z-0.0054
X8.3658Y1.4801Z-0.0072
X8.3256Y1.4639Z-0.0040
X8.1852Y1.4071Z-0.0040
X7.7741Y1.2410Z-0.0041
X7.6738Y1.2005Z-0.0057
X7.6336Y1.1843Z-0.0086
X7.6136Y1.1762Z-0.0123
X7.5935Y1.1681Z-0.0116
X7.5735Y1.1600Z-0.0062
X7.5534Y1.1519Z-0.0060
X7.5133Y1.1356Z-0.0066
X7.4932Y1.1275Z-0.0078
X7.4632Y1.1154Z-0.0057
X7.4431Y1.1073Z-0.0076
X7.4130Y1.0951Z-0.0158
X7.3629Y1.0749Z-0.0181
X7.3328Y1.0627Z-0.0169
X7.3127Y1.0546Z-0.0124
X7.2626Y1.0343Z-0.0147
X7.2425Y1.0262Z-0.0130
X7.2225Y1.0181Z-0.0146
X7.2124Y1.0141Z-0.0133
X7.1924Y1.0060Z-0.0066
X7.1322Y0.9817Z-0.0028
X6.7110Y0.8115Z-0.0025
X6.4603Y0.7102Z-0.0028
X6.2296Y0.6170Z-0.0042
X6.1093Y0.5684Z-0.0062
X6.0691Y0.5522Z-0.0053
X5.9689Y0.5116Z-0.0068
X5.9488Y0.5035Z-0.0079
X5.9187Y0.4914Z-0.0065
X5.8284Y0.4549Z-0.0105
X5.7883Y0.4387Z-0.0198
X5.7382Y0.4185Z-0.0225
X5.6580Y0.3860Z-0.0195
X5.6379Y0.3779Z-0.0205
X5.6078Y0.3658Z-0.0154
X5.5677Y0.3496Z-0.0175
X5.5476Y0.3415Z-0.0187
X5.5175Y0.3293Z-0.0224
X5.4875Y0.3172Z-0.0215
X5.4574Y0.3050Z-0.0158
X5.4173Y0.2888Z-0.0106
X5.3571Y0.2645Z-0.0153
X5.3170Y0.2483Z-0.0222
X5.2568Y0.2240Z-0.0228
X5.2167Y0.2078Z-0.0136
X5.1866Y0.1956Z-0.0150
X5.1565Y0.1834Z-0.0165
X5.1365Y0.1753Z-0.0170
X5.0963Y0.1591Z-0.0221
X5.0261Y0.1308Z-0.0236
X4.9960Y0.1186Z-0.0189
X4.9660Y0.1065Z-0.0130
X4.9258Y0.0902Z-0.0105
X4.8155Y0.0457Z-0.0117
X4.7554Y0.0214Z-0.0172
X4.7253Y0.0092Z-0.0189
X4.7052Y0.0011Z-0.0192
Z0.0200
X4.6217Y0.0011
G1Z-0.0157F30.0
G1X4.6618Y0.0173Z-0.0185F60.0
X4.7019Y0.0336Z-0.0173
X4.7822Y0.0660Z-0.0124
X4.9127Y0.1187Z-0.0111
X4.9628Y0.1390Z-0.0148
X5.0130Y0.1592Z-0.0231
X5.0933Y0.1917Z-0.0238
X5.1334Y0.2079Z-0.0222
X5.1635Y0.2200Z-0.0225
X5.2036Y0.2363Z-0.0153
X5.2237Y0.2444Z-0.0169
X5.2538Y0.2565Z-0.0232
X5.3040Y0.2768Z-0.0216
X5.3542Y0.2971Z-0.0141
X5.3843Y0.3092Z-0.0140
X5.4244Y0.3254Z-0.0133
X5.4344Y0.3295Z-0.0141
X5.4645Y0.3417Z-0.0224
X5.5147Y0.3619Z-0.0238
X5.5548Y0.3781Z-0.0183
X5.5950Y0.3944Z-0.0121
X5.6150Y0.4025Z-0.0140
X5.6351Y0.4106Z-0.0155
X5.6552Y0.4187Z-0.0142
X5.6953Y0.4349Z-0.0187
X5.7656Y0.4633Z-0.0203
X5.8157Y0.4836Z-0.0133
X5.8458Y0.4957Z-0.0078
X5.9060Y0.5200Z-0.0067
X6.1168Y0.6052Z-0.0050
X6.3676Y0.7065Z-0.0030
X6.6686Y0.8282Z-0.0022
X7.1202Y1.0106Z-0.0034
X7.1603Y1.0268Z-0.0120
X7.1804Y1.0349Z-0.0114
X7.2005Y1.0430Z-0.0157
X7.3008Y1.0836Z-0.0194
X7.3309Y1.0957Z-0.0179
X7.4212Y1.1322Z-0.0166
X7.4613Y1.1484Z-0.0096
X7.4914Y1.1606Z-0.0123
X7.5215Y1.1727Z-0.0060
X7.8527Y1.3065Z-0.0031
X8.2540Y1.4687Z-0.0038
X8.3845Y1.5214Z-0.0046
X8.4146Y1.5336Z-0.0043
X8.4547Y1.5498Z-0.0106
X8.4748Y1.5579Z-0.0093
X8.5049Y1.5700Z-0.0072
X8.5149Y1.5741Z-0.0080
X8.5450Y1.5863Z-0.0156
X8.6654Y1.6349Z-0.0149
X8.7156Y1.6552Z-0.0172
X8.7758Y1.6795Z-0.0133
X8.7959Y1.6876Z-0.0105
X8.8360Y1.7038Z-0.0112
X8.8862Y1.7241Z-0.0048
X9.1170Y1.8173Z-0.0036
X9.2474Y1.8701Z-0.0037
X9.3578Y1.9146Z-0.0051
X9.4381Y1.9471Z-0.0051
X9.5384Y1.9876Z-0.0024
X9.8595Y2.1174Z-0.0019
X10.5820Y2.4092Z-0.0012
X10.8228Y2.5065Z-0.0012
X10.8629Y2.5228Z-0.0012
Z0.0200
X10.8630Y2.5565
G1Z-0.0010F30.0
G1X10.6425Y2.4675Z-0.0015F60.0
X10.1413Y2.2650Z-0.0019
X9.8706Y2.1556Z-0.0019
X9.4697Y1.9936Z-0.0031
X9.4496Y1.9855Z-0.0046
X9.4196Y1.9734Z-0.0120
X9.4095Y1.9693Z-0.0118
X9.3895Y1.9612Z-0.0068
X9.3795Y1.9572Z-0.0062
X9.3594Y1.9491Z-0.0134
X9.3494Y1.9450Z-0.0147
X9.3193Y1.9329Z-0.0142
X9.2993Y1.9248Z-0.0088
X9.2291Y1.8964Z-0.0035
X8.8382Y1.7385Z-0.0044
X8.8081Y1.7263Z-0.0060
X8.7480Y1.7020Z-0.0109
X8.7179Y1.6899Z-0.0125
X8.7079Y1.6858Z-0.0145
X8.6778Y1.6737Z-0.0128
X8.6578Y1.6656Z-0.0099
X8.6076Y1.6453Z-0.0119
X8.5876Y1.6372Z-0.0156
X8.5575Y1.6251Z-0.0136
X8.5375Y1.6170Z-0.0118
X8.5174Y1.6089Z-0.0129
X8.4673Y1.5886Z-0.0107
X8.4272Y1.5724Z-0.0055
X8.2969Y1.5198Z-0.0040
X8.1265Y1.4509Z-0.0047
X8.0463Y1.4185Z-0.0054
X8.0263Y1.4104Z-0.0092
X7.9260Y1.3699Z-0.0033
X7.5351Y1.2120Z-0.0045
X7.4950Y1.1958Z-0.0092
X7.4749Y1.1877Z-0.0136
X7.4349Y1.1715Z-0.0126
X7.4048Y1.1593Z-0.0168
X7.3647Y1.1431Z-0.0189
X7.2544Y1.0986Z-0.0165
X7.2244Y1.0864Z-0.0153
X7.2043Y1.0783Z-0.0121
X7.1742Y1.0662Z-0.0157
X7.1542Y1.0581Z-0.0127
X7.1341Y1.0500Z-0.0064
X7.0840Y1.0298Z-0.0040
X7.0539Y1.0176Z-0.0048
X6.9036Y0.9569Z-0.0022
X6.6229Y0.8435Z-0.0021
X6.1017Y0.6329Z-0.0044
X5.8411Y0.5276Z-0.0069
X5.8010Y0.5114Z-0.0106
X5.7709Y0.4992Z-0.0161
X5.7208Y0.4790Z-0.0126
X5.6907Y0.4668Z-0.0145
X5.6606Y0.4547Z-0.0101
X5.6206Y0.4385Z-0.0129
X5.6005Y0.4304Z-0.0106
X5.5604Y0.4142Z-0.0155
X5.5203Y0.3980Z-0.0222
X5.4602Y0.3737Z-0.0234
X5.4401Y0.3656Z-0.0185
X5.4301Y0.3615Z-0.0152
X5.4000Y0.3494Z-0.0148
X5.3700Y0.3372Z-0.0175
X5.3399Y0.3251Z-0.0179
X5.2797Y0.3008Z-0.0254
X5.1795Y0.2603Z-0.0237
X5.1294Y0.2400Z-0.0239
X5.0091Y0.1914Z-0.0242
X4.9690Y0.1752Z-0.0215
X4.9389Y0.1631Z-0.0137
X4.8387Y0.1226Z-0.0110
X4.7585Y0.0902Z-0.0126
X4.7284Y0.0780Z-0.0128
X4.7184Y0.0740Z-0.0115
X4.6783Y0.0578Z-0.0151
X4.6282Y0.0375Z-0.0165
X4.5881Y0.0213Z-0.0142
X4.5580Y0.0092Z-0.0159
X4.5380Y0.0011Z-0.0149
Z0.0200
X4.4544Y0.0011
G1Z-0.0151F30.0
G1X4.5046Y0.0214Z-0.0146F60.0
X4.5347Y0.0335Z-0.0182
X4.5748Y0.0497Z-0.0157
X4.6049Y0.0619Z-0.0127
X4.6450Y0.0781Z-0.0133
X4.7352Y0.1146Z-0.0131
X4.8857Y0.1753Z-0.0122
X4.9459Y0.1996Z-0.0142
X4.9659Y0.2078Z-0.0215
X4.9960Y0.2199Z-0.0244
X5.0562Y0.2442Z-0.0232
X5.0762Y0.2523Z-0.0204
X5.1163Y0.2685Z-0.0237
X5.2166Y0.3091Z-0.0252
X5.2568Y0.3253Z-0.0235
X5.3069Y0.3455Z-0.0240
X5.3570Y0.3658Z-0.0220
X5.3871Y0.3779Z-0.0225
X5.4172Y0.3901Z-0.0181
X5.4573Y0.4063Z-0.0237
X5.5075Y0.4266Z-0.0225
X5.5476Y0.4428Z-0.0127
X5.5977Y0.4630Z-0.0108
X5.6278Y0.4752Z-0.0110
X5.6780Y0.4954Z-0.0103
X5.7081Y0.5076Z-0.0110
X5.7482Y0.5238Z-0.0099
X5.7682Y0.5319Z-0.0108
X5.7983Y0.5441Z-0.0069
X6.0390Y0.6413Z-0.0048
X6.1894Y0.7021Z-0.0039
X6.3900Y0.7831Z-0.0026
X6.6307Y0.8804Z-0.0022
X6.8614Y0.9736Z-0.0028
X6.9316Y1.0019Z-0.0031
X6.9717Y1.0181Z-0.0055
X7.0018Y1.0303Z-0.0100
X7.0219Y1.0384Z-0.0081
X7.0419Y1.0465Z-0.0123
X7.0820Y1.0627Z-0.0053
X7.1221Y1.0789Z-0.0061
X7.1422Y1.0870Z-0.0091
X7.2024Y1.1113Z-0.0074
X7.2425Y1.1276Z-0.0183
X7.2726Y1.1397Z-0.0194
X7.3328Y1.1640Z-0.0165
X7.3628Y1.1762Z-0.0151
X7.3929Y1.1883Z-0.0143
X7.4130Y1.1964Z-0.0122
X7.4330Y1.2045Z-0.0066
X7.5434Y1.2491Z-0.0039
X7.8643Y1.3788Z-0.0038
X7.9345Y1.4071Z-0.0047
X7.9646Y1.4193Z-0.0092
X7.9947Y1.4314Z-0.0100
X8.0147Y1.4396Z-0.0114
X8.0548Y1.4558Z-0.0070
X8.0849Y1.4679Z-0.0080
X8.1050Y1.4760Z-0.0106
X8.1250Y1.4841Z-0.0064
X8.1952Y1.5125Z-0.0073
X8.2253Y1.5246Z-0.0042
X8.3557Y1.5773Z-0.0042
X8.3958Y1.5935Z-0.0054
X8.4159Y1.6016Z-0.0085
X8.4460Y1.6138Z-0.0070
X8.4861Y1.6300Z-0.0133
X8.5663Y1.6624Z-0.0172
X8.6064Y1.6786Z-0.0119
X8.6365Y1.6908Z-0.0066
X8.6967Y1.7151Z-0.0090
X8.7769Y1.7475Z-0.0045
X9.1681Y1.9055Z-0.0042
X9.2483Y1.9379Z-0.0044
X9.2683Y1.9460Z-0.0079
X9.2884Y1.9542Z-0.0148
X9.3185Y1.9663Z-0.0177
X9.4088Y2.0028Z-0.0149
X9.4489Y2.0190Z-0.0049
X9.6996Y2.1203Z-0.0020
X9.9603Y2.2256Z-0.0017
X10.2412Y2.3391Z-0.0027
X10.3414Y2.3796Z-0.0012
X10.3615Y2.3877Z-0.0049
X10.3816Y2.3958Z-0.0020
X10.6724Y2.5133Z-0.0018
X10.7928Y2.5619Z-0.0011
X10.8630Y2.5903Z-0.0010
Z0.0200
X10.8629Y2.6241
G1Z-0.0012F30.0
G1X10.6723Y2.5471Z-0.0017F60.0
X10.1405Y2.3322Z-0.0027
X10.1204Y2.3241Z-0.0033
X10.0803Y2.3079Z-0.0015
X9.6689Y2.1416Z-0.0021
X9.4782Y2.0646Z-0.0032
X9.4381Y2.0484Z-0.0055
X9.3980Y2.0322Z-0.0161
X9.3578Y2.0160Z-0.0186
X9.3277Y2.0038Z-0.0125
X9.2976Y1.9916Z-0.0124
X9.2575Y1.9754Z-0.0057
X9.2173Y1.9592Z-0.0065
X9.1973Y1.9511Z-0.0094
X9.1672Y1.9389Z-0.0060
X9.1371Y1.9268Z-0.0069
X9.1070Y1.9146Z-0.0037
X8.9565Y1.8538Z-0.0038
X8.6956Y1.7484Z-0.0044
X8.6554Y1.7322Z-0.0045
X8.6354Y1.7241Z-0.0045
X8.5852Y1.7038Z-0.0129
X8.5451Y1.6876Z-0.0133
X8.5250Y1.6795Z-0.0148
X8.4949Y1.6673Z-0.0151
X8.4648Y1.6552Z-0.0119
X8.4447Y1.6471Z-0.0100
X8.4347Y1.6430Z-0.0076
X8.4046Y1.6308Z-0.0082
X8.3143Y1.5944Z-0.0040
X8.2240Y1.5579Z-0.0053
X8.2039Y1.5498Z-0.0074
X8.1838Y1.5417Z-0.0119
X8.1337Y1.5214Z-0.0082
X8.1036Y1.5092Z-0.0121
X8.0634Y1.4930Z-0.0123
X8.0032Y1.4687Z-0.0135
X7.9731Y1.4565Z-0.0131
X7.9330Y1.4403Z-0.0052
X7.8627Y1.4119Z-0.0049
X7.8126Y1.3917Z-0.0039
X7.4112Y1.2295Z-0.0046
X7.3610Y1.2092Z-0.0074
X7.3309Y1.1971Z-0.0115
X7.2808Y1.1768Z-0.0167
X7.2406Y1.1606Z-0.0180
X7.2206Y1.1525Z-0.0165
X7.1905Y1.1403Z-0.0081
X7.1403Y1.1200Z-0.0065
X7.0901Y1.0998Z-0.0049
X7.0500Y1.0835Z-0.0099
X7.0299Y1.0754Z-0.0153
X6.9697Y1.0511Z-0.0142
X6.9396Y1.0390Z-0.0088
X6.9195Y1.0308Z-0.0089
X6.8894Y1.0187Z-0.0045
X6.7088Y0.9457Z-0.0023
X6.4178Y0.8281Z-0.0023
X6.1971Y0.7390Z-0.0033
X6.0064Y0.6619Z-0.0051
X5.7857Y0.5727Z-0.0064
X5.7456Y0.5565Z-0.0083
X5.7155Y0.5444Z-0.0089
X5.6853Y0.5322Z-0.0103
X5.6352Y0.5119Z-0.0109
X5.6151Y0.5038Z-0.0090
X5.5750Y0.4876Z-0.0120
X5.5549Y0.4795Z-0.0107
X5.5047Y0.4592Z-0.0207
X5.4646Y0.4430Z-0.0253
X5.4044Y0.4187Z-0.0240
X5.3342Y0.3903Z-0.0248
X5.2438Y0.3538Z-0.0244
X5.1736Y0.3254Z-0.0243
X5.1435Y0.3133Z-0.0204
X5.1034Y0.2971Z-0.0198
X5.0733Y0.2849Z-0.0163
X5.0331Y0.2687Z-0.0212
X5.0131Y0.2606Z-0.0237
X4.9629Y0.2403Z-0.0231
X4.9127Y0.2200Z-0.0155
X4.8425Y0.1917Z-0.0134
X4.7722Y0.1633Z-0.0143
X4.7421Y0.1511Z-0.0175
X4.6719Y0.1227Z-0.0120
X4.5716Y0.0822Z-0.0133
X4.5214Y0.0619Z-0.0159
X4.4813Y0.0457Z-0.0139
X4.4411Y0.0295Z-0.0168
X4.3709Y0.0011Z-0.0191
Z0.0200
X4.2872Y0.0011
G1Z-0.0197F30.0
G1X4.3975Y0.0456Z-0.0194F60.0
X4.4977Y0.0861Z-0.0126
X4.6581Y0.1509Z-0.0135
X4.7182Y0.1752Z-0.0224
X4.7483Y0.1874Z-0.0204
X4.7784Y0.1995Z-0.0178
X4.8085Y0.2117Z-0.0179
X4.8486Y0.2279Z-0.0144
X4.8987Y0.2481Z-0.0154
X4.9488Y0.2684Z-0.0241
X4.9989Y0.2886Z-0.0250
X5.0290Y0.3008Z-0.0222
X5.0591Y0.3129Z-0.0154
X5.0791Y0.3210Z-0.0145
X5.1092Y0.3332Z-0.0166
X5.1393Y0.3453Z-0.0159
X5.1794Y0.3615Z-0.0241
X5.2295Y0.3818Z-0.0240
X5.2696Y0.3980Z-0.0203
X5.3097Y0.4142Z-0.0236
X5.3698Y0.4385Z-0.0248
X5.4600Y0.4749Z-0.0229
X5.4901Y0.4871Z-0.0208
X5.5502Y0.5114Z-0.0108
X5.6505Y0.5519Z-0.0105
X5.6806Y0.5640Z-0.0090
X5.7106Y0.5762Z-0.0087
X5.8209Y0.6207Z-0.0047
X5.8510Y0.6329Z-0.0060
X5.8911Y0.6491Z-0.0051
X5.9412Y0.6693Z-0.0049
X6.0915Y0.7301Z-0.0034
X6.2218Y0.7827Z-0.0027
X6.7130Y0.9812Z-0.0024
X6.8734Y1.0460Z-0.0060
X6.9035Y1.0581Z-0.0145
X6.9536Y1.0784Z-0.0181
X6.9737Y1.0865Z-0.0167
X7.0037Y1.0986Z-0.0102
X7.0338Y1.1108Z-0.0091
X7.0438Y1.1148Z-0.0068
X7.0739Y1.1270Z-0.0073
X7.1040Y1.1391Z-0.0061
X7.1441Y1.1553Z-0.0074
X7.1842Y1.1715Z-0.0119
X7.2042Y1.1796Z-0.0157
X7.2243Y1.1877Z-0.0139
X7.2543Y1.1999Z-0.0161
X7.2744Y1.2080Z-0.0113
X7.2844Y1.2120Z-0.0079
X7.3445Y1.2363Z-0.0066
X7.4047Y1.2606Z-0.0039
X7.7555Y1.4024Z-0.0039
X7.8558Y1.4429Z-0.0084
X7.8658Y1.4469Z-0.0102
X7.8959Y1.4591Z-0.0065
X7.9259Y1.4712Z-0.0059
X7.9360Y1.4753Z-0.0077
X7.9560Y1.4834Z-0.0143
X7.9961Y1.4996Z-0.0141
X8.0162Y1.5077Z-0.0119
X8.0663Y1.5279Z-0.0145
X8.1164Y1.5482Z-0.0141
X8.1364Y1.5563Z-0.0128
X8.1665Y1.5684Z-0.0134
X8.2267Y1.5927Z-0.0044
X8.3570Y1.6454Z-0.0046
X8.3971Y1.6616Z-0.0114
X8.4472Y1.6818Z-0.0130
X8.4672Y1.6899Z-0.0088
X8.4873Y1.6980Z-0.0094
X8.5174Y1.7102Z-0.0127
X8.5574Y1.7264Z-0.0084
X8.6477Y1.7628Z-0.0042
X8.9384Y1.8803Z-0.0036
X9.0687Y1.9329Z-0.0056
X9.0987Y1.9451Z-0.0099
X9.1088Y1.9491Z-0.0099
X9.1388Y1.9613Z-0.0166
X9.1890Y1.9815Z-0.0158
X9.2190Y1.9937Z-0.0079
X9.2491Y2.0058Z-0.0048
X9.3193Y2.0342Z-0.0079
X9.3594Y2.0504Z-0.0166
X9.3894Y2.0625Z-0.0163
X9.3995Y2.0666Z-0.0157
X9.4295Y2.0787Z-0.0068
X9.4897Y2.1030Z-0.0023
X9.7704Y2.2164Z-0.0020
X10.0310Y2.3217Z-0.0019
X10.5823Y2.5445Z-0.0011
X10.7928Y2.6295Z-0.0013
X10.8630Y2.6579Z-0.0010
Z0.0200
X10.8630Y2.6916
G1Z-0.0010F30.0
G1X10.7025Y2.6268Z-0.0019F60.0
X10.5420Y2.5620Z-0.0014
X10.3013Y2.4647Z-0.0018
X10.0707Y2.3715Z-0.0016
X9.7497Y2.2419Z-0.0018
X9.4388Y2.1162Z-0.0042
X9.4188Y2.1081Z-0.0081
X9.3987Y2.1000Z-0.0141
X9.3586Y2.0838Z-0.0187
X9.3385Y2.0757Z-0.0157
X9.3185Y2.0676Z-0.0078
X9.2382Y2.0352Z-0.0052
X9.1981Y2.0190Z-0.0095
X9.1781Y2.0109Z-0.0147
X9.1079Y1.9825Z-0.0177
X9.0878Y1.9744Z-0.0151
X9.0678Y1.9663Z-0.0067
X9.0477Y1.9582Z-0.0065
X9.0176Y1.9461Z-0.0115
X8.9976Y1.9380Z-0.0083
X8.9675Y1.9258Z-0.0100
X8.9474Y1.9177Z-0.0054
X8.8371Y1.8731Z-0.0031
X8.5563Y1.7597Z-0.0048
X8.4961Y1.7354Z-0.0071
X8.4760Y1.7273Z-0.0091
X8.4560Y1.7192Z-0.0089
X8.4259Y1.7070Z-0.0120
X8.3858Y1.6908Z-0.0096
X8.3557Y1.6786Z-0.0046
X8.2153Y1.6219Z-0.0053
X8.1551Y1.5976Z-0.0133
X8.1150Y1.5814Z-0.0129
X8.0047Y1.5368Z-0.0158
X7.9445Y1.5125Z-0.0130
X7.9144Y1.5003Z-0.0074
X7.8743Y1.4841Z-0.0109
X7.8141Y1.4598Z-0.0134
X7.7941Y1.4517Z-0.0099
X7.7740Y1.4436Z-0.0061
X7.7439Y1.4315Z-0.0061
X7.7038Y1.4153Z-0.0041
X7.5634Y1.3585Z-0.0040
X7.5133Y1.3383Z-0.0037
X7.3528Y1.2734Z-0.0045
X7.2425Y1.2289Z-0.0064
X7.2023Y1.2127Z-0.0094
X7.1923Y1.2086Z-0.0111
X7.1321Y1.1843Z-0.0063
X7.1021Y1.1721Z-0.0075
X7.0820Y1.1640Z-0.0059
X7.0519Y1.1519Z-0.0100
X7.0218Y1.1397Z-0.0076
X6.9617Y1.1154Z-0.0160
X6.9215Y1.0992Z-0.0135
X6.8914Y1.0870Z-0.0141
X6.8413Y1.0668Z-0.0100
X6.8012Y1.0506Z-0.0113
X6.7711Y1.0384Z-0.0084
X6.7510Y1.0303Z-0.0044
X6.6508Y0.9898Z-0.0016
X6.1994Y0.8075Z-0.0031
X6.1593Y0.7912Z-0.0031
X5.9287Y0.6980Z-0.0049
X5.8986Y0.6859Z-0.0047
X5.7983Y0.6454Z-0.0053
X5.7682Y0.6332Z-0.0063
X5.7180Y0.6130Z-0.0065
X5.6378Y0.5805Z-0.0105
X5.5275Y0.5360Z-0.0112
X5.4874Y0.5198Z-0.0146
X5.4573Y0.5076Z-0.0213
X5.3971Y0.4833Z-0.0249
X5.3470Y0.4630Z-0.0238
X5.3269Y0.4549Z-0.0202
X5.2868Y0.4387Z-0.0200
X5.2667Y0.4306Z-0.0170
X5.2166Y0.4104Z-0.0219
X5.1865Y0.3982Z-0.0254
X5.1564Y0.3860Z-0.0243
X5.1263Y0.3739Z-0.0177
X5.0862Y0.3577Z-0.0156
X5.0461Y0.3415Z-0.0154
X4.9859Y0.3172Z-0.0240
X4.9358Y0.2969Z-0.0252
X4.9157Y0.2888Z-0.0221
X4.8957Y0.2807Z-0.0170
X4.8656Y0.2685Z-0.0169
X4.8154Y0.2483Z-0.0197
X4.7753Y0.2321Z-0.0229
X4.6951Y0.1997Z-0.0245
X4.6750Y0.1915Z-0.0215
X4.6449Y0.1794Z-0.0144
X4.5246Y0.1308Z-0.0127
X4.4243Y0.0902Z-0.0142
X4.3240Y0.0497Z-0.0187
X4.2237Y0.0092Z-0.0181
X4.2037Y0.0011Z-0.0150
Z0.0200
X4.1201Y0.0011
G1Z-0.0136F30.0
G1X4.1703Y0.0214Z-0.0132F60.0
X4.2104Y0.0376Z-0.0168
X4.2606Y0.0579Z-0.0173
X4.3308Y0.0863Z-0.0163
X4.3609Y0.0984Z-0.0143
X4.3910Y0.1106Z-0.0148
X4.4211Y0.1227Z-0.0125
X4.5917Y0.1917Z-0.0148
X4.6820Y0.2281Z-0.0252
X4.7322Y0.2484Z-0.0240
X4.8426Y0.2930Z-0.0232
X4.8827Y0.3092Z-0.0181
X4.9128Y0.3214Z-0.0247
X4.9529Y0.3376Z-0.0246
X5.0031Y0.3579Z-0.0183
X5.0633Y0.3822Z-0.0152
X5.0834Y0.3903Z-0.0171
X5.1135Y0.4025Z-0.0236
X5.1737Y0.4268Z-0.0252
X5.2038Y0.4389Z-0.0226
X5.2439Y0.4552Z-0.0147
X5.2840Y0.4714Z-0.0171
X5.3142Y0.4835Z-0.0153
X5.3543Y0.4998Z-0.0208
X5.3944Y0.5160Z-0.0223
X5.4245Y0.5281Z-0.0228
X5.5048Y0.5606Z-0.0108
X5.5851Y0.5930Z-0.0095
X5.7657Y0.6660Z-0.0054
X6.1169Y0.8079Z-0.0037
X6.1670Y0.8281Z-0.0031
X6.6788Y1.0349Z-0.0025
X6.7390Y1.0592Z-0.0059
X6.8895Y1.1200Z-0.0040
X7.0801Y1.1970Z-0.0041
X7.4213Y1.3349Z-0.0036
X7.6621Y1.4322Z-0.0044
X7.7022Y1.4484Z-0.0072
X7.7223Y1.4565Z-0.0089
X7.7424Y1.4646Z-0.0121
X7.7925Y1.4849Z-0.0144
X7.8226Y1.4970Z-0.0106
X7.8427Y1.5051Z-0.0117
X7.8628Y1.5133Z-0.0079
X7.9029Y1.5295Z-0.0113
X7.9330Y1.5416Z-0.0132
X7.9732Y1.5578Z-0.0147
X7.9932Y1.5660Z-0.0126
X8.0233Y1.5781Z-0.0143
X8.0534Y1.5903Z-0.0143
X8.0735Y1.5984Z-0.0153
X8.1136Y1.6146Z-0.0109
X8.1337Y1.6227Z-0.0131
X8.1839Y1.6430Z-0.0064
X8.2441Y1.6673Z-0.0043
X8.3745Y1.7200Z-0.0048
X8.4046Y1.7322Z-0.0062
X8.4548Y1.7524Z-0.0045
X8.4849Y1.7646Z-0.0054
X8.6354Y1.8254Z-0.0034
X8.8762Y1.9227Z-0.0046
X8.9364Y1.9470Z-0.0093
X8.9565Y1.9551Z-0.0173
X8.9766Y1.9632Z-0.0188
X9.0468Y1.9916Z-0.0168
X9.0568Y1.9957Z-0.0157
X9.0970Y2.0119Z-0.0201
X9.1371Y2.0281Z-0.0200
X9.1572Y2.0362Z-0.0131
X9.1672Y2.0403Z-0.0090
X9.1973Y2.0524Z-0.0058
X9.2274Y2.0646Z-0.0071
X9.2575Y2.0768Z-0.0059
X9.2876Y2.0889Z-0.0073
X9.3277Y2.1051Z-0.0151
X9.3679Y2.1214Z-0.0140
X9.4080Y2.1376Z-0.0055
X9.5385Y2.1903Z-0.0020
X10.0703Y2.4051Z-0.0016
X10.5519Y2.5997Z-0.0010
X10.7827Y2.6930Z-0.0015
X10.8629Y2.7254Z-0.0007
Z0.0200
X10.8630Y2.7592
G1Z-0.0005F30.0
G1X10.6926Y2.6903Z-0.0014F60.0
X10.0510Y2.4311Z-0.0020
X9.9407Y2.3866Z-0.0025
X9.7102Y2.2934Z-0.0022
X9.4395Y2.1841Z-0.0032
X9.3393Y2.1436Z-0.0065
X9.3192Y2.1355Z-0.0095
X9.2691Y2.1152Z-0.0063
X9.2290Y2.0990Z-0.0065
X9.2090Y2.0909Z-0.0105
X9.1889Y2.0828Z-0.0091
X9.1288Y2.0585Z-0.0191
X9.0787Y2.0383Z-0.0214
X9.0486Y2.0261Z-0.0208
X8.9483Y1.9856Z-0.0181
X8.9183Y1.9735Z-0.0131
X8.8882Y1.9613Z-0.0053
X8.5875Y1.8398Z-0.0036
X8.2166Y1.6900Z-0.0047
X8.1865Y1.6778Z-0.0077
X8.1464Y1.6616Z-0.0054
X8.1063Y1.6454Z-0.0084
X8.0862Y1.6373Z-0.0138
X8.0462Y1.6211Z-0.0163
X7.9860Y1.5968Z-0.0144
X7.9359Y1.5766Z-0.0081
X7.9158Y1.5685Z-0.0116
X7.8858Y1.5563Z-0.0094
X7.8657Y1.5482Z-0.0050
X7.8256Y1.5320Z-0.0064
X7.7955Y1.5199Z-0.0129
X7.7554Y1.5037Z-0.0137
X7.7354Y1.4956Z-0.0116
X7.7154Y1.4875Z-0.0126
X7.6753Y1.4713Z-0.0072
X7.6552Y1.4632Z-0.0052
X7.6051Y1.4429Z-0.0060
X7.5650Y1.4267Z-0.0062
X7.4848Y1.3943Z-0.0038
X7.1339Y1.2526Z-0.0031
X6.8633Y1.1432Z-0.0025
X6.7029Y1.0784Z-0.0032
X6.5726Y1.0258Z-0.0026
X6.1415Y0.8516Z-0.0033
X6.0012Y0.7949Z-0.0042
X5.6904Y0.6693Z-0.0063
X5.6303Y0.6450Z-0.0078
X5.6002Y0.6329Z-0.0086
X5.5802Y0.6248Z-0.0103
X5.5301Y0.6045Z-0.0097
X5.4799Y0.5843Z-0.0114
X5.4098Y0.5559Z-0.0171
X5.3596Y0.5357Z-0.0148
X5.3296Y0.5235Z-0.0156
X5.2995Y0.5114Z-0.0126
X5.2694Y0.4992Z-0.0155
X5.2494Y0.4911Z-0.0137
X5.1491Y0.4506Z-0.0246
X5.0990Y0.4304Z-0.0247
X5.0689Y0.4182Z-0.0172
X5.0389Y0.4061Z-0.0170
X5.0088Y0.3939Z-0.0200
X4.9887Y0.3858Z-0.0183
X4.9386Y0.3656Z-0.0253
X4.6479Y0.2481Z-0.0255
X4.6078Y0.2319Z-0.0217
X4.5777Y0.2198Z-0.0164
X4.5076Y0.1914Z-0.0139
X4.3372Y0.1226Z-0.0143
X4.3071Y0.1104Z-0.0159
X4.2770Y0.0983Z-0.0142
X4.2469Y0.0861Z-0.0155
X4.2069Y0.0699Z-0.0133
X4.1768Y0.0578Z-0.0142
X4.0966Y0.0254Z-0.0147
X4.0364Y0.0011Z-0.0144
Z0.0200
X3.9529Y0.0011
G1Z-0.0167F30.0
G1X3.9930Y0.0173Z-0.0145F60.0
X4.2136Y0.1065Z-0.0127
X4.2838Y0.1348Z-0.0145
X4.3541Y0.1632Z-0.0176
X4.4243Y0.1915Z-0.0153
X4.5546Y0.2442Z-0.0168
X4.6148Y0.2685Z-0.0253
X4.6950Y0.3010Z-0.0248
X4.7251Y0.3131Z-0.0242
X4.8756Y0.3739Z-0.0262
X5.0160Y0.4306Z-0.0237
X5.0461Y0.4428Z-0.0193
X5.0561Y0.4468Z-0.0199
X5.0761Y0.4549Z-0.0248
X5.1163Y0.4711Z-0.0244
X5.1664Y0.4914Z-0.0175
X5.2166Y0.5117Z-0.0162
X5.2466Y0.5238Z-0.0133
X5.3770Y0.5765Z-0.0131
X5.3971Y0.5846Z-0.0146
X5.4472Y0.6049Z-0.0117
X5.6879Y0.7021Z-0.0060
X5.7782Y0.7386Z-0.0049
X6.0089Y0.8318Z-0.0036
X6.5404Y1.0465Z-0.0025
X6.6407Y1.0870Z-0.0041
X6.7410Y1.1276Z-0.0024
X7.1421Y1.2896Z-0.0031
X7.1522Y1.2937Z-0.0041
X7.2324Y1.3261Z-0.0033
X7.5132Y1.4396Z-0.0049
X7.5634Y1.4598Z-0.0104
X7.5834Y1.4679Z-0.0113
X7.6135Y1.4801Z-0.0061
X7.6536Y1.4963Z-0.0058
X7.6837Y1.5085Z-0.0102
X7.7138Y1.5206Z-0.0110
X7.7339Y1.5287Z-0.0073
X7.7740Y1.5449Z-0.0134
X7.8041Y1.5571Z-0.0101
X7.8342Y1.5692Z-0.0052
X7.9345Y1.6098Z-0.0080
X7.9846Y1.6300Z-0.0152
X8.0749Y1.6665Z-0.0128
X8.1350Y1.6908Z-0.0047
X8.2855Y1.7516Z-0.0045
X8.4158Y1.8043Z-0.0037
X8.4459Y1.8164Z-0.0049
X8.6666Y1.9056Z-0.0034
X8.7568Y1.9420Z-0.0055
X8.7970Y1.9582Z-0.0057
X8.8170Y1.9663Z-0.0091
X8.8471Y1.9785Z-0.0051
X8.8972Y1.9988Z-0.0070
X8.9374Y2.0150Z-0.0144
X8.9574Y2.0231Z-0.0121
X8.9975Y2.0393Z-0.0190
X9.1279Y2.0920Z-0.0197
X9.1680Y2.1082Z-0.0149
X9.1981Y2.1203Z-0.0142
X9.2382Y2.1365Z-0.0052
X9.2784Y2.1527Z-0.0043
X9.4288Y2.2135Z-0.0031
X9.7798Y2.3553Z-0.0020
X9.9102Y2.4080Z-0.0017
X10.6824Y2.7200Z-0.0014
X10.8028Y2.7686Z-0.0012
X10.8630Y2.7930Z-0.0011
Z0.0200
X10.8629Y2.8267
G1Z-0.0012F30.0
G1X10.6924Y2.7578Z-0.0015F60.0
X10.0703Y2.5065Z-0.0015
X9.9699Y2.4659Z-0.0024
X9.9097Y2.4416Z-0.0021
X9.8897Y2.4335Z-0.0019
X9.6990Y2.3565Z-0.0018
X9.2274Y2.1659Z-0.0045
X9.1572Y2.1375Z-0.0093
X9.1371Y2.1294Z-0.0142
X9.0970Y2.1132Z-0.0159
X9.0267Y2.0848Z-0.0207
X8.9866Y2.0686Z-0.0182
X8.9565Y2.0565Z-0.0089
X8.8662Y2.0200Z-0.0048
X8.8060Y1.9957Z-0.0140
X8.7859Y1.9876Z-0.0138
X8.7659Y1.9794Z-0.0157
X8.7458Y1.9713Z-0.0128
X8.7257Y1.9632Z-0.0077
X8.6655Y1.9389Z-0.0046
X8.3745Y1.8213Z-0.0038
X8.1337Y1.7240Z-0.0044
X8.0836Y1.7038Z-0.0074
X8.0635Y1.6957Z-0.0105
X8.0334Y1.6835Z-0.0125
X8.0133Y1.6754Z-0.0157
X7.9732Y1.6592Z-0.0129
X7.9531Y1.6511Z-0.0108
X7.9029Y1.6308Z-0.0114
X7.8628Y1.6146Z-0.0055
X7.7926Y1.5862Z-0.0074
X7.7725Y1.5781Z-0.0107
X7.7123Y1.5538Z-0.0052
X7.6822Y1.5416Z-0.0071
X7.6621Y1.5335Z-0.0102
X7.6320Y1.5213Z-0.0085
X7.5819Y1.5011Z-0.0150
X7.5518Y1.4889Z-0.0136
X7.5217Y1.4768Z-0.0077
X7.5016Y1.4686Z-0.0083
X7.4715Y1.4565Z-0.0042
X7.0400Y1.2822Z-0.0019
X6.6587Y1.1281Z-0.0031
X6.6387Y1.1200Z-0.0064
X6.6186Y1.1119Z-0.0116
X6.5785Y1.0957Z-0.0095
X6.5383Y1.0795Z-0.0038
X6.4480Y1.0430Z-0.0027
X6.3979Y1.0227Z-0.0025
X5.9363Y0.8362Z-0.0040
X5.7758Y0.7714Z-0.0046
X5.5450Y0.6781Z-0.0084
X5.4547Y0.6416Z-0.0110
X5.3042Y0.5808Z-0.0131
X5.2139Y0.5443Z-0.0146
X5.1637Y0.5241Z-0.0145
X5.0935Y0.4957Z-0.0239
X5.0533Y0.4795Z-0.0254
X4.7924Y0.3741Z-0.0250
X4.7623Y0.3619Z-0.0228
X4.7122Y0.3416Z-0.0212
X4.6720Y0.3254Z-0.0206
X4.6219Y0.3052Z-0.0257
X4.5316Y0.2687Z-0.0221
X4.5015Y0.2565Z-0.0172
X4.4112Y0.2200Z-0.0181
X4.3610Y0.1998Z-0.0204
X4.3309Y0.1876Z-0.0232
X4.2807Y0.1673Z-0.0197
X4.2406Y0.1511Z-0.0141
X4.1001Y0.0944Z-0.0132
X4.0399Y0.0700Z-0.0137
X3.9596Y0.0376Z-0.0153
X3.8794Y0.0052Z-0.0185
X3.8693Y0.0011Z-0.0185
Z0.0200
X3.7857Y0.0011
G1Z-0.0159F30.0
G1X3.8558Y0.0294Z-0.0189F60.0
X3.9060Y0.0497Z-0.0163
X4.0263Y0.0983Z-0.0138
X4.1766Y0.1590Z-0.0132
X4.2468Y0.1874Z-0.0178
X4.2969Y0.2076Z-0.0249
X4.3470Y0.2279Z-0.0246
X4.3972Y0.2481Z-0.0226
X4.4272Y0.2603Z-0.0198
X4.4573Y0.2724Z-0.0224
X4.4874Y0.2846Z-0.0180
X4.5074Y0.2927Z-0.0204
X4.5375Y0.3049Z-0.0254
X4.5876Y0.3251Z-0.0258
X4.6377Y0.3454Z-0.0224
X4.6678Y0.3575Z-0.0174
X4.7179Y0.3778Z-0.0197
X4.7480Y0.3899Z-0.0206
X4.7881Y0.4061Z-0.0254
X4.8583Y0.4345Z-0.0245
X4.8783Y0.4426Z-0.0223
X4.9184Y0.4588Z-0.0249
X5.0387Y0.5074Z-0.0253
X5.0688Y0.5195Z-0.0222
X5.0989Y0.5317Z-0.0180
X5.1390Y0.5479Z-0.0159
X5.2392Y0.5884Z-0.0134
X5.4297Y0.6653Z-0.0119
X5.4497Y0.6734Z-0.0136
X5.4999Y0.6937Z-0.0083
X5.5901Y0.7301Z-0.0077
X5.8206Y0.8233Z-0.0038
X5.9810Y0.8881Z-0.0039
X6.2116Y0.9812Z-0.0031
X6.2417Y0.9934Z-0.0033
X6.3519Y1.0379Z-0.0031
X6.4422Y1.0744Z-0.0035
X6.4823Y1.0906Z-0.0043
X6.5023Y1.0987Z-0.0079
X6.5324Y1.1108Z-0.0087
X6.5625Y1.1230Z-0.0146
X6.5825Y1.1311Z-0.0128
X6.6226Y1.1473Z-0.0051
X6.6928Y1.1756Z-0.0025
X7.2842Y1.4146Z-0.0028
X7.4647Y1.4875Z-0.0054
X7.5449Y1.5199Z-0.0148
X7.6050Y1.5442Z-0.0142
X7.6451Y1.5604Z-0.0120
X7.7053Y1.5847Z-0.0054
X7.7854Y1.6171Z-0.0076
X7.8055Y1.6252Z-0.0087
X7.8255Y1.6333Z-0.0067
X7.8456Y1.6414Z-0.0095
X7.8656Y1.6495Z-0.0072
X7.9158Y1.6698Z-0.0136
X7.9458Y1.6819Z-0.0105
X7.9759Y1.6941Z-0.0144
X8.0160Y1.7103Z-0.0124
X8.0561Y1.7265Z-0.0057
X8.2766Y1.8156Z-0.0045
X8.5373Y1.9209Z-0.0041
X8.6075Y1.9492Z-0.0043
X8.6676Y1.9735Z-0.0051
X8.6776Y1.9776Z-0.0068
X8.6977Y1.9857Z-0.0142
X8.7478Y2.0059Z-0.0165
X8.7779Y2.0181Z-0.0149
X8.7979Y2.0262Z-0.0151
X8.8280Y2.0383Z-0.0084
X8.8681Y2.0545Z-0.0052
X8.9082Y2.0707Z-0.0064
X8.9282Y2.0788Z-0.0088
X8.9483Y2.0869Z-0.0090
X8.9683Y2.0950Z-0.0169
X8.9884Y2.1031Z-0.0189
X9.0285Y2.1193Z-0.0154
X9.0886Y2.1436Z-0.0103
X9.1087Y2.1517Z-0.0069
X9.2791Y2.2206Z-0.0032
X9.6300Y2.3623Z-0.0023
X9.7202Y2.3988Z-0.0020
X10.0510Y2.5324Z-0.0015
X10.6725Y2.7836Z-0.0011
X10.8229Y2.8443Z-0.0013
X10.8630Y2.8605Z-0.0012
Z0.0200
X10.8630Y2.8943
G1Z-0.0009F30.0
G1X10.7125Y2.8335Z-0.0018F60.0
X10.3013Y2.6674Z-0.0009
X9.7698Y2.4526Z-0.0015
X9.4188Y2.3108Z-0.0030
X9.2282Y2.2338Z-0.0041
X9.1179Y2.1892Z-0.0044
X9.0677Y2.1690Z-0.0070
X9.0376Y2.1568Z-0.0077
X9.0076Y2.1446Z-0.0154
X8.9674Y2.1284Z-0.0151
X8.9474Y2.1203Z-0.0165
X8.9273Y2.1122Z-0.0139
X8.8972Y2.1001Z-0.0066
X8.8471Y2.0798Z-0.0063
X8.7869Y2.0555Z-0.0082
X8.7769Y2.0514Z-0.0093
X8.7568Y2.0433Z-0.0165
X8.7368Y2.0352Z-0.0186
X8.7067Y2.0231Z-0.0166
X8.6866Y2.0150Z-0.0137
X8.6766Y2.0109Z-0.0144
X8.6565Y2.0028Z-0.0098
X8.6164Y1.9866Z-0.0131
X8.6064Y1.9826Z-0.0126
X8.5863Y1.9745Z-0.0079
X8.4860Y1.9339Z-0.0039
X8.2353Y1.8326Z-0.0046
X8.0548Y1.7597Z-0.0050
X8.0147Y1.7435Z-0.0093
X7.9946Y1.7354Z-0.0134
X7.9344Y1.7111Z-0.0064
X7.9043Y1.6989Z-0.0086
X7.8743Y1.6868Z-0.0090
X7.8542Y1.6787Z-0.0068
X7.8241Y1.6665Z-0.0081
X7.7940Y1.6543Z-0.0141
X7.7740Y1.6462Z-0.0127
X7.7238Y1.6260Z-0.0062
X7.6536Y1.5976Z-0.0065
X7.5834Y1.5692Z-0.0164
X7.4931Y1.5328Z-0.0151
X7.4731Y1.5247Z-0.0126
X7.4430Y1.5125Z-0.0055
X7.2625Y1.4396Z-0.0023
X6.6607Y1.1965Z-0.0029
X6.6005Y1.1721Z-0.0045
X6.5805Y1.1640Z-0.0082
X6.5604Y1.1559Z-0.0148
X6.5303Y1.1438Z-0.0158
X6.5103Y1.1357Z-0.0146
X6.4802Y1.1235Z-0.0051
X6.3598Y1.0749Z-0.0038
X6.2495Y1.0303Z-0.0017
X6.1091Y0.9736Z-0.0036
X5.7882Y0.8439Z-0.0041
X5.6478Y0.7872Z-0.0060
X5.5475Y0.7467Z-0.0070
X5.4672Y0.7143Z-0.0091
X5.4171Y0.6940Z-0.0097
X5.2667Y0.6332Z-0.0126
X5.1965Y0.6049Z-0.0134
X5.0861Y0.5603Z-0.0157
X5.0360Y0.5400Z-0.0237
X4.9558Y0.5076Z-0.0249
X4.9156Y0.4914Z-0.0202
X4.8755Y0.4752Z-0.0196
X4.8254Y0.4549Z-0.0199
X4.7853Y0.4387Z-0.0254
X4.7050Y0.4063Z-0.0231
X4.6749Y0.3942Z-0.0180
X4.6248Y0.3739Z-0.0182
X4.5446Y0.3415Z-0.0247
X4.4944Y0.3212Z-0.0225
X4.4744Y0.3131Z-0.0202
X4.4342Y0.2969Z-0.0249
X4.2738Y0.2321Z-0.0251
X4.2136Y0.2078Z-0.0211
X4.1635Y0.1875Z-0.0148
X4.0331Y0.1348Z-0.0126
X3.9729Y0.1105Z-0.0146
X3.9428Y0.0984Z-0.0142
X3.9027Y0.0821Z-0.0174
X3.8626Y0.0659Z-0.0182
X3.7924Y0.0376Z-0.0190
X3.7121Y0.0052Z-0.0153
X3.7021Y0.0011Z-0.0157
Z0.0200
X3.6186Y0.0011
G1Z-0.0181F30.0
G1X3.6888Y0.0295Z-0.0154F60.0
X3.7691Y0.0619Z-0.0191
X3.8694Y0.1025Z-0.0171
X3.9196Y0.1227Z-0.0148
X3.9396Y0.1308Z-0.0130
X3.9798Y0.1471Z-0.0150
X4.0701Y0.1835Z-0.0135
X4.1704Y0.2241Z-0.0176
X4.2206Y0.2444Z-0.0251
X4.2808Y0.2687Z-0.0256
X4.5015Y0.3579Z-0.0252
X4.5517Y0.3781Z-0.0234
X4.5818Y0.3903Z-0.0195
X4.6119Y0.4025Z-0.0199
X4.6520Y0.4187Z-0.0185
X4.7122Y0.4430Z-0.0260
X4.7724Y0.4673Z-0.0246
X4.8326Y0.4916Z-0.0170
X4.8728Y0.5079Z-0.0186
X4.9029Y0.5200Z-0.0167
X4.9530Y0.5403Z-0.0201
X4.9831Y0.5524Z-0.0204
X5.0133Y0.5646Z-0.0204
X5.0935Y0.5970Z-0.0141
X5.1838Y0.6335Z-0.0126
X5.3042Y0.6822Z-0.0108
X5.3945Y0.7187Z-0.0087
X5.4547Y0.7430Z-0.0086
X5.6253Y0.8119Z-0.0049
X5.8360Y0.8970Z-0.0036
X6.2675Y1.0713Z-0.0026
X6.3076Y1.0876Z-0.0034
X6.3578Y1.1078Z-0.0059
X6.3979Y1.1240Z-0.0075
X6.4180Y1.1322Z-0.0125
X6.4581Y1.1484Z-0.0091
X6.4882Y1.1605Z-0.0138
X6.5083Y1.1686Z-0.0159
X6.5484Y1.1849Z-0.0086
X6.5785Y1.1970Z-0.0038
X6.7491Y1.2659Z-0.0026
X7.3311Y1.5011Z-0.0028
X7.4414Y1.5457Z-0.0070
X7.4615Y1.5538Z-0.0116
X7.4816Y1.5619Z-0.0154
X7.5518Y1.5902Z-0.0153
X7.5919Y1.6065Z-0.0149
X7.6321Y1.6227Z-0.0080
X7.6622Y1.6348Z-0.0106
X7.6923Y1.6470Z-0.0074
X7.7123Y1.6551Z-0.0104
X7.7324Y1.6632Z-0.0089
X7.7725Y1.6794Z-0.0154
X7.8127Y1.6957Z-0.0133
X7.8327Y1.7038Z-0.0091
X7.8729Y1.7200Z-0.0093
X7.9230Y1.7402Z-0.0049
X7.9531Y1.7524Z-0.0076
X8.0535Y1.7929Z-0.0046
X8.3244Y1.9024Z-0.0046
X8.4749Y1.9632Z-0.0048
X8.4950Y1.9713Z-0.0082
X8.5150Y1.9794Z-0.0077
X8.5251Y1.9835Z-0.0095
X8.5451Y1.9916Z-0.0178
X8.5853Y2.0078Z-0.0160
X8.6053Y2.0159Z-0.0177
X8.6254Y2.0240Z-0.0161
X8.6555Y2.0362Z-0.0191
X8.7057Y2.0564Z-0.0206
X8.7558Y2.0767Z-0.0155
X8.7859Y2.0889Z-0.0087
X8.8060Y2.0970Z-0.0073
X8.8261Y2.1051Z-0.0106
X8.8562Y2.1173Z-0.0066
X8.8863Y2.1294Z-0.0074
X8.9064Y2.1375Z-0.0073
X8.9365Y2.1497Z-0.0142
X8.9465Y2.1537Z-0.0148
X8.9766Y2.1659Z-0.0077
X9.1572Y2.2389Z-0.0039
X9.7392Y2.4740Z-0.0022
X10.0602Y2.6037Z-0.0013
X10.7024Y2.8632Z-0.0015
X10.8629Y2.9280Z-0.0010
Z0.0200
X10.8630Y2.9618
G1Z-0.0007F30.0
G1X10.6825Y2.8889Z-0.0012F60.0
X10.0109Y2.6176Z-0.0017
X9.4495Y2.3907Z-0.0025
X9.3392Y2.3462Z-0.0031
X9.0084Y2.2125Z-0.0046
X8.9883Y2.2044Z-0.0075
X8.9583Y2.1923Z-0.0052
X8.8580Y2.1518Z-0.0055
X8.8280Y2.1396Z-0.0108
X8.8179Y2.1356Z-0.0136
X8.7979Y2.1275Z-0.0129
X8.7678Y2.1153Z-0.0177
X8.7077Y2.0910Z-0.0189
X8.6375Y2.0627Z-0.0206
X8.6074Y2.0505Z-0.0202
X8.5473Y2.0262Z-0.0174
X8.5272Y2.0181Z-0.0162
X8.4871Y2.0019Z-0.0100
X8.4671Y1.9938Z-0.0054
X8.2365Y1.9007Z-0.0042
X8.2064Y1.8885Z-0.0055
X8.1864Y1.8804Z-0.0038
X7.9859Y1.7994Z-0.0043
X7.9057Y1.7670Z-0.0055
X7.8756Y1.7548Z-0.0100
X7.8556Y1.7467Z-0.0115
X7.8455Y1.7427Z-0.0135
X7.8054Y1.7265Z-0.0131
X7.7553Y1.7062Z-0.0141
X7.7353Y1.6981Z-0.0112
X7.7052Y1.6860Z-0.0076
X7.6651Y1.6698Z-0.0118
X7.6450Y1.6617Z-0.0133
X7.5949Y1.6414Z-0.0132
X7.5548Y1.6252Z-0.0173
X7.4546Y1.5847Z-0.0143
X7.4245Y1.5726Z-0.0112
X7.4044Y1.5645Z-0.0087
X7.3744Y1.5523Z-0.0040
X7.2440Y1.4997Z-0.0019
X6.6426Y1.2567Z-0.0026
X6.5523Y1.2202Z-0.0050
X6.5122Y1.2040Z-0.0122
X6.4922Y1.1959Z-0.0171
X6.4220Y1.1676Z-0.0170
X6.3619Y1.1433Z-0.0143
X6.3318Y1.1311Z-0.0076
X6.2516Y1.0987Z-0.0025
X6.1914Y1.0744Z-0.0038
X6.1012Y1.0380Z-0.0031
X5.9809Y0.9894Z-0.0032
X5.5198Y0.8030Z-0.0056
X5.4195Y0.7625Z-0.0073
X5.1489Y0.6532Z-0.0129
X5.0587Y0.6167Z-0.0138
X4.9684Y0.5803Z-0.0169
X4.8281Y0.5236Z-0.0162
X4.7980Y0.5114Z-0.0182
X4.7579Y0.4952Z-0.0181
X4.7178Y0.4790Z-0.0255
X4.6577Y0.4547Z-0.0249
X4.6276Y0.4426Z-0.0221
X4.5775Y0.4223Z-0.0256
X4.3770Y0.3413Z-0.0256
X4.2968Y0.3089Z-0.0222
X4.2567Y0.2927Z-0.0210
X4.2166Y0.2765Z-0.0251
X4.1665Y0.2563Z-0.0234
X4.1163Y0.2360Z-0.0171
X4.0361Y0.2036Z-0.0146
X3.9359Y0.1631Z-0.0162
X3.9058Y0.1509Z-0.0135
X3.8056Y0.1104Z-0.0172
X3.7554Y0.0902Z-0.0191
X3.6452Y0.0456Z-0.0150
X3.6051Y0.0294Z-0.0163
X3.5549Y0.0092Z-0.0090
X3.5349Y0.0011Z-0.0086
Z0.0200
X3.4513Y0.0011
G1Z-0.0087F30.0
G1X3.5316Y0.0335Z-0.0077F60.0
X3.5717Y0.0497Z-0.0109
X3.6118Y0.0659Z-0.0158
X3.6620Y0.0862Z-0.0135
X3.7422Y0.1186Z-0.0183
X3.7923Y0.1389Z-0.0155
X3.8324Y0.1551Z-0.0132
X3.8926Y0.1794Z-0.0146
X3.9327Y0.1956Z-0.0207
X3.9729Y0.2118Z-0.0181
X4.0330Y0.2361Z-0.0169
X4.0932Y0.2604Z-0.0177
X4.1333Y0.2766Z-0.0248
X4.2035Y0.3050Z-0.0245
X4.2436Y0.3212Z-0.0171
X4.2737Y0.3334Z-0.0189
X4.3038Y0.3455Z-0.0212
X4.3439Y0.3617Z-0.0218
X4.3740Y0.3739Z-0.0255
X4.6448Y0.4833Z-0.0256
X4.7050Y0.5076Z-0.0227
X4.7551Y0.5279Z-0.0153
X4.8053Y0.5481Z-0.0163
X4.8554Y0.5684Z-0.0155
X4.9658Y0.6130Z-0.0153
X5.0660Y0.6535Z-0.0126
X5.2566Y0.7305Z-0.0099
X5.2967Y0.7467Z-0.0099
X5.4271Y0.7994Z-0.0064
X5.6778Y0.9007Z-0.0038
X6.1994Y1.1114Z-0.0037
X6.2696Y1.1397Z-0.0041
X6.3097Y1.1559Z-0.0116
X6.3297Y1.1641Z-0.0112
X6.3498Y1.1722Z-0.0147
X6.3799Y1.1843Z-0.0148
X6.4401Y1.2086Z-0.0176
X6.4701Y1.2208Z-0.0144
X6.5103Y1.2370Z-0.0066
X6.6106Y1.2775Z-0.0029
X7.2825Y1.5490Z-0.0024
X7.3828Y1.5895Z-0.0047
X7.4330Y1.6098Z-0.0142
X7.5332Y1.6503Z-0.0155
X7.5734Y1.6665Z-0.0150
X7.6235Y1.6868Z-0.0102
X7.6436Y1.6949Z-0.0116
X7.6636Y1.7030Z-0.0077
X7.6837Y1.7111Z-0.0089
X7.7338Y1.7313Z-0.0135
X7.7639Y1.7435Z-0.0115
X7.7840Y1.7516Z-0.0130
X7.8141Y1.7638Z-0.0071
X7.8542Y1.7800Z-0.0057
X7.9745Y1.8286Z-0.0047
X8.0046Y1.8407Z-0.0074
X8.0447Y1.8570Z-0.0044
X8.2052Y1.9218Z-0.0044
X8.2353Y1.9339Z-0.0054
X8.2854Y1.9542Z-0.0049
X8.3356Y1.9745Z-0.0081
X8.3657Y1.9866Z-0.0074
X8.3857Y1.9947Z-0.0105
X8.4158Y2.0069Z-0.0060
X8.4760Y2.0312Z-0.0065
X8.5161Y2.0474Z-0.0159
X8.5362Y2.0555Z-0.0141
X8.5462Y2.0596Z-0.0121
X8.5863Y2.0758Z-0.0180
X8.6465Y2.1001Z-0.0210
X8.6766Y2.1122Z-0.0188
X8.7468Y2.1406Z-0.0163
X8.7769Y2.1528Z-0.0114
X8.8070Y2.1649Z-0.0110
X8.8170Y2.1690Z-0.0081
X8.8872Y2.1973Z-0.0041
X9.3485Y2.3837Z-0.0031
X9.4288Y2.4161Z-0.0029
X9.5892Y2.4810Z-0.0020
X9.8701Y2.5944Z-0.0013
X10.0606Y2.6714Z-0.0010
X10.7025Y2.9308Z-0.0017
X10.8630Y2.9956Z-0.0010
Z0.0200
X10.8629Y3.0294
G1Z-0.0011F30.0
G1X10.6823Y2.9564Z-0.0015F60.0
X10.0602Y2.7050Z-0.0013
X9.9298Y2.6523Z-0.0020
X9.5385Y2.4942Z-0.0021
X9.2776Y2.3888Z-0.0028
X8.8462Y2.2145Z-0.0043
X8.7759Y2.1862Z-0.0050
X8.7358Y2.1699Z-0.0093
X8.7057Y2.1578Z-0.0090
X8.6756Y2.1456Z-0.0152
X8.6154Y2.1213Z-0.0200
X8.5753Y2.1051Z-0.0187
X8.5452Y2.0929Z-0.0088
X8.5351Y2.0889Z-0.0073
X8.4749Y2.0645Z-0.0061
X8.4448Y2.0524Z-0.0049
X8.4147Y2.0402Z-0.0075
X8.3846Y2.0281Z-0.0146
X8.3144Y1.9997Z-0.0163
X8.2843Y1.9875Z-0.0111
X8.2642Y1.9794Z-0.0089
X8.2441Y1.9713Z-0.0047
X7.8027Y1.7929Z-0.0052
X7.7324Y1.7646Z-0.0089
X7.7124Y1.7564Z-0.0118
X7.6823Y1.7443Z-0.0106
X7.6522Y1.7321Z-0.0064
X7.6120Y1.7159Z-0.0081
X7.5819Y1.7037Z-0.0147
X7.5518Y1.6916Z-0.0159
X7.5217Y1.6794Z-0.0133
X7.4716Y1.6591Z-0.0128
X7.4314Y1.6429Z-0.0071
X7.3612Y1.6146Z-0.0032
X6.7893Y1.3835Z-0.0022
X6.6990Y1.3470Z-0.0023
X6.4883Y1.2619Z-0.0054
X6.4582Y1.2497Z-0.0092
X6.4281Y1.2375Z-0.0161
X6.3879Y1.2213Z-0.0147
X6.3679Y1.2132Z-0.0099
X6.3578Y1.2092Z-0.0103
X6.3377Y1.2011Z-0.0143
X6.2976Y1.1848Z-0.0092
X6.2775Y1.1767Z-0.0051
X6.2173Y1.1524Z-0.0055
X6.1872Y1.1403Z-0.0046
X5.9665Y1.0511Z-0.0035
X5.8060Y0.9862Z-0.0042
X5.5150Y0.8686Z-0.0044
X5.3344Y0.7957Z-0.0066
X5.1939Y0.7389Z-0.0100
X4.9531Y0.6416Z-0.0140
X4.8528Y0.6011Z-0.0142
X4.7625Y0.5646Z-0.0158
X4.6922Y0.5362Z-0.0179
X4.6220Y0.5079Z-0.0253
X4.5116Y0.4633Z-0.0246
X4.4615Y0.4430Z-0.0231
X4.4314Y0.4308Z-0.0213
X4.4012Y0.4187Z-0.0215
X4.3611Y0.4025Z-0.0255
X4.3210Y0.3862Z-0.0225
X4.2909Y0.3741Z-0.0199
X4.2307Y0.3497Z-0.0167
X4.1604Y0.3214Z-0.0230
X4.1103Y0.3011Z-0.0251
X4.0701Y0.2849Z-0.0184
X4.0501Y0.2768Z-0.0190
X4.0300Y0.2687Z-0.0217
X3.9999Y0.2565Z-0.0207
X3.9698Y0.2443Z-0.0234
X3.9096Y0.2200Z-0.0234
X3.8594Y0.1998Z-0.0141
X3.8193Y0.1835Z-0.0127
X3.7792Y0.1673Z-0.0149
X3.7089Y0.1389Z-0.0163
X3.6387Y0.1106Z-0.0131
X3.5885Y0.0903Z-0.0136
X3.5283Y0.0660Z-0.0072
X3.3878Y0.0092Z-0.0071
X3.3678Y0.0011Z-0.0092
Z0.0200
X3.2841Y0.0011
G1Z-0.0105F30.0
G1X3.3543Y0.0294Z-0.0069F60.0
X3.5147Y0.0942Z-0.0066
X3.5648Y0.1145Z-0.0105
X3.6049Y0.1307Z-0.0141
X3.6450Y0.1469Z-0.0138
X3.6951Y0.1672Z-0.0165
X3.7653Y0.1955Z-0.0124
X3.8355Y0.2239Z-0.0143
X3.8756Y0.2401Z-0.0210
X3.9057Y0.2522Z-0.0248
X4.0360Y0.3049Z-0.0246
X4.0560Y0.3130Z-0.0213
X4.0961Y0.3292Z-0.0255
X4.1262Y0.3413Z-0.0239
X4.1563Y0.3535Z-0.0189
X4.2365Y0.3859Z-0.0171
X4.2666Y0.3980Z-0.0210
X4.2966Y0.4102Z-0.0255
X4.3568Y0.4345Z-0.0249
X4.4169Y0.4588Z-0.0179
X4.4871Y0.4871Z-0.0187
X4.5272Y0.5033Z-0.0221
X4.5874Y0.5276Z-0.0245
X4.6275Y0.5438Z-0.0210
X4.6776Y0.5641Z-0.0143
X4.8280Y0.6248Z-0.0143
X4.8681Y0.6410Z-0.0133
X4.9282Y0.6653Z-0.0150
X4.9984Y0.6937Z-0.0119
X5.0585Y0.7180Z-0.0110
X5.1588Y0.7585Z-0.0093
X5.2791Y0.8071Z-0.0069
X5.3092Y0.8193Z-0.0058
X5.3493Y0.8355Z-0.0067
X5.3994Y0.8557Z-0.0043
X5.4996Y0.8962Z-0.0041
X6.0510Y1.1190Z-0.0043
X6.1112Y1.1433Z-0.0071
X6.1312Y1.1514Z-0.0097
X6.1613Y1.1635Z-0.0074
X6.1914Y1.1757Z-0.0118
X6.2315Y1.1919Z-0.0054
X6.2816Y1.2121Z-0.0061
X6.3016Y1.2202Z-0.0074
X6.3317Y1.2324Z-0.0056
X6.3618Y1.2445Z-0.0074
X6.3919Y1.2567Z-0.0111
X6.4219Y1.2688Z-0.0098
X6.4620Y1.2850Z-0.0052
X6.6324Y1.3539Z-0.0028
X6.8129Y1.4268Z-0.0023
X7.3141Y1.6293Z-0.0029
X7.4344Y1.6779Z-0.0050
X7.4745Y1.6941Z-0.0096
X7.4846Y1.6982Z-0.0116
X7.5146Y1.7103Z-0.0085
X7.5547Y1.7265Z-0.0131
X7.5748Y1.7346Z-0.0132
X7.6149Y1.7508Z-0.0068
X7.6750Y1.7751Z-0.0054
X8.0961Y1.9453Z-0.0046
X8.1863Y1.9817Z-0.0074
X8.2264Y1.9979Z-0.0058
X8.2465Y2.0060Z-0.0086
X8.2665Y2.0141Z-0.0153
X8.3066Y2.0303Z-0.0181
X8.3668Y2.0546Z-0.0165
X8.3868Y2.0627Z-0.0107
X8.4069Y2.0708Z-0.0097
X8.4369Y2.0830Z-0.0053
X8.4770Y2.0992Z-0.0058
X8.5071Y2.1113Z-0.0105
X8.5272Y2.1194Z-0.0095
X8.5372Y2.1235Z-0.0110
X8.5472Y2.1275Z-0.0154
X8.5572Y2.1316Z-0.0176
X8.6074Y2.1518Z-0.0160
X8.6374Y2.1640Z-0.0106
X8.6675Y2.1761Z-0.0099
X8.7176Y2.1964Z-0.0047
X9.1587Y2.3746Z-0.0029
X9.4394Y2.4880Z-0.0029
X9.6600Y2.5771Z-0.0018
X10.1011Y2.7553Z-0.0010
X10.6825Y2.9902Z-0.0016
X10.8630Y3.0631Z-0.0012
Z0.0200
X10.8630Y3.0969
G1Z-0.0012F30.0
G1X10.6724Y3.0199Z-0.0016F60.0
X10.3715Y2.8984Z-0.0011
X10.0807Y2.7808Z-0.0015
X10.0105Y2.7525Z-0.0019
X9.4488Y2.5256Z-0.0022
X8.8872Y2.2986Z-0.0038
X8.6966Y2.2217Z-0.0047
X8.6164Y2.1892Z-0.0069
X8.5863Y2.1771Z-0.0102
X8.5662Y2.1690Z-0.0106
X8.5362Y2.1568Z-0.0169
X8.5061Y2.1447Z-0.0125
X8.4860Y2.1366Z-0.0071
X8.4258Y2.1122Z-0.0061
X8.3957Y2.1001Z-0.0071
X8.3456Y2.0798Z-0.0108
X8.3255Y2.0717Z-0.0176
X8.2955Y2.0596Z-0.0207
X8.2754Y2.0515Z-0.0189
X8.2654Y2.0474Z-0.0164
X8.2453Y2.0393Z-0.0161
X8.2252Y2.0312Z-0.0120
X8.1952Y2.0191Z-0.0129
X8.1751Y2.0109Z-0.0155
X8.1550Y2.0028Z-0.0133
X8.1250Y1.9907Z-0.0160
X8.1049Y1.9826Z-0.0097
X8.0547Y1.9623Z-0.0049
X7.9745Y1.9299Z-0.0052
X7.7138Y1.8246Z-0.0046
X7.5834Y1.7719Z-0.0055
X7.5633Y1.7638Z-0.0074
X7.4430Y1.7151Z-0.0039
X6.9415Y1.5125Z-0.0020
X6.7008Y1.4153Z-0.0025
X6.4400Y1.3099Z-0.0046
X6.3999Y1.2937Z-0.0057
X6.3698Y1.2816Z-0.0111
X6.3397Y1.2694Z-0.0105
X6.3197Y1.2613Z-0.0116
X6.3096Y1.2573Z-0.0102
X6.2896Y1.2492Z-0.0047
X6.2495Y1.2329Z-0.0048
X6.2194Y1.2208Z-0.0107
X6.1993Y1.2127Z-0.0114
X6.1793Y1.2046Z-0.0151
X6.1091Y1.1762Z-0.0135
X6.0890Y1.1681Z-0.0126
X6.0689Y1.1600Z-0.0132
X6.0489Y1.1519Z-0.0070
X6.0188Y1.1397Z-0.0054
X5.7881Y1.0465Z-0.0038
X5.4271Y0.9007Z-0.0049
X5.3569Y0.8723Z-0.0049
X5.2666Y0.8358Z-0.0063
X5.0259Y0.7386Z-0.0107
X4.9858Y0.7224Z-0.0126
X4.9557Y0.7102Z-0.0108
X4.9055Y0.6900Z-0.0125
X4.7651Y0.6332Z-0.0142
X4.6548Y0.5887Z-0.0143
X4.5746Y0.5562Z-0.0185
X4.5244Y0.5360Z-0.0173
X4.4943Y0.5238Z-0.0195
X4.4643Y0.5117Z-0.0162
X4.4241Y0.4955Z-0.0171
X4.4041Y0.4874Z-0.0174
X4.3740Y0.4752Z-0.0211
X4.3038Y0.4468Z-0.0256
X4.2637Y0.4306Z-0.0240
X4.2236Y0.4144Z-0.0179
X4.1935Y0.4023Z-0.0190
X4.1634Y0.3901Z-0.0216
X4.1333Y0.3779Z-0.0232
X4.0932Y0.3617Z-0.0259
X3.9026Y0.2848Z-0.0244
X3.8625Y0.2685Z-0.0221
X3.8124Y0.2483Z-0.0142
X3.7421Y0.2199Z-0.0124
X3.6719Y0.1916Z-0.0152
X3.6218Y0.1713Z-0.0129
X3.5917Y0.1591Z-0.0142
X3.5115Y0.1267Z-0.0067
X3.3811Y0.0740Z-0.0058
X3.2808Y0.0335Z-0.0079
X3.2607Y0.0254Z-0.0092
X3.2206Y0.0092Z-0.0089
X3.2006Y0.0011Z-0.0107
Z0.0200
X3.1170Y0.0011
G1Z-0.0106F30.0
G1X3.1471Y0.0133Z-0.0080F60.0
X3.4080Y0.1187Z-0.0051
X3.5183Y0.1633Z-0.0070
X3.5585Y0.1795Z-0.0112
X3.5886Y0.1916Z-0.0153
X3.6488Y0.2160Z-0.0124
X3.7190Y0.2443Z-0.0126
X3.7893Y0.2727Z-0.0137
X3.8495Y0.2970Z-0.0230
X4.0903Y0.3943Z-0.0257
X4.1806Y0.4308Z-0.0246
X4.2107Y0.4430Z-0.0216
X4.2608Y0.4633Z-0.0256
X4.3010Y0.4795Z-0.0249
X4.3311Y0.4916Z-0.0184
X4.3812Y0.5119Z-0.0175
X4.4214Y0.5281Z-0.0158
X4.5518Y0.5808Z-0.0150
X4.6622Y0.6254Z-0.0128
X4.9231Y0.7308Z-0.0109
X5.1438Y0.8200Z-0.0074
X5.1839Y0.8362Z-0.0066
X5.3846Y0.9173Z-0.0043
X5.7859Y1.0794Z-0.0038
X5.8863Y1.1200Z-0.0048
X5.9264Y1.1362Z-0.0091
X5.9565Y1.1484Z-0.0084
X5.9766Y1.1565Z-0.0120
X5.9966Y1.1646Z-0.0097
X6.0267Y1.1767Z-0.0067
X6.0568Y1.1889Z-0.0147
X6.1170Y1.2132Z-0.0182
X6.1371Y1.2213Z-0.0154
X6.1572Y1.2294Z-0.0101
X6.1773Y1.2375Z-0.0090
X6.1973Y1.2456Z-0.0054
X6.2274Y1.2578Z-0.0064
X6.2575Y1.2700Z-0.0048
X6.2876Y1.2821Z-0.0050
X6.3177Y1.2943Z-0.0062
X6.3378Y1.3024Z-0.0081
X6.3980Y1.3267Z-0.0043
X6.6388Y1.4240Z-0.0026
X7.2508Y1.6713Z-0.0028
X7.5619Y1.7970Z-0.0044
X8.0335Y1.9875Z-0.0052
X8.0736Y2.0037Z-0.0133
X8.0937Y2.0118Z-0.0134
X8.1137Y2.0199Z-0.0169
X8.1338Y2.0280Z-0.0168
X8.1639Y2.0402Z-0.0194
X8.3044Y2.0969Z-0.0201
X8.3646Y2.1213Z-0.0075
X8.3846Y2.1294Z-0.0093
X8.3947Y2.1334Z-0.0113
X8.4248Y2.1456Z-0.0069
X8.4649Y2.1618Z-0.0060
X8.4850Y2.1699Z-0.0066
X8.5351Y2.1902Z-0.0092
X8.5652Y2.2023Z-0.0065
X8.6656Y2.2429Z-0.0042
X9.4382Y2.5550Z-0.0022
X9.9900Y2.7780Z-0.0020
X10.4516Y2.9645Z-0.0007
X10.7024Y3.0658Z-0.0025
X10.8629Y3.1307Z-0.0015
Z0.0200
X10.8630Y3.1645
G1Z-0.0013F30.0
G1X10.6324Y3.0713Z-0.0016F60.0
X10.3517Y2.9579Z-0.0012
X10.3316Y2.9498Z-0.0033
X10.3216Y2.9457Z-0.0010
X10.1311Y2.8688Z-0.0014
X9.4494Y2.5934Z-0.0021
X9.2489Y2.5123Z-0.0026
X8.6574Y2.2734Z-0.0041
X8.4369Y2.1843Z-0.0057
X8.4168Y2.1762Z-0.0090
X8.3968Y2.1681Z-0.0110
X8.3868Y2.1640Z-0.0133
X8.3467Y2.1478Z-0.0152
X8.3066Y2.1316Z-0.0211
X8.2063Y2.0911Z-0.0187
X8.1662Y2.0749Z-0.0179
X8.1361Y2.0628Z-0.0160
X8.1261Y2.0587Z-0.0137
X8.1161Y2.0547Z-0.0138
X8.0960Y2.0465Z-0.0177
X8.0760Y2.0384Z-0.0153
X8.0459Y2.0263Z-0.0065
X7.9858Y2.0020Z-0.0055
X7.9657Y1.9939Z-0.0080
X7.9156Y1.9736Z-0.0056
X7.7452Y1.9048Z-0.0050
X7.7151Y1.8926Z-0.0053
X7.3141Y1.7306Z-0.0029
X6.8529Y1.5443Z-0.0024
X6.4419Y1.3782Z-0.0034
X6.2815Y1.3134Z-0.0046
X6.2414Y1.2972Z-0.0051
X6.2113Y1.2851Z-0.0102
X6.2013Y1.2810Z-0.0095
X6.1812Y1.2729Z-0.0058
X6.1612Y1.2648Z-0.0076
X6.1211Y1.2486Z-0.0174
X6.0710Y1.2284Z-0.0197
