(VECTRIC POST REV.)
(C9BFEAB1355AE3F66DEE4C3477420302)
T1M6
G17
G0Z0.8000
G0X0.0000Y0.0000S24000M3
G0X10.8653Y0.2436
G0Z0.2000
G1Z-0.0037F100.0
G1X10.8500Y0.2283Z-0.0029F150.0
X10.8347Y0.2130Z-0.0065
X10.8270Y0.2053Z-0.0062
X10.8194Y0.1977Z-0.0029
X10.8041Y0.1824Z-0.0040
X10.7964Y0.1747Z-0.0055
X10.7811Y0.1594Z-0.0020
X10.7047Y0.0830Z-0.0028
X10.6894Y0.0677Z-0.0035
X10.6435Y0.0218Z-0.0036
X10.6282Y0.0065Z-0.0056
Z0.1500
X10.3453Y0.0065
G1Z-0.0110F100.0
G1X10.4218Y0.0829Z-0.0073F150.0
X10.4600Y0.1212Z-0.0048
X10.5747Y0.2359Z-0.0024
X10.5977Y0.2588Z-0.0039
X10.6818Y0.3429Z-0.0025
X10.6971Y0.3582Z-0.0057
X10.7124Y0.3735Z-0.0031
X10.7735Y0.4347Z-0.0041
X10.8118Y0.4729Z-0.0047
X10.8271Y0.4882Z-0.0070
X10.8577Y0.5188Z-0.0089
X10.8653Y0.5264Z-0.0099
Z0.1500
X10.8653Y0.8093
G1Z-0.0064F100.0
G1X10.8424Y0.7863Z-0.0077F150.0
X10.8118Y0.7558Z-0.0098
X10.7889Y0.7328Z-0.0120
X10.7583Y0.7022Z-0.0139
X10.7277Y0.6717Z-0.0150
X10.6971Y0.6411Z-0.0190
X10.6589Y0.6028Z-0.0170
X10.6436Y0.5876Z-0.0144
X10.6283Y0.5723Z-0.0135
X10.5901Y0.5340Z-0.0065
X10.5059Y0.4499Z-0.0025
X10.3530Y0.2970Z-0.0037
X10.2919Y0.2358Z-0.0064
X10.2766Y0.2205Z-0.0069
X10.2460Y0.1900Z-0.0083
X10.2001Y0.1441Z-0.0083
X10.0625Y0.0064Z-0.0124
Z0.1500
X9.7796Y0.0064
G1Z-0.0146F100.0
G1X9.9172Y0.1441Z-0.0115F150.0
X9.9478Y0.1746Z-0.0103
X9.9708Y0.1976Z-0.0112
X10.0319Y0.2587Z-0.0104
X10.1543Y0.3811Z-0.0100
X10.2307Y0.4575Z-0.0087
X10.2690Y0.4958Z-0.0078
X10.3148Y0.5416Z-0.0081
X10.3225Y0.5493Z-0.0096
X10.3378Y0.5646Z-0.0086
X10.3836Y0.6105Z-0.0142
X10.4372Y0.6640Z-0.0139
X10.4830Y0.7098Z-0.0123
X10.5366Y0.7634Z-0.0109
X10.5824Y0.8092Z-0.0026
X10.6436Y0.8704Z-0.0044
X10.6742Y0.9010Z-0.0032
X10.7812Y1.0080Z-0.0039
X10.8118Y1.0386Z-0.0033
X10.8424Y1.0692Z-0.0047
X10.8653Y1.0921Z-0.0042
Z0.1500
X10.8653Y1.3750
G1Z-0.0033F100.0
G1X10.8195Y1.3291Z-0.0038F150.0
X10.7965Y1.3062Z-0.0037
X10.7659Y1.2756Z-0.0034
X10.7354Y1.2450Z-0.0037
X10.6283Y1.1380Z-0.0052
X10.5136Y1.0233Z-0.0066
X10.4601Y0.9698Z-0.0059
X10.3607Y0.8704Z-0.0070
X10.2843Y0.7939Z-0.0062
X10.2460Y0.7557Z-0.0067
X10.1008Y0.6104Z-0.0043
X10.0855Y0.5951Z-0.0060
X10.0473Y0.5569Z-0.0049
X9.9326Y0.4422Z-0.0049
X9.9173Y0.4269Z-0.0042
X9.9020Y0.4116Z-0.0045
X9.7491Y0.2587Z-0.0062
X9.7185Y0.2282Z-0.0114
X9.6956Y0.2052Z-0.0166
X9.6497Y0.1593Z-0.0194
X9.6344Y0.1441Z-0.0253
X9.6268Y0.1364Z-0.0316
X9.6115Y0.1211Z-0.0478
X9.6038Y0.1135Z-0.0502
X9.5732Y0.0829Z-0.0452
X9.5579Y0.0676Z-0.0402
X9.5274Y0.0370Z-0.0386
X9.5044Y0.0141Z-0.0319
X9.4968Y0.0064Z-0.0277
Z0.1500
X9.2139Y0.0064
G1Z-0.0403F100.0
G1X9.2216Y0.0141Z-0.0403F150.0
X9.2445Y0.0370Z-0.0514
X9.2598Y0.0523Z-0.0469
X9.2827Y0.0752Z-0.0295
X9.2904Y0.0829Z-0.0257
X9.2980Y0.0905Z-0.0252
X9.3133Y0.1058Z-0.0310
X9.3286Y0.1211Z-0.0235
X9.3363Y0.1288Z-0.0225
X9.3515Y0.1440Z-0.0331
X9.3668Y0.1593Z-0.0473
X9.3821Y0.1746Z-0.0503
X9.4127Y0.2052Z-0.0453
X9.4280Y0.2205Z-0.0368
X9.4509Y0.2434Z-0.0329
X9.4586Y0.2511Z-0.0355
X9.4739Y0.2664Z-0.0542
X9.4815Y0.2740Z-0.0609
X9.4968Y0.2893Z-0.0667
X9.5045Y0.2970Z-0.0654
X9.5197Y0.3122Z-0.0566
X9.5350Y0.3275Z-0.0575
X9.5503Y0.3428Z-0.0589
X9.5580Y0.3505Z-0.0537
X9.5733Y0.3658Z-0.0390
X9.5886Y0.3811Z-0.0298
X9.6268Y0.4193Z-0.0195
X9.6497Y0.4422Z-0.0194
X9.6727Y0.4651Z-0.0138
X9.7491Y0.5416Z-0.0103
X9.8332Y0.6257Z-0.0077
X9.8867Y0.6792Z-0.0087
X10.0549Y0.8474Z-0.0062
X10.1849Y0.9774Z-0.0060
X10.3149Y1.1074Z-0.0052
X10.3837Y1.1762Z-0.0051
X10.4984Y1.2908Z-0.0038
X10.5366Y1.3291Z-0.0028
X10.6513Y1.4438Z-0.0048
X10.6742Y1.4667Z-0.0033
X10.8271Y1.6196Z-0.0023
X10.8653Y1.6578Z-0.0024
Z0.1500
X10.8653Y1.9407
G1Z-0.0020F100.0
G1X10.7354Y1.8107Z-0.0033F150.0
X10.6436Y1.7190Z-0.0047
X10.6283Y1.7037Z-0.0037
X10.5442Y1.6196Z-0.0047
X10.5366Y1.6119Z-0.0036
X10.4143Y1.4896Z-0.0047
X10.3760Y1.4514Z-0.0051
X10.2537Y1.3291Z-0.0048
X10.1161Y1.1914Z-0.0056
X10.0320Y1.1073Z-0.0103
X9.8867Y0.9621Z-0.0092
X9.8332Y0.9086Z-0.0122
X9.7950Y0.8703Z-0.0115
X9.7721Y0.8474Z-0.0135
X9.7185Y0.7939Z-0.0184
X9.7033Y0.7786Z-0.0210
X9.6421Y0.7174Z-0.0436
X9.6039Y0.6792Z-0.0440
X9.5656Y0.6410Z-0.0521
X9.5427Y0.6180Z-0.0574
X9.5274Y0.6028Z-0.0655
X9.5198Y0.5951Z-0.0712
X9.5045Y0.5798Z-0.0758
X9.4739Y0.5492Z-0.0778
X9.4663Y0.5416Z-0.0764
X9.4586Y0.5339Z-0.0706
X9.4357Y0.5110Z-0.0460
X9.4280Y0.5034Z-0.0420
X9.4051Y0.4804Z-0.0393
X9.3974Y0.4728Z-0.0398
X9.3822Y0.4575Z-0.0452
X9.3745Y0.4498Z-0.0446
X9.3516Y0.4269Z-0.0296
X9.3439Y0.4193Z-0.0264
X9.3363Y0.4116Z-0.0272
X9.3134Y0.3887Z-0.0454
X9.2904Y0.3657Z-0.0500
X9.2828Y0.3581Z-0.0486
X9.2445Y0.3199Z-0.0287
X9.2293Y0.3046Z-0.0290
X9.2063Y0.2817Z-0.0242
X9.1834Y0.2587Z-0.0307
X9.1604Y0.2358Z-0.0504
X9.1452Y0.2205Z-0.0564
X9.1299Y0.2052Z-0.0610
X9.1222Y0.1976Z-0.0616
X9.1069Y0.1823Z-0.0536
X9.0916Y0.1670Z-0.0376
X9.0840Y0.1593Z-0.0326
X9.0458Y0.1211Z-0.0226
X9.0228Y0.0982Z-0.0223
X8.9999Y0.0752Z-0.0292
X8.9617Y0.0370Z-0.0555
X8.9540Y0.0294Z-0.0596
X8.9311Y0.0064Z-0.0633
Z0.1500
X8.6482Y0.0064
G1Z-0.0671F100.0
G1X8.6788Y0.0370Z-0.0647F150.0
X8.6865Y0.0446Z-0.0621
X8.7171Y0.0752Z-0.0395
X8.7323Y0.0905Z-0.0355
X8.7400Y0.0982Z-0.0362
X8.7476Y0.1058Z-0.0437
X8.7553Y0.1135Z-0.0476
X8.7706Y0.1287Z-0.0470
X8.7859Y0.1440Z-0.0447
X8.7935Y0.1517Z-0.0406
X8.8164Y0.1746Z-0.0379
X8.8394Y0.1975Z-0.0628
X8.8547Y0.2128Z-0.0645
X8.8700Y0.2281Z-0.0627
X8.8852Y0.2434Z-0.0624
X8.8929Y0.2511Z-0.0583
X8.9235Y0.2816Z-0.0275
X8.9388Y0.2969Z-0.0199
X8.9770Y0.3352Z-0.0153
X9.0611Y0.4193Z-0.0135
X9.1681Y0.5263Z-0.0116
X9.3363Y0.6945Z-0.0131
X9.4510Y0.8092Z-0.0131
X9.5045Y0.8627Z-0.0139
X9.5121Y0.8703Z-0.0157
X9.5198Y0.8780Z-0.0206
X9.5427Y0.9009Z-0.0451
X9.5504Y0.9085Z-0.0478
X9.5657Y0.9238Z-0.0416
X9.5962Y0.9544Z-0.0247
X9.6268Y0.9850Z-0.0157
X9.6498Y1.0079Z-0.0181
X9.6727Y1.0309Z-0.0129
X9.6803Y1.0385Z-0.0140
X9.6880Y1.0462Z-0.0193
X9.6956Y1.0538Z-0.0171
X9.7033Y1.0615Z-0.0105
X9.7568Y1.1150Z-0.0083
X9.9250Y1.2832Z-0.0073
X10.0397Y1.3978Z-0.0048
X10.1620Y1.5202Z-0.0053
X10.1926Y1.5507Z-0.0039
X10.2308Y1.5890Z-0.0053
X10.3225Y1.6807Z-0.0039
X10.5825Y1.9406Z-0.0062
X10.6971Y2.0553Z-0.0041
X10.7430Y2.1012Z-0.0047
X10.7889Y2.1471Z-0.0029
X10.8653Y2.2235Z-0.0023
Z0.1500
X10.8653Y2.5064
G1Z-0.0029F100.0
G1X10.8348Y2.4758Z-0.0034F150.0
X10.8271Y2.4681Z-0.0049
X10.8042Y2.4452Z-0.0023
X10.7583Y2.3993Z-0.0034
X10.7430Y2.3840Z-0.0045
X10.6513Y2.2923Z-0.0063
X10.5901Y2.2311Z-0.0029
X10.4296Y2.0706Z-0.0020
X10.2461Y1.8871Z-0.0030
X10.0473Y1.6883Z-0.0056
X10.0091Y1.6501Z-0.0071
X9.9556Y1.5966Z-0.0070
X9.8409Y1.4819Z-0.0112
X9.8103Y1.4513Z-0.0100
X9.7492Y1.3902Z-0.0115
X9.6804Y1.3214Z-0.0145
X9.6651Y1.3061Z-0.0174
X9.6345Y1.2755Z-0.0175
X9.5810Y1.2220Z-0.0183
X9.5351Y1.1761Z-0.0116
X9.5045Y1.1455Z-0.0139
X9.4969Y1.1379Z-0.0154
X9.4816Y1.1226Z-0.0252
X9.4510Y1.0920Z-0.0492
X9.4281Y1.0691Z-0.0542
X9.4128Y1.0538Z-0.0523
X9.4051Y1.0461Z-0.0474
X9.3898Y1.0309Z-0.0300
X9.3746Y1.0156Z-0.0259
X9.3516Y0.9926Z-0.0264
X9.3363Y0.9773Z-0.0214
X9.2981Y0.9391Z-0.0217
X9.2446Y0.8856Z-0.0140
X9.1528Y0.7939Z-0.0106
X9.0688Y0.7098Z-0.0107
X9.0229Y0.6639Z-0.0100
X8.9694Y0.6104Z-0.0109
X8.9541Y0.5951Z-0.0107
X8.8241Y0.4651Z-0.0113
X8.8088Y0.4498Z-0.0106
X8.7859Y0.4269Z-0.0132
X8.7324Y0.3734Z-0.0138
X8.6712Y0.3122Z-0.0174
X8.6406Y0.2816Z-0.0226
X8.6330Y0.2740Z-0.0260
X8.6024Y0.2434Z-0.0559
X8.5948Y0.2358Z-0.0618
X8.5795Y0.2205Z-0.0661
X8.5030Y0.1440Z-0.0624
X8.4877Y0.1287Z-0.0612
X8.4342Y0.0752Z-0.0611
X8.4266Y0.0676Z-0.0594
X8.4113Y0.0523Z-0.0627
X8.3960Y0.0370Z-0.0666
X8.3654Y0.0064Z-0.0671
Z0.1500
X8.0826Y0.0064
G1Z-0.0703F100.0
G1X8.0979Y0.0217Z-0.0690F150.0
X8.1131Y0.0370Z-0.0692
X8.1437Y0.0676Z-0.0652
X8.1667Y0.0905Z-0.0683
X8.1896Y0.1134Z-0.0648
X8.2125Y0.1364Z-0.0643
X8.2278Y0.1517Z-0.0685
X8.2431Y0.1670Z-0.0674
X8.2737Y0.1975Z-0.0653
X8.2890Y0.2128Z-0.0683
X8.2966Y0.2205Z-0.0665
X8.3043Y0.2281Z-0.0600
X8.3272Y0.2511Z-0.0291
X8.3348Y0.2587Z-0.0230
X8.3425Y0.2663Z-0.0203
X8.4037Y0.3275Z-0.0142
X8.4572Y0.3810Z-0.0132
X8.4877Y0.4116Z-0.0131
X8.5107Y0.4345Z-0.0118
X8.5336Y0.4575Z-0.0115
X8.6177Y0.5416Z-0.0095
X8.6865Y0.6104Z-0.0078
X8.7630Y0.6868Z-0.0096
X8.8700Y0.7939Z-0.0094
X8.9464Y0.8703Z-0.0134
X8.9617Y0.8856Z-0.0166
X8.9694Y0.8932Z-0.0208
X8.9847Y0.9085Z-0.0254
X8.9923Y0.9162Z-0.0298
X9.0000Y0.9238Z-0.0385
X9.0076Y0.9315Z-0.0394
X9.0305Y0.9544Z-0.0277
X9.0458Y0.9697Z-0.0226
X9.0535Y0.9773Z-0.0178
X9.0611Y0.9850Z-0.0152
X9.0841Y1.0079Z-0.0179
X9.0917Y1.0156Z-0.0212
X9.1070Y1.0308Z-0.0321
X9.1299Y1.0538Z-0.0334
X9.1376Y1.0614Z-0.0441
X9.1452Y1.0691Z-0.0505
X9.1529Y1.0767Z-0.0507
X9.1834Y1.1073Z-0.0239
X9.1911Y1.1149Z-0.0205
X9.2140Y1.1379Z-0.0178
X9.2675Y1.1914Z-0.0132
X9.2905Y1.2143Z-0.0145
X9.3134Y1.2373Z-0.0124
X9.3822Y1.3061Z-0.0139
X9.4128Y1.3366Z-0.0134
X9.4510Y1.3749Z-0.0142
X9.4892Y1.4131Z-0.0103
X9.5351Y1.4590Z-0.0117
X9.5810Y1.5048Z-0.0086
X9.6269Y1.5507Z-0.0074
X9.6727Y1.5966Z-0.0111
X9.7109Y1.6348Z-0.0068
X9.8103Y1.7342Z-0.0101
X9.8638Y1.7877Z-0.0059
X9.9250Y1.8489Z-0.0063
X10.0473Y1.9712Z-0.0023
X10.2996Y2.2235Z-0.0017
X10.3149Y2.2388Z-0.0029
X10.3225Y2.2464Z-0.0085
X10.3302Y2.2540Z-0.0024
X10.4066Y2.3305Z-0.0025
X10.5137Y2.4375Z-0.0025
X10.5290Y2.4528Z-0.0040
X10.5519Y2.4758Z-0.0027
X10.6131Y2.5369Z-0.0029
X10.7048Y2.6287Z-0.0051
X10.7507Y2.6745Z-0.0055
X10.8271Y2.7510Z-0.0019
X10.8653Y2.7892Z-0.0026
Z0.1500
X10.8653Y3.0720
G1Z-0.0029F100.0
G1X10.7812Y2.9879Z-0.0042F150.0
X10.7124Y2.9191Z-0.0045
X10.5901Y2.7968Z-0.0018
X10.4984Y2.7051Z-0.0021
X10.4907Y2.6974Z-0.0034
X10.4449Y2.6516Z-0.0015
X10.3302Y2.5369Z-0.0037
X10.2232Y2.4299Z-0.0034
X10.1314Y2.3381Z-0.0048
X10.1238Y2.3305Z-0.0087
X10.1085Y2.3152Z-0.0051
X10.0856Y2.2923Z-0.0053
X10.0244Y2.2311Z-0.0046
X9.9862Y2.1929Z-0.0061
X9.9480Y2.1546Z-0.0047
X9.9021Y2.1088Z-0.0079
X9.8868Y2.0935Z-0.0079
X9.8409Y2.0476Z-0.0050
X9.7721Y1.9788Z-0.0077
X9.7492Y1.9559Z-0.0081
X9.7262Y1.9329Z-0.0049
X9.6651Y1.8718Z-0.0061
X9.6498Y1.8565Z-0.0090
X9.6192Y1.8259Z-0.0057
X9.5581Y1.7648Z-0.0061
X9.5122Y1.7189Z-0.0094
X9.4816Y1.6883Z-0.0088
X9.4663Y1.6730Z-0.0120
X9.4357Y1.6424Z-0.0337
X9.4128Y1.6195Z-0.0333
X9.3899Y1.5966Z-0.0226
X9.3822Y1.5889Z-0.0212
X9.3669Y1.5736Z-0.0245
X9.3593Y1.5660Z-0.0303
X9.3516Y1.5583Z-0.0385
X9.3440Y1.5507Z-0.0386
X9.3287Y1.5354Z-0.0281
X9.3058Y1.5125Z-0.0185
X9.2828Y1.4895Z-0.0147
X9.2676Y1.4742Z-0.0179
X9.2523Y1.4590Z-0.0266
X9.2446Y1.4513Z-0.0337
X9.2370Y1.4437Z-0.0376
X9.2293Y1.4360Z-0.0343
X9.2217Y1.4284Z-0.0286
X9.2140Y1.4207Z-0.0262
X9.2064Y1.4131Z-0.0267
X9.1682Y1.3749Z-0.0380
X9.1605Y1.3672Z-0.0349
X9.1529Y1.3596Z-0.0271
X9.1376Y1.3443Z-0.0193
X9.1147Y1.3213Z-0.0118
X9.0535Y1.2602Z-0.0095
X9.0076Y1.2143Z-0.0111
X8.9465Y1.1532Z-0.0154
X8.9082Y1.1149Z-0.0205
X8.9006Y1.1073Z-0.0235
X8.8929Y1.0996Z-0.0289
X8.8700Y1.0767Z-0.0577
X8.8624Y1.0691Z-0.0594
X8.8547Y1.0614Z-0.0564
X8.8471Y1.0538Z-0.0571
X8.8394Y1.0461Z-0.0515
X8.8241Y1.0308Z-0.0323
X8.8165Y1.0232Z-0.0254
X8.8012Y1.0079Z-0.0209
X8.7783Y0.9850Z-0.0216
X8.7553Y0.9620Z-0.0172
X8.7171Y0.9238Z-0.0178
X8.7018Y0.9085Z-0.0202
X8.6789Y0.8856Z-0.0124
X8.6483Y0.8550Z-0.0092
X8.6177Y0.8244Z-0.0091
X8.4878Y0.6945Z-0.0065
X8.4419Y0.6486Z-0.0076
X8.3960Y0.6027Z-0.0079
X8.3654Y0.5721Z-0.0088
X8.3272Y0.5339Z-0.0061
X8.2890Y0.4957Z-0.0091
X8.2508Y0.4575Z-0.0090
X8.2431Y0.4498Z-0.0103
X8.2355Y0.4422Z-0.0146
X8.2278Y0.4345Z-0.0112
X8.1820Y0.3887Z-0.0105
X8.1361Y0.3428Z-0.0159
X8.1132Y0.3199Z-0.0146
X8.0520Y0.2587Z-0.0192
X8.0367Y0.2434Z-0.0268
X8.0138Y0.2205Z-0.0430
X8.0061Y0.2128Z-0.0522
X7.9985Y0.2052Z-0.0587
X7.9756Y0.1822Z-0.0616
X7.9603Y0.1670Z-0.0659
X7.9526Y0.1593Z-0.0662
X7.9297Y0.1364Z-0.0564
X7.9144Y0.1211Z-0.0425
X7.9068Y0.1134Z-0.0389
X7.8991Y0.1058Z-0.0394
X7.8915Y0.0982Z-0.0422
X7.8838Y0.0905Z-0.0478
X7.8762Y0.0829Z-0.0502
X7.8685Y0.0752Z-0.0557
X7.8532Y0.0599Z-0.0542
X7.8456Y0.0523Z-0.0504
X7.8303Y0.0370Z-0.0376
X7.8227Y0.0294Z-0.0361
X7.7997Y0.0064Z-0.0433
Z0.1500
X7.5169Y0.0064
G1Z-0.0313F100.0
G1X7.5398Y0.0293Z-0.0266F150.0
X7.5475Y0.0370Z-0.0274
X7.5551Y0.0446Z-0.0312
X7.5704Y0.0599Z-0.0502
X7.5780Y0.0676Z-0.0519
X7.5857Y0.0752Z-0.0505
X7.5933Y0.0829Z-0.0532
X7.6086Y0.0982Z-0.0612
X7.6316Y0.1211Z-0.0575
X7.6468Y0.1364Z-0.0526
X7.6774Y0.1670Z-0.0310
X7.7004Y0.1899Z-0.0230
X7.7080Y0.1975Z-0.0199
X7.7309Y0.2205Z-0.0193
X7.7386Y0.2281Z-0.0210
X7.7462Y0.2358Z-0.0247
X7.7692Y0.2587Z-0.0170
X7.7997Y0.2893Z-0.0157
X7.8227Y0.3122Z-0.0171
X7.8456Y0.3351Z-0.0129
X7.9832Y0.4728Z-0.0074
X8.0520Y0.5416Z-0.0064
X8.2279Y0.7174Z-0.0047
X8.3119Y0.8015Z-0.0048
X8.3425Y0.8321Z-0.0060
X8.3731Y0.8626Z-0.0072
X8.3960Y0.8856Z-0.0105
X8.4190Y0.9085Z-0.0227
X8.4343Y0.9238Z-0.0299
X8.4419Y0.9314Z-0.0366
X8.4496Y0.9391Z-0.0467
X8.4572Y0.9467Z-0.0509
X8.4648Y0.9544Z-0.0521
X8.4725Y0.9620Z-0.0555
X8.4954Y0.9850Z-0.0563
X8.5260Y1.0155Z-0.0602
X8.5337Y1.0232Z-0.0580
X8.5489Y1.0385Z-0.0637
X8.5566Y1.0461Z-0.0646
X8.5795Y1.0691Z-0.0562
X8.5872Y1.0767Z-0.0552
X8.5948Y1.0843Z-0.0506
X8.6101Y1.0996Z-0.0316
X8.6177Y1.1073Z-0.0245
X8.6330Y1.1226Z-0.0160
X8.6560Y1.1455Z-0.0115
X8.7018Y1.1914Z-0.0115
X8.7401Y1.2296Z-0.0098
X8.7936Y1.2831Z-0.0081
X8.9083Y1.3978Z-0.0101
X8.9388Y1.4284Z-0.0121
X8.9847Y1.4742Z-0.0114
X9.0000Y1.4895Z-0.0134
X9.0229Y1.5125Z-0.0259
X9.0306Y1.5201Z-0.0329
X9.0382Y1.5277Z-0.0351
X9.0688Y1.5583Z-0.0370
X9.0841Y1.5736Z-0.0294
X9.0994Y1.5889Z-0.0305
X9.1300Y1.6195Z-0.0362
X9.1452Y1.6348Z-0.0293
X9.1529Y1.6424Z-0.0247
X9.1758Y1.6654Z-0.0317
X9.1911Y1.6806Z-0.0281
X9.2140Y1.7036Z-0.0147
X9.2217Y1.7112Z-0.0124
X9.3211Y1.8106Z-0.0104
X9.3440Y1.8335Z-0.0116
X9.3746Y1.8641Z-0.0094
X9.4128Y1.9023Z-0.0128
X9.4663Y1.9559Z-0.0101
X9.5046Y1.9941Z-0.0053
X9.5428Y2.0323Z-0.0067
X9.5657Y2.0552Z-0.0088
X9.5886Y2.0782Z-0.0060
X9.6039Y2.0935Z-0.0071
X9.6345Y2.1241Z-0.0046
X9.6880Y2.1776Z-0.0078
X9.7415Y2.2311Z-0.0042
X9.7798Y2.2693Z-0.0071
X9.8180Y2.3075Z-0.0045
X9.8333Y2.3228Z-0.0048
X9.8562Y2.3458Z-0.0039
X9.8868Y2.3763Z-0.0072
X9.9403Y2.4298Z-0.0044
X9.9632Y2.4528Z-0.0043
X9.9938Y2.4834Z-0.0077
X10.0703Y2.5598Z-0.0028
X10.2614Y2.7509Z-0.0027
X10.3761Y2.8656Z-0.0018
X10.5213Y3.0109Z-0.0023
X10.5748Y3.0644Z-0.0025
X10.5978Y3.0873Z-0.0030
X10.7201Y3.2096Z-0.0066
X10.7889Y3.2784Z-0.0045
X10.8042Y3.2937Z-0.0053
X10.8653Y3.3549Z-0.0046
Z0.1500
X10.8653Y3.6377
G1Z-0.0188F100.0
G1X10.8577Y3.6301Z-0.0186F150.0
X10.8271Y3.5995Z-0.0066
X10.8042Y3.5766Z-0.0034
X10.7201Y3.4925Z-0.0038
X10.6513Y3.4237Z-0.0070
X10.5901Y3.3625Z-0.0028
X10.4525Y3.2249Z-0.0020
X10.3531Y3.1255Z-0.0023
X10.2538Y3.0261Z-0.0019
X10.1467Y2.9191Z-0.0034
X10.0397Y2.8121Z-0.0058
X10.0091Y2.7815Z-0.0067
X9.9633Y2.7356Z-0.0035
X9.8868Y2.6592Z-0.0060
X9.8486Y2.6210Z-0.0035
X9.8027Y2.5751Z-0.0067
X9.7645Y2.5369Z-0.0039
X9.7033Y2.4757Z-0.0055
X9.6345Y2.4069Z-0.0051
X9.6039Y2.3763Z-0.0064
X9.5581Y2.3304Z-0.0052
X9.5122Y2.2846Z-0.0063
X9.4663Y2.2387Z-0.0059
X9.4434Y2.2158Z-0.0067
X9.3746Y2.1470Z-0.0165
X9.3364Y2.1087Z-0.0418
X9.3287Y2.1011Z-0.0439
X9.3211Y2.0935Z-0.0382
X9.3134Y2.0858Z-0.0293
X9.2905Y2.0629Z-0.0215
X9.2829Y2.0552Z-0.0168
X9.2676Y2.0399Z-0.0146
X9.2523Y2.0247Z-0.0122
X9.2370Y2.0094Z-0.0150
X9.2141Y1.9864Z-0.0240
X9.1988Y1.9711Z-0.0348
X9.1911Y1.9635Z-0.0369
X9.1835Y1.9559Z-0.0320
X9.1758Y1.9482Z-0.0209
X9.1682Y1.9406Z-0.0171
X9.1300Y1.9023Z-0.0100
X9.0994Y1.8718Z-0.0083
X9.0459Y1.8182Z-0.0107
X9.0000Y1.7724Z-0.0094
X8.9159Y1.6883Z-0.0113
X8.9006Y1.6730Z-0.0150
X8.8700Y1.6424Z-0.0380
X8.8547Y1.6271Z-0.0315
X8.8471Y1.6195Z-0.0244
X8.8395Y1.6118Z-0.0206
X8.8089Y1.5813Z-0.0195
X8.7859Y1.5583Z-0.0252
X8.7707Y1.5430Z-0.0222
X8.7630Y1.5354Z-0.0195
X8.7477Y1.5201Z-0.0238
X8.7401Y1.5124Z-0.0293
X8.7171Y1.4895Z-0.0406
X8.6789Y1.4513Z-0.0450
X8.6560Y1.4284Z-0.0405
X8.6483Y1.4207Z-0.0374
X8.6330Y1.4054Z-0.0218
X8.6254Y1.3978Z-0.0169
X8.6025Y1.3748Z-0.0109
X8.5337Y1.3060Z-0.0080
X8.4496Y1.2219Z-0.0087
X8.3808Y1.1531Z-0.0126
X8.3731Y1.1455Z-0.0149
X8.3655Y1.1379Z-0.0204
X8.3502Y1.1226Z-0.0275
X8.3349Y1.1073Z-0.0407
X8.3273Y1.0996Z-0.0423
X8.3120Y1.0843Z-0.0394
X8.2814Y1.0538Z-0.0425
X8.2737Y1.0461Z-0.0463
X8.2661Y1.0385Z-0.0530
X8.2432Y1.0155Z-0.0555
X8.2355Y1.0079Z-0.0575
X8.2279Y1.0002Z-0.0565
X8.2049Y0.9773Z-0.0459
X8.1896Y0.9620Z-0.0251
X8.1820Y0.9544Z-0.0172
X8.1667Y0.9391Z-0.0181
X8.1514Y0.9238Z-0.0148
X8.1361Y0.9085Z-0.0087
X8.1056Y0.8779Z-0.0064
X7.9603Y0.7327Z-0.0047
X7.9450Y0.7174Z-0.0038
X7.8915Y0.6639Z-0.0052
X7.8609Y0.6333Z-0.0046
X7.8150Y0.5874Z-0.0070
X7.7998Y0.5721Z-0.0046
X7.7462Y0.5186Z-0.0058
X7.6622Y0.4345Z-0.0079
X7.6469Y0.4192Z-0.0099
X7.5933Y0.3657Z-0.0112
X7.5551Y0.3275Z-0.0160
X7.5322Y0.3046Z-0.0276
X7.5245Y0.2969Z-0.0319
X7.5169Y0.2893Z-0.0397
X7.5093Y0.2816Z-0.0451
X7.4940Y0.2663Z-0.0494
X7.4787Y0.2510Z-0.0514
X7.4634Y0.2358Z-0.0585
X7.4252Y0.1975Z-0.0625
X7.4099Y0.1822Z-0.0578
X7.3793Y0.1517Z-0.0621
X7.3640Y0.1364Z-0.0622
X7.3487Y0.1211Z-0.0685
X7.3258Y0.0982Z-0.0633
X7.3105Y0.0829Z-0.0667
X7.3028Y0.0752Z-0.0699
X7.2723Y0.0446Z-0.0639
X7.2340Y0.0064Z-0.0655
Z0.1500
X6.9512Y0.0064
G1Z-0.0536F100.0
G1X6.9588Y0.0141Z-0.0491F150.0
X6.9665Y0.0217Z-0.0413
X6.9971Y0.0523Z-0.0283
X7.0200Y0.0752Z-0.0230
X7.0276Y0.0829Z-0.0240
X7.0429Y0.0982Z-0.0325
X7.0506Y0.1058Z-0.0350
X7.0659Y0.1211Z-0.0354
X7.0888Y0.1440Z-0.0607
X7.0965Y0.1517Z-0.0650
X7.1194Y0.1746Z-0.0634
X7.1423Y0.1975Z-0.0614
X7.1576Y0.2128Z-0.0562
X7.1653Y0.2205Z-0.0499
X7.1729Y0.2281Z-0.0412
X7.2035Y0.2587Z-0.0242
X7.2111Y0.2663Z-0.0215
X7.2341Y0.2893Z-0.0210
X7.2570Y0.3122Z-0.0174
X7.2952Y0.3504Z-0.0132
X7.3182Y0.3734Z-0.0149
X7.3334Y0.3887Z-0.0132
X7.3487Y0.4039Z-0.0151
X7.3640Y0.4192Z-0.0108
X7.4252Y0.4804Z-0.0079
X7.4787Y0.5339Z-0.0075
X7.5322Y0.5874Z-0.0060
X7.5551Y0.6104Z-0.0062
X7.6087Y0.6639Z-0.0046
X7.7692Y0.8244Z-0.0052
X7.7998Y0.8550Z-0.0061
X7.8380Y0.8932Z-0.0059
X7.8609Y0.9161Z-0.0090
X7.8992Y0.9544Z-0.0114
X7.9068Y0.9620Z-0.0137
X7.9221Y0.9773Z-0.0232
X7.9297Y0.9849Z-0.0216
X7.9450Y1.0002Z-0.0147
X7.9756Y1.0308Z-0.0108
X7.9909Y1.0461Z-0.0120
X8.0138Y1.0690Z-0.0157
X8.0291Y1.0843Z-0.0238
X8.0444Y1.0996Z-0.0283
X8.0673Y1.1226Z-0.0447
X8.0826Y1.1378Z-0.0329
X8.1132Y1.1684Z-0.0161
X8.1361Y1.1914Z-0.0115
X8.2050Y1.2602Z-0.0079
X8.3349Y1.3901Z-0.0104
X8.3426Y1.3978Z-0.0125
X8.3655Y1.4207Z-0.0270
X8.3731Y1.4283Z-0.0304
X8.3884Y1.4436Z-0.0320
X8.3961Y1.4513Z-0.0351
X8.4037Y1.4589Z-0.0355
X8.4267Y1.4819Z-0.0208
X8.4343Y1.4895Z-0.0181
X8.4419Y1.4972Z-0.0191
X8.4572Y1.5124Z-0.0260
X8.4649Y1.5201Z-0.0266
X8.4955Y1.5507Z-0.0205
X8.5107Y1.5660Z-0.0202
X8.5184Y1.5736Z-0.0243
X8.5337Y1.5889Z-0.0422
X8.5413Y1.5965Z-0.0424
X8.5490Y1.6042Z-0.0403
X8.5643Y1.6195Z-0.0409
X8.5795Y1.6348Z-0.0455
X8.5872Y1.6424Z-0.0458
X8.6025Y1.6577Z-0.0399
X8.6178Y1.6730Z-0.0269
X8.6331Y1.6883Z-0.0186
X8.6483Y1.7036Z-0.0156
X8.6560Y1.7112Z-0.0157
X8.6636Y1.7189Z-0.0179
X8.7019Y1.7571Z-0.0107
X8.7401Y1.7953Z-0.0108
X8.8012Y1.8565Z-0.0089
X8.8318Y1.8870Z-0.0096
X8.8471Y1.9023Z-0.0089
X8.8700Y1.9253Z-0.0122
X8.8853Y1.9406Z-0.0125
X8.8930Y1.9482Z-0.0149
X8.9236Y1.9788Z-0.0404
X8.9389Y1.9941Z-0.0492
X8.9465Y2.0017Z-0.0484
X8.9618Y2.0170Z-0.0396
X8.9694Y2.0246Z-0.0403
X8.9924Y2.0476Z-0.0541
X9.0077Y2.0629Z-0.0572
X9.0229Y2.0782Z-0.0577
X9.0306Y2.0858Z-0.0614
X9.0535Y2.1087Z-0.0530
X9.0765Y2.1317Z-0.0350
X9.0841Y2.1393Z-0.0315
X9.0994Y2.1546Z-0.0196
X9.1147Y2.1699Z-0.0137
X9.1453Y2.2005Z-0.0106
X9.1835Y2.2387Z-0.0111
X9.2141Y2.2693Z-0.0086
X9.2446Y2.2999Z-0.0088
X9.2599Y2.3151Z-0.0071
X9.3058Y2.3610Z-0.0085
X9.3440Y2.3992Z-0.0084
X9.3746Y2.4298Z-0.0091
X9.4511Y2.5063Z-0.0069
X9.5122Y2.5674Z-0.0035
X9.5657Y2.6209Z-0.0045
X9.5734Y2.6286Z-0.0033
X9.6040Y2.6592Z-0.0037
X9.6651Y2.7203Z-0.0042
X9.7339Y2.7891Z-0.0037
X9.7568Y2.8121Z-0.0053
X9.8257Y2.8809Z-0.0041
X9.8486Y2.9038Z-0.0047
X9.9174Y2.9726Z-0.0029
X9.9556Y3.0108Z-0.0034
X9.9862Y3.0414Z-0.0035
X10.0091Y3.0643Z-0.0043
X10.0168Y3.0720Z-0.0034
X10.0397Y3.0949Z-0.0065
X10.0856Y3.1408Z-0.0025
X10.1773Y3.2325Z-0.0030
X10.3761Y3.4313Z-0.0064
X10.4372Y3.4924Z-0.0029
X10.5366Y3.5918Z-0.0024
X10.5596Y3.6148Z-0.0037
X10.6360Y3.6912Z-0.0049
X10.6819Y3.7371Z-0.0063
X10.7048Y3.7600Z-0.0073
X10.7354Y3.7906Z-0.0116
X10.7583Y3.8135Z-0.0172
X10.8424Y3.8976Z-0.0190
X10.8653Y3.9206Z-0.0203
Z0.1500
X10.8653Y4.2034
G1Z-0.0228F100.0
G1X10.7813Y4.1193Z-0.0217F150.0
X10.7354Y4.0734Z-0.0215
X10.6742Y4.0123Z-0.0216
X10.6513Y3.9893Z-0.0195
X10.6207Y3.9588Z-0.0091
X10.5443Y3.8823Z-0.0048
X10.4296Y3.7676Z-0.0040
X10.3684Y3.7065Z-0.0044
X10.3531Y3.6912Z-0.0013
X10.3302Y3.6683Z-0.0024
X10.2920Y3.6300Z-0.0027
X10.2843Y3.6224Z-0.0043
X10.2538Y3.5918Z-0.0022
X10.2385Y3.5765Z-0.0032
X10.1162Y3.4542Z-0.0028
X10.0550Y3.3931Z-0.0065
X9.9480Y3.2860Z-0.0044
X9.8945Y3.2325Z-0.0037
X9.8562Y3.1943Z-0.0037
X9.8333Y3.1714Z-0.0034
X9.7874Y3.1255Z-0.0044
X9.7416Y3.0796Z-0.0037
X9.6728Y3.0108Z-0.0038
X9.6192Y2.9573Z-0.0035
X9.5887Y2.9267Z-0.0049
X9.5428Y2.8809Z-0.0035
X9.4358Y2.7738Z-0.0066
X9.4052Y2.7432Z-0.0082
X9.3440Y2.6821Z-0.0072
X9.3135Y2.6515Z-0.0076
X9.2599Y2.5980Z-0.0064
X9.1453Y2.4833Z-0.0082
X9.0306Y2.3687Z-0.0082
X9.0230Y2.3610Z-0.0099
X8.9924Y2.3304Z-0.0077
X8.9542Y2.2922Z-0.0078
X8.9159Y2.2540Z-0.0108
X8.8701Y2.2081Z-0.0107
X8.8548Y2.1928Z-0.0131
X8.8395Y2.1775Z-0.0197
X8.8242Y2.1622Z-0.0245
X8.8089Y2.1470Z-0.0391
X8.7936Y2.1317Z-0.0388
X8.7707Y2.1087Z-0.0477
X8.7554Y2.0934Z-0.0465
X8.7401Y2.0781Z-0.0534
X8.7248Y2.0629Z-0.0536
X8.7095Y2.0476Z-0.0597
X8.7019Y2.0399Z-0.0571
X8.6866Y2.0246Z-0.0426
X8.6789Y2.0170Z-0.0432
X8.6636Y2.0017Z-0.0263
X8.6560Y1.9941Z-0.0207
X8.6407Y1.9788Z-0.0179
X8.6254Y1.9635Z-0.0177
X8.6101Y1.9482Z-0.0114
X8.5796Y1.9176Z-0.0088
X8.5337Y1.8717Z-0.0090
X8.4725Y1.8106Z-0.0104
X8.4190Y1.7571Z-0.0106
X8.3961Y1.7341Z-0.0150
X8.3808Y1.7188Z-0.0159
X8.3579Y1.6959Z-0.0114
X8.3273Y1.6653Z-0.0120
X8.3120Y1.6500Z-0.0136
X8.2967Y1.6348Z-0.0119
X8.2738Y1.6118Z-0.0120
X8.2355Y1.5736Z-0.0122
X8.2126Y1.5507Z-0.0165
X8.1973Y1.5354Z-0.0248
X8.1897Y1.5277Z-0.0311
X8.1744Y1.5124Z-0.0210
X8.1667Y1.5048Z-0.0179
X8.1591Y1.4971Z-0.0191
X8.1362Y1.4742Z-0.0137
X8.1209Y1.4589Z-0.0157
X8.1132Y1.4513Z-0.0180
X8.0903Y1.4283Z-0.0122
X8.0597Y1.3978Z-0.0098
X8.0444Y1.3825Z-0.0109
X7.9986Y1.3366Z-0.0097
X7.9603Y1.2984Z-0.0080
X7.9374Y1.2754Z-0.0107
X7.8915Y1.2296Z-0.0086
X7.8533Y1.1914Z-0.0136
X7.8074Y1.1455Z-0.0352
X7.7921Y1.1302Z-0.0500
X7.7845Y1.1226Z-0.0541
X7.7769Y1.1149Z-0.0558
X7.7616Y1.0996Z-0.0562
X7.7539Y1.0920Z-0.0567
X7.7463Y1.0843Z-0.0543
X7.7310Y1.0690Z-0.0559
X7.7233Y1.0614Z-0.0594
X7.7157Y1.0537Z-0.0602
X7.6698Y1.0079Z-0.0462
X7.6545Y0.9926Z-0.0429
X7.6469Y0.9849Z-0.0405
X7.6316Y0.9697Z-0.0210
X7.6240Y0.9620Z-0.0145
X7.5934Y0.9314Z-0.0076
X7.5704Y0.9085Z-0.0089
X7.5399Y0.8779Z-0.0048
X7.4864Y0.8244Z-0.0059
X7.4481Y0.7862Z-0.0054
X7.4328Y0.7709Z-0.0042
X7.3946Y0.7327Z-0.0050
X7.3564Y0.6944Z-0.0054
X7.3335Y0.6715Z-0.0064
X7.3105Y0.6486Z-0.0049
X7.2035Y0.5415Z-0.0071
X7.0582Y0.3963Z-0.0134
X7.0430Y0.3810Z-0.0167
X7.0200Y0.3581Z-0.0256
X7.0047Y0.3428Z-0.0286
X6.9894Y0.3275Z-0.0285
X6.9742Y0.3122Z-0.0429
X6.9665Y0.3046Z-0.0479
X6.9512Y0.2893Z-0.0455
X6.9206Y0.2587Z-0.0362
X6.9130Y0.2510Z-0.0357
X6.8901Y0.2281Z-0.0532
X6.8824Y0.2205Z-0.0554
X6.8671Y0.2052Z-0.0526
X6.8518Y0.1899Z-0.0446
X6.8442Y0.1822Z-0.0428
X6.8365Y0.1746Z-0.0442
X6.8213Y0.1593Z-0.0559
X6.8136Y0.1517Z-0.0591
X6.8060Y0.1440Z-0.0591
X6.7830Y0.1211Z-0.0675
X6.7525Y0.0905Z-0.0629
X6.7372Y0.0752Z-0.0640
X6.7219Y0.0599Z-0.0639
X6.7066Y0.0446Z-0.0683
X6.6913Y0.0293Z-0.0617
X6.6836Y0.0217Z-0.0611
X6.6684Y0.0064Z-0.0660
Z0.1500
X6.3855Y0.0064
G1Z-0.0589F100.0
G1X6.3932Y0.0141Z-0.0673F150.0
X6.4008Y0.0217Z-0.0693
X6.4314Y0.0523Z-0.0684
X6.4467Y0.0676Z-0.0642
X6.4543Y0.0752Z-0.0585
X6.4696Y0.0905Z-0.0425
X6.4773Y0.0981Z-0.0382
X6.5078Y0.1287Z-0.0342
X6.5155Y0.1364Z-0.0366
X6.5308Y0.1517Z-0.0485
X6.5384Y0.1593Z-0.0464
X6.5461Y0.1670Z-0.0414
X6.5843Y0.2052Z-0.0315
X6.5996Y0.2205Z-0.0352
X6.6149Y0.2358Z-0.0535
X6.6225Y0.2434Z-0.0584
X6.6531Y0.2740Z-0.0656
X6.6684Y0.2893Z-0.0657
X6.6837Y0.3046Z-0.0600
X6.7066Y0.3275Z-0.0425
X6.7219Y0.3428Z-0.0338
X6.7372Y0.3581Z-0.0208
X6.7448Y0.3657Z-0.0177
X6.7678Y0.3886Z-0.0180
X6.7754Y0.3963Z-0.0159
X6.7907Y0.4116Z-0.0171
X6.8289Y0.4498Z-0.0112
X6.8518Y0.4727Z-0.0110
X6.8748Y0.4957Z-0.0111
X6.8977Y0.5186Z-0.0091
X6.9589Y0.5798Z-0.0084
X6.9971Y0.6180Z-0.0073
X7.0506Y0.6715Z-0.0067
X7.0583Y0.6791Z-0.0085
X7.0888Y0.7097Z-0.0047
X7.1576Y0.7785Z-0.0055
X7.1729Y0.7938Z-0.0043
X7.2417Y0.8626Z-0.0056
X7.3105Y0.9314Z-0.0066
X7.3488Y0.9697Z-0.0101
X7.3640Y0.9849Z-0.0134
X7.3870Y1.0079Z-0.0237
X7.4023Y1.0232Z-0.0396
X7.4099Y1.0308Z-0.0431
X7.4558Y1.0767Z-0.0367
X7.4634Y1.0843Z-0.0302
X7.4711Y1.0920Z-0.0212
X7.4787Y1.0996Z-0.0159
X7.4864Y1.1073Z-0.0146
X7.5017Y1.1225Z-0.0191
X7.5246Y1.1455Z-0.0164
X7.5399Y1.1608Z-0.0196
X7.5628Y1.1837Z-0.0140
X7.5934Y1.2143Z-0.0116
X7.6087Y1.2296Z-0.0110
X7.6775Y1.2984Z-0.0118
X7.7157Y1.3366Z-0.0088
X7.7769Y1.3978Z-0.0115
X7.7998Y1.4207Z-0.0134
X7.8074Y1.4283Z-0.0166
X7.8227Y1.4436Z-0.0298
X7.8610Y1.4818Z-0.0327
X7.8686Y1.4895Z-0.0304
X7.8839Y1.5048Z-0.0323
X7.9068Y1.5277Z-0.0318
X7.9145Y1.5354Z-0.0356
X7.9221Y1.5430Z-0.0373
X7.9450Y1.5659Z-0.0318
X7.9756Y1.5965Z-0.0379
X7.9909Y1.6118Z-0.0457
X7.9986Y1.6195Z-0.0480
X8.0139Y1.6347Z-0.0436
X8.0444Y1.6653Z-0.0338
X8.0597Y1.6806Z-0.0357
X8.0674Y1.6883Z-0.0348
X8.0827Y1.7035Z-0.0207
X8.0979Y1.7188Z-0.0140
X8.1209Y1.7418Z-0.0140
X8.1438Y1.7647Z-0.0116
X8.1973Y1.8182Z-0.0106
X8.2203Y1.8412Z-0.0127
X8.2661Y1.8870Z-0.0099
X8.3502Y1.9711Z-0.0153
X8.3655Y1.9864Z-0.0202
X8.3808Y2.0017Z-0.0342
X8.3884Y2.0093Z-0.0343
X8.4190Y2.0399Z-0.0183
X8.4420Y2.0629Z-0.0134
X8.4725Y2.0934Z-0.0148
X8.4802Y2.1011Z-0.0165
X8.5031Y2.1240Z-0.0339
X8.5337Y2.1546Z-0.0487
X8.5413Y2.1622Z-0.0452
X8.5566Y2.1775Z-0.0276
X8.5643Y2.1852Z-0.0218
X8.5949Y2.2157Z-0.0131
X8.6331Y2.2540Z-0.0124
X8.6407Y2.2616Z-0.0132
X8.6789Y2.2998Z-0.0088
X8.7630Y2.3839Z-0.0088
X8.7783Y2.3992Z-0.0091
X8.8318Y2.4527Z-0.0092
X8.9006Y2.5215Z-0.0069
X8.9236Y2.5445Z-0.0107
X8.9542Y2.5751Z-0.0090
X8.9924Y2.6133Z-0.0069
X9.0841Y2.7050Z-0.0072
X9.1759Y2.7967Z-0.0079
X9.2064Y2.8273Z-0.0079
X9.2676Y2.8885Z-0.0065
X9.2905Y2.9114Z-0.0085
X9.3517Y2.9726Z-0.0067
X9.3899Y3.0108Z-0.0085
X9.4358Y3.0567Z-0.0097
X9.4740Y3.0949Z-0.0095
X9.4969Y3.1178Z-0.0063
X9.5199Y3.1408Z-0.0083
X9.5581Y3.1790Z-0.0056
X9.5887Y3.2096Z-0.0048
X9.6422Y3.2631Z-0.0056
X9.7033Y3.3242Z-0.0043
X9.7263Y3.3472Z-0.0050
X9.8104Y3.4313Z-0.0046
X9.8562Y3.4771Z-0.0067
X9.9098Y3.5306Z-0.0054
X9.9480Y3.5689Z-0.0049
X9.9786Y3.5994Z-0.0049
X10.0015Y3.6224Z-0.0061
X10.0244Y3.6453Z-0.0056
X10.0703Y3.6912Z-0.0077
X10.0932Y3.7141Z-0.0053
X10.1009Y3.7218Z-0.0032
X10.1162Y3.7371Z-0.0054
X10.1315Y3.7523Z-0.0025
X10.1773Y3.7982Z-0.0029
X10.2003Y3.8211Z-0.0044
X10.2155Y3.8364Z-0.0028
X10.3531Y3.9740Z-0.0034
X10.3608Y3.9817Z-0.0043
X10.3684Y3.9893Z-0.0075
X10.3914Y4.0123Z-0.0043
X10.4525Y4.0734Z-0.0068
X10.4908Y4.1116Z-0.0087
X10.5290Y4.1499Z-0.0191
X10.5443Y4.1652Z-0.0240
X10.5596Y4.1805Z-0.0224
X10.7277Y4.3486Z-0.0234
X10.7660Y4.3869Z-0.0235
X10.8501Y4.4710Z-0.0259
X10.8653Y4.4862Z-0.0262
Z0.1500
X10.8653Y4.7691
G1Z-0.0283F100.0
G1X10.8118Y4.7156Z-0.0271F150.0
X10.7660Y4.6697Z-0.0279
X10.7277Y4.6315Z-0.0309
X10.6666Y4.5703Z-0.0274
X10.6437Y4.5474Z-0.0289
X10.5137Y4.4174Z-0.0265
X10.4220Y4.3257Z-0.0228
X10.4143Y4.3180Z-0.0210
X10.3990Y4.3028Z-0.0119
X10.3837Y4.2875Z-0.0086
X10.3226Y4.2263Z-0.0048
X10.2843Y4.1881Z-0.0040
X10.2538Y4.1575Z-0.0032
X10.2308Y4.1346Z-0.0046
X10.1850Y4.0887Z-0.0021
X10.1467Y4.0505Z-0.0040
X10.0932Y3.9970Z-0.0059
X9.9786Y3.8823Z-0.0049
X9.9403Y3.8441Z-0.0057
X9.9327Y3.8364Z-0.0072
X9.9174Y3.8211Z-0.0043
X9.7416Y3.6453Z-0.0059
X9.6498Y3.5536Z-0.0065
X9.6269Y3.5306Z-0.0038
X9.5581Y3.4618Z-0.0066
X9.5352Y3.4389Z-0.0052
X9.4893Y3.3930Z-0.0104
X9.4587Y3.3624Z-0.0124
X9.4128Y3.3166Z-0.0103
X9.4052Y3.3089Z-0.0113
X9.3976Y3.3013Z-0.0151
X9.3823Y3.2860Z-0.0348
X9.3746Y3.2784Z-0.0384
X9.3517Y3.2554Z-0.0440
X9.3364Y3.2401Z-0.0440
X9.3211Y3.2248Z-0.0386
X9.3135Y3.2172Z-0.0321
X9.3058Y3.2096Z-0.0305
X9.2829Y3.1866Z-0.0365
X9.2600Y3.1637Z-0.0334
X9.2523Y3.1560Z-0.0310
X9.2370Y3.1408Z-0.0213
X9.2217Y3.1255Z-0.0200
X9.1912Y3.0949Z-0.0107
X9.1376Y3.0414Z-0.0072
X9.0994Y3.0031Z-0.0077
X9.0459Y2.9496Z-0.0071
X9.0230Y2.9267Z-0.0097
X8.9924Y2.8961Z-0.0091
X8.9695Y2.8732Z-0.0086
X8.9542Y2.8579Z-0.0076
X8.9159Y2.8197Z-0.0112
X8.8777Y2.7814Z-0.0069
X8.8471Y2.7509Z-0.0100
X8.8013Y2.7050Z-0.0064
X8.7783Y2.6821Z-0.0084
X8.7554Y2.6591Z-0.0062
X8.7095Y2.6133Z-0.0078
X8.6713Y2.5750Z-0.0089
X8.6331Y2.5368Z-0.0078
X8.4878Y2.3916Z-0.0097
X8.4649Y2.3686Z-0.0084
X8.4190Y2.3228Z-0.0096
X8.3197Y2.2234Z-0.0133
X8.3044Y2.2081Z-0.0149
X8.2738Y2.1775Z-0.0276
X8.2661Y2.1699Z-0.0342
X8.2508Y2.1546Z-0.0511
X8.2432Y2.1469Z-0.0534
X8.2356Y2.1393Z-0.0530
X8.2279Y2.1316Z-0.0546
X8.2126Y2.1164Z-0.0615
X8.2050Y2.1087Z-0.0596
X8.1897Y2.0934Z-0.0521
X8.1744Y2.0781Z-0.0548
X8.1668Y2.0705Z-0.0521
X8.1591Y2.0628Z-0.0516
X8.1438Y2.0476Z-0.0541
X8.1285Y2.0323Z-0.0479
X8.1132Y2.0170Z-0.0485
X8.1056Y2.0093Z-0.0439
X8.0980Y2.0017Z-0.0345
X8.0903Y1.9940Z-0.0277
X8.0674Y1.9711Z-0.0160
X8.0444Y1.9482Z-0.0123
X7.9833Y1.8870Z-0.0109
X7.9603Y1.8641Z-0.0122
X7.9221Y1.8259Z-0.0125
X7.9068Y1.8106Z-0.0129
X7.8915Y1.7953Z-0.0135
X7.8686Y1.7723Z-0.0183
X7.8610Y1.7647Z-0.0216
X7.8457Y1.7494Z-0.0371
X7.8380Y1.7418Z-0.0381
X7.8304Y1.7341Z-0.0351
X7.7845Y1.6883Z-0.0448
X7.7692Y1.6730Z-0.0432
X7.7539Y1.6577Z-0.0339
X7.7463Y1.6500Z-0.0263
X7.7387Y1.6424Z-0.0212
X7.7234Y1.6271Z-0.0172
X7.6928Y1.5965Z-0.0156
X7.6622Y1.5659Z-0.0260
X7.6469Y1.5506Z-0.0331
X7.6316Y1.5354Z-0.0292
X7.6240Y1.5277Z-0.0290
X7.6087Y1.5124Z-0.0345
X7.5934Y1.4971Z-0.0360
X7.5858Y1.4895Z-0.0390
X7.5781Y1.4818Z-0.0400
X7.5246Y1.4283Z-0.0140
X7.5093Y1.4130Z-0.0108
X7.4405Y1.3442Z-0.0085
X7.3946Y1.2984Z-0.0110
X7.3564Y1.2601Z-0.0132
X7.3411Y1.2449Z-0.0189
X7.3182Y1.2219Z-0.0210
X7.2953Y1.1990Z-0.0306
X7.2876Y1.1913Z-0.0359
X7.2723Y1.1761Z-0.0510
X7.2570Y1.1608Z-0.0548
X7.2417Y1.1455Z-0.0552
X7.2341Y1.1378Z-0.0519
X7.2188Y1.1225Z-0.0346
X7.2112Y1.1149Z-0.0249
X7.2035Y1.1073Z-0.0205
X7.1959Y1.0996Z-0.0223
X7.1806Y1.0843Z-0.0380
X7.1729Y1.0767Z-0.0423
X7.1577Y1.0614Z-0.0379
X7.1500Y1.0537Z-0.0323
X7.1424Y1.0461Z-0.0242
X7.1194Y1.0232Z-0.0104
X7.0736Y0.9773Z-0.0072
X7.0124Y0.9161Z-0.0064
X6.9818Y0.8856Z-0.0039
X6.9360Y0.8397Z-0.0049
X6.8595Y0.7632Z-0.0057
X6.8289Y0.7327Z-0.0069
X6.7601Y0.6639Z-0.0072
X6.6378Y0.5415Z-0.0085
X6.6072Y0.5110Z-0.0118
X6.5767Y0.4804Z-0.0112
X6.5537Y0.4574Z-0.0145
X6.5461Y0.4498Z-0.0137
X6.5308Y0.4345Z-0.0179
X6.5078Y0.4116Z-0.0178
X6.4773Y0.3810Z-0.0248
X6.4543Y0.3581Z-0.0190
X6.4390Y0.3428Z-0.0212
X6.4161Y0.3198Z-0.0318
X6.4008Y0.3046Z-0.0315
X6.3779Y0.2816Z-0.0271
X6.3473Y0.2510Z-0.0351
X6.3397Y0.2434Z-0.0409
X6.3320Y0.2358Z-0.0503
X6.3167Y0.2205Z-0.0601
X6.2862Y0.1899Z-0.0690
X6.2785Y0.1822Z-0.0695
X6.2709Y0.1746Z-0.0675
X6.2632Y0.1669Z-0.0618
X6.2479Y0.1517Z-0.0439
X6.2403Y0.1440Z-0.0384
X6.2326Y0.1364Z-0.0366
X6.2097Y0.1134Z-0.0476
X6.1868Y0.0905Z-0.0495
X6.1715Y0.0752Z-0.0474
X6.1562Y0.0599Z-0.0527
X6.1333Y0.0370Z-0.0683
X6.1256Y0.0293Z-0.0694
X6.1180Y0.0217Z-0.0674
X6.1027Y0.0064Z-0.0693
Z0.1500
X5.8198Y0.0064
G1Z-0.0478F100.0
G1X5.8275Y0.0141Z-0.0449F150.0
X5.8351Y0.0217Z-0.0441
X5.8428Y0.0293Z-0.0454
X5.8581Y0.0446Z-0.0573
X5.8657Y0.0523Z-0.0607
X5.8734Y0.0599Z-0.0607
X5.8963Y0.0829Z-0.0550
X5.9039Y0.0905Z-0.0500
X5.9116Y0.0981Z-0.0489
X5.9192Y0.1058Z-0.0500
X5.9269Y0.1134Z-0.0592
X5.9345Y0.1211Z-0.0644
X5.9498Y0.1364Z-0.0656
X5.9651Y0.1517Z-0.0718
X5.9804Y0.1669Z-0.0736
X5.9957Y0.1822Z-0.0690
X6.0262Y0.2128Z-0.0684
X6.0415Y0.2281Z-0.0649
X6.0568Y0.2434Z-0.0682
X6.0645Y0.2510Z-0.0682
X6.0721Y0.2587Z-0.0657
X6.1103Y0.2969Z-0.0662
X6.1256Y0.3122Z-0.0700
X6.1409Y0.3275Z-0.0647
X6.1791Y0.3657Z-0.0619
X6.1944Y0.3810Z-0.0574
X6.2021Y0.3886Z-0.0518
X6.2097Y0.3963Z-0.0406
X6.2250Y0.4116Z-0.0250
X6.2327Y0.4192Z-0.0201
X6.2479Y0.4345Z-0.0169
X6.2632Y0.4498Z-0.0164
X6.2709Y0.4574Z-0.0189
X6.2785Y0.4651Z-0.0239
X6.2862Y0.4727Z-0.0252
X6.3015Y0.4880Z-0.0157
X6.3244Y0.5110Z-0.0117
X6.3932Y0.5798Z-0.0088
X6.4161Y0.6027Z-0.0075
X6.4773Y0.6639Z-0.0062
X6.5232Y0.7097Z-0.0077
X6.5461Y0.7327Z-0.0068
X6.6225Y0.8091Z-0.0052
X6.6455Y0.8320Z-0.0035
X6.6608Y0.8473Z-0.0040
X6.7448Y0.9314Z-0.0059
X6.7831Y0.9696Z-0.0065
X6.8289Y1.0155Z-0.0100
X6.8595Y1.0461Z-0.0145
X6.8672Y1.0537Z-0.0190
X6.8825Y1.0690Z-0.0386
X6.8901Y1.0767Z-0.0418
X6.9054Y1.0920Z-0.0374
X6.9283Y1.1149Z-0.0211
X6.9436Y1.1302Z-0.0188
X6.9589Y1.1455Z-0.0131
X6.9971Y1.1837Z-0.0080
X7.0201Y1.2066Z-0.0079
X7.0430Y1.2296Z-0.0084
X7.0812Y1.2678Z-0.0056
X7.1271Y1.3137Z-0.0067
X7.1653Y1.3519Z-0.0056
X7.2723Y1.4589Z-0.0058
X7.3258Y1.5124Z-0.0067
X7.3717Y1.5583Z-0.0105
X7.3946Y1.5812Z-0.0173
X7.4176Y1.6042Z-0.0317
X7.4329Y1.6194Z-0.0379
X7.4482Y1.6347Z-0.0310
X7.4711Y1.6577Z-0.0364
X7.4864Y1.6730Z-0.0362
X7.4940Y1.6806Z-0.0381
X7.5017Y1.6882Z-0.0368
X7.5093Y1.6959Z-0.0297
X7.5170Y1.7035Z-0.0268
X7.5399Y1.7265Z-0.0307
X7.5628Y1.7494Z-0.0323
X7.5705Y1.7570Z-0.0280
X7.5781Y1.7647Z-0.0198
X7.5858Y1.7723Z-0.0147
X7.6011Y1.7876Z-0.0119
X7.6316Y1.8182Z-0.0108
X7.6699Y1.8564Z-0.0128
X7.7004Y1.8870Z-0.0119
X7.7234Y1.9099Z-0.0146
X7.7463Y1.9329Z-0.0125
X7.7616Y1.9482Z-0.0124
X7.7845Y1.9711Z-0.0179
X7.7998Y1.9864Z-0.0166
X7.8075Y1.9940Z-0.0194
X7.8304Y2.0170Z-0.0452
X7.8380Y2.0246Z-0.0505
X7.8686Y2.0552Z-0.0567
X7.8839Y2.0705Z-0.0552
X7.8916Y2.0781Z-0.0500
X7.9068Y2.0934Z-0.0344
X7.9145Y2.1011Z-0.0296
X7.9298Y2.1164Z-0.0262
X7.9374Y2.1240Z-0.0269
X7.9451Y2.1316Z-0.0310
X7.9527Y2.1393Z-0.0415
X7.9604Y2.1469Z-0.0439
X7.9756Y2.1622Z-0.0285
X7.9833Y2.1699Z-0.0271
X8.0062Y2.1928Z-0.0144
X8.0368Y2.2234Z-0.0115
X8.1285Y2.3151Z-0.0093
X8.1591Y2.3457Z-0.0106
X8.2432Y2.4298Z-0.0086
X8.2967Y2.4833Z-0.0086
X8.3579Y2.5445Z-0.0082
X8.4573Y2.6438Z-0.0101
X8.4649Y2.6515Z-0.0112
X8.4802Y2.6668Z-0.0089
X8.5108Y2.6973Z-0.0099
X8.5719Y2.7585Z-0.0080
X8.6102Y2.7967Z-0.0071
X8.6254Y2.8120Z-0.0088
X8.6637Y2.8502Z-0.0082
X8.6943Y2.8808Z-0.0097
X8.7172Y2.9038Z-0.0069
X8.7707Y2.9573Z-0.0069
X8.7936Y2.9802Z-0.0076
X8.8471Y3.0337Z-0.0070
X8.8701Y3.0567Z-0.0094
X8.8930Y3.0796Z-0.0083
X8.9312Y3.1178Z-0.0109
X8.9618Y3.1484Z-0.0214
X8.9847Y3.1713Z-0.0363
X8.9924Y3.1790Z-0.0403
X9.0153Y3.2019Z-0.0456
X9.0459Y3.2325Z-0.0390
X9.0536Y3.2401Z-0.0387
X9.0612Y3.2478Z-0.0343
X9.0765Y3.2631Z-0.0190
X9.0841Y3.2707Z-0.0150
X9.1300Y3.3166Z-0.0121
X9.1453Y3.3319Z-0.0132
X9.1529Y3.3395Z-0.0104
X9.2141Y3.4007Z-0.0109
X9.2217Y3.4083Z-0.0118
X9.2370Y3.4236Z-0.0101
X9.2600Y3.4465Z-0.0110
X9.2752Y3.4618Z-0.0200
X9.2982Y3.4848Z-0.0466
X9.3058Y3.4924Z-0.0507
X9.3135Y3.5000Z-0.0514
X9.3288Y3.5153Z-0.0466
X9.3517Y3.5383Z-0.0495
X9.3746Y3.5612Z-0.0467
X9.3823Y3.5688Z-0.0392
X9.3976Y3.5841Z-0.0198
X9.4052Y3.5918Z-0.0157
X9.4281Y3.6147Z-0.0138
X9.4434Y3.6300Z-0.0159
X9.4740Y3.6606Z-0.0431
X9.4817Y3.6682Z-0.0439
X9.5122Y3.6988Z-0.0231
X9.5199Y3.7065Z-0.0156
X9.5352Y3.7217Z-0.0103
X9.6116Y3.7982Z-0.0066
X9.7263Y3.9129Z-0.0052
X9.7874Y3.9740Z-0.0049
X9.8486Y4.0352Z-0.0062
X9.8639Y4.0505Z-0.0052
X9.8715Y4.0581Z-0.0064
X9.9327Y4.1193Z-0.0036
X9.9633Y4.1498Z-0.0047
X10.0474Y4.2339Z-0.0041
X10.0779Y4.2645Z-0.0047
X10.1544Y4.3410Z-0.0073
X10.2003Y4.3868Z-0.0121
X10.2691Y4.4556Z-0.0114
X10.2844Y4.4709Z-0.0135
X10.2996Y4.4862Z-0.0248
X10.3073Y4.4939Z-0.0280
X10.4449Y4.6315Z-0.0299
X10.5901Y4.7767Z-0.0294
X10.6437Y4.8302Z-0.0313
X10.7125Y4.8990Z-0.0281
X10.8653Y5.0519Z-0.0292
Z0.1500
X10.8654Y5.3348
G1Z-0.0370F100.0
G1X10.8424Y5.3118Z-0.0362F150.0
X10.7507Y5.2201Z-0.0331
X10.7125Y5.1819Z-0.0313
X10.6895Y5.1589Z-0.0319
X10.6589Y5.1284Z-0.0296
X10.5825Y5.0519Z-0.0332
X10.5137Y4.9831Z-0.0303
X10.4678Y4.9372Z-0.0314
X10.4143Y4.8837Z-0.0325
X10.3684Y4.8379Z-0.0333
X10.3302Y4.7996Z-0.0325
X10.2614Y4.7308Z-0.0322
X10.2308Y4.7003Z-0.0313
X10.2079Y4.6773Z-0.0314
X10.2003Y4.6697Z-0.0299
X10.1697Y4.6391Z-0.0136
X10.1162Y4.5856Z-0.0108
X10.0703Y4.5397Z-0.0078
X10.0244Y4.4938Z-0.0057
X9.9556Y4.4250Z-0.0041
X9.9174Y4.3868Z-0.0047
X9.8333Y4.3027Z-0.0050
X9.7798Y4.2492Z-0.0047
X9.7339Y4.2033Z-0.0035
X9.6804Y4.1498Z-0.0047
X9.6498Y4.1193Z-0.0041
X9.6346Y4.1040Z-0.0055
X9.5887Y4.0581Z-0.0058
X9.5428Y4.0122Z-0.0076
X9.5122Y3.9817Z-0.0111
X9.4970Y3.9664Z-0.0162
X9.4893Y3.9587Z-0.0151
X9.4740Y3.9434Z-0.0213
X9.4664Y3.9358Z-0.0213
X9.4511Y3.9205Z-0.0157
X9.4358Y3.9052Z-0.0142
X9.4205Y3.8899Z-0.0220
X9.4129Y3.8823Z-0.0231
X9.3976Y3.8670Z-0.0177
X9.3823Y3.8517Z-0.0167
X9.3746Y3.8440Z-0.0187
X9.3670Y3.8364Z-0.0184
X9.3593Y3.8288Z-0.0152
X9.3288Y3.7982Z-0.0142
X9.3211Y3.7905Z-0.0157
X9.3135Y3.7829Z-0.0205
X9.3058Y3.7752Z-0.0280
X9.2982Y3.7676Z-0.0300
X9.2905Y3.7600Z-0.0363
X9.2829Y3.7523Z-0.0384
X9.2753Y3.7447Z-0.0330
X9.2676Y3.7370Z-0.0298
X9.2600Y3.7294Z-0.0300
X9.2447Y3.7141Z-0.0480
X9.2294Y3.6988Z-0.0450
X9.2141Y3.6835Z-0.0367
X9.1988Y3.6682Z-0.0257
X9.1912Y3.6606Z-0.0317
X9.1835Y3.6529Z-0.0424
X9.1759Y3.6453Z-0.0467
X9.1606Y3.6300Z-0.0450
X9.1453Y3.6147Z-0.0343
X9.1300Y3.5994Z-0.0196
X9.1071Y3.5765Z-0.0133
X9.0688Y3.5383Z-0.0105
X9.0536Y3.5230Z-0.0114
X9.0230Y3.4924Z-0.0123
X9.0000Y3.4695Z-0.0116
X8.9465Y3.4159Z-0.0141
X8.9160Y3.3854Z-0.0136
X8.9083Y3.3777Z-0.0182
X8.9007Y3.3701Z-0.0273
X8.8930Y3.3624Z-0.0320
X8.8624Y3.3319Z-0.0260
X8.8548Y3.3242Z-0.0231
X8.8472Y3.3166Z-0.0247
X8.8319Y3.3013Z-0.0388
X8.8242Y3.2936Z-0.0405
X8.7936Y3.2630Z-0.0296
X8.7860Y3.2554Z-0.0235
X8.7783Y3.2478Z-0.0215
X8.7707Y3.2401Z-0.0258
X8.7631Y3.2325Z-0.0338
X8.7554Y3.2248Z-0.0354
X8.7401Y3.2095Z-0.0328
X8.7248Y3.1942Z-0.0241
X8.7172Y3.1866Z-0.0227
X8.7095Y3.1790Z-0.0263
X8.7019Y3.1713Z-0.0338
X8.6943Y3.1637Z-0.0370
X8.6790Y3.1484Z-0.0355
X8.6560Y3.1254Z-0.0350
X8.6407Y3.1102Z-0.0266
X8.6255Y3.0949Z-0.0160
X8.5643Y3.0337Z-0.0096
X8.4955Y2.9649Z-0.0087
X8.4573Y2.9267Z-0.0087
X8.3961Y2.8655Z-0.0118
X8.3655Y2.8349Z-0.0076
X8.3197Y2.7891Z-0.0081
X8.2967Y2.7661Z-0.0075
X8.2585Y2.7279Z-0.0089
X8.0674Y2.5368Z-0.0097
X7.9680Y2.4374Z-0.0116
X7.8686Y2.3380Z-0.0116
X7.7769Y2.2463Z-0.0120
X7.7234Y2.1928Z-0.0126
X7.6546Y2.1240Z-0.0118
X7.6240Y2.0934Z-0.0102
X7.6087Y2.0781Z-0.0088
X7.5628Y2.0323Z-0.0088
X7.5476Y2.0170Z-0.0079
X7.5017Y1.9711Z-0.0078
X7.4558Y1.9252Z-0.0070
X7.4099Y1.8794Z-0.0074
X7.3411Y1.8106Z-0.0068
X7.3106Y1.7800Z-0.0067
X7.2800Y1.7494Z-0.0083
X7.2647Y1.7341Z-0.0062
X7.2112Y1.6806Z-0.0068
X7.0965Y1.5659Z-0.0059
X7.0201Y1.4895Z-0.0063
X7.0124Y1.4818Z-0.0082
X6.9818Y1.4513Z-0.0044
X6.8442Y1.3137Z-0.0065
X6.8213Y1.2907Z-0.0074
X6.7831Y1.2525Z-0.0078
X6.7219Y1.1913Z-0.0059
X6.6990Y1.1684Z-0.0069
X6.6761Y1.1455Z-0.0061
X6.6531Y1.1225Z-0.0091
X6.6455Y1.1149Z-0.0120
X6.6378Y1.1072Z-0.0171
X6.6302Y1.0996Z-0.0191
X6.6149Y1.0843Z-0.0121
X6.5767Y1.0461Z-0.0073
X6.5537Y1.0232Z-0.0089
X6.5308Y1.0002Z-0.0061
X6.4620Y0.9314Z-0.0060
X6.4391Y0.9085Z-0.0069
X6.3932Y0.8626Z-0.0070
X6.3550Y0.8244Z-0.0061
X6.3168Y0.7862Z-0.0076
X6.2709Y0.7403Z-0.0065
X6.2097Y0.6791Z-0.0112
X6.1868Y0.6562Z-0.0083
X6.1409Y0.6103Z-0.0121
X6.1333Y0.6027Z-0.0120
X6.1103Y0.5798Z-0.0178
X6.0951Y0.5645Z-0.0136
X6.0263Y0.4957Z-0.0175
X5.9957Y0.4651Z-0.0207
X5.9804Y0.4498Z-0.0187
X5.9575Y0.4269Z-0.0214
X5.9345Y0.4039Z-0.0301
X5.9116Y0.3810Z-0.0307
X5.9039Y0.3734Z-0.0338
X5.8734Y0.3428Z-0.0571
X5.8581Y0.3275Z-0.0613
X5.8351Y0.3046Z-0.0648
X5.8046Y0.2740Z-0.0619
X5.7893Y0.2587Z-0.0555
X5.7587Y0.2281Z-0.0331
X5.7510Y0.2205Z-0.0299
X5.7205Y0.1899Z-0.0301
X5.7128Y0.1822Z-0.0324
X5.6975Y0.1669Z-0.0403
X5.6822Y0.1517Z-0.0481
X5.6593Y0.1287Z-0.0659
X5.6364Y0.1058Z-0.0690
X5.6211Y0.0905Z-0.0651
X5.6058Y0.0752Z-0.0671
X5.5982Y0.0676Z-0.0652
X5.5752Y0.0446Z-0.0426
X5.5370Y0.0064Z-0.0334
Z0.1500
X5.2542Y0.0064
G1Z-0.0302F100.0
G1X5.2694Y0.0217Z-0.0332F150.0
X5.2847Y0.0370Z-0.0436
X5.3077Y0.0599Z-0.0684
X5.3153Y0.0676Z-0.0724
X5.3765Y0.1287Z-0.0746
X5.4071Y0.1593Z-0.0651
X5.4223Y0.1746Z-0.0673
X5.4376Y0.1899Z-0.0660
X5.4682Y0.2205Z-0.0589
X5.4759Y0.2281Z-0.0595
X5.4988Y0.2510Z-0.0672
X5.5523Y0.3046Z-0.0640
X5.5752Y0.3275Z-0.0575
X5.5829Y0.3351Z-0.0562
X5.5982Y0.3504Z-0.0469
X5.6058Y0.3581Z-0.0444
X5.6287Y0.3810Z-0.0546
X5.6364Y0.3886Z-0.0562
X5.6593Y0.4116Z-0.0432
X5.6823Y0.4345Z-0.0492
X5.7052Y0.4574Z-0.0480
X5.7281Y0.4804Z-0.0358
X5.7358Y0.4880Z-0.0341
X5.7587Y0.5110Z-0.0340
X5.7893Y0.5415Z-0.0194
X5.8504Y0.6027Z-0.0151
X5.8963Y0.6486Z-0.0150
X5.9192Y0.6715Z-0.0149
X5.9498Y0.7021Z-0.0105
X5.9804Y0.7327Z-0.0117
X6.0416Y0.7938Z-0.0109
X6.0568Y0.8091Z-0.0107
X6.0798Y0.8320Z-0.0075
X6.1180Y0.8703Z-0.0097
X6.1562Y0.9085Z-0.0075
X6.2097Y0.9620Z-0.0070
X6.2327Y0.9849Z-0.0115
X6.2556Y1.0079Z-0.0067
X6.2938Y1.0461Z-0.0067
X6.3397Y1.0920Z-0.0093
X6.3550Y1.1072Z-0.0150
X6.3703Y1.1225Z-0.0272
X6.4085Y1.1608Z-0.0472
X6.4391Y1.1913Z-0.0529
X6.4544Y1.2066Z-0.0500
X6.4620Y1.2143Z-0.0467
X6.4697Y1.2219Z-0.0402
X6.4850Y1.2372Z-0.0229
X6.4926Y1.2448Z-0.0177
X6.5079Y1.2601Z-0.0130
X6.5996Y1.3519Z-0.0059
X6.6684Y1.4207Z-0.0060
X6.7449Y1.4971Z-0.0080
X6.8060Y1.5583Z-0.0069
X6.8901Y1.6424Z-0.0055
X6.9054Y1.6577Z-0.0076
X6.9589Y1.7112Z-0.0057
X7.0507Y1.8029Z-0.0064
X7.0812Y1.8335Z-0.0069
X7.1271Y1.8794Z-0.0066
X7.1577Y1.9099Z-0.0062
X7.2265Y1.9787Z-0.0072
X7.2571Y2.0093Z-0.0082
X7.2724Y2.0246Z-0.0089
X7.2953Y2.0475Z-0.0069
X7.4252Y2.1775Z-0.0077
X7.4558Y2.2081Z-0.0074
X7.4864Y2.2387Z-0.0076
X7.5323Y2.2845Z-0.0070
X7.5858Y2.3380Z-0.0060
X7.6393Y2.3915Z-0.0055
X7.7081Y2.4604Z-0.0060
X7.7998Y2.5521Z-0.0055
X7.8686Y2.6209Z-0.0052
X7.8916Y2.6438Z-0.0060
X7.9221Y2.6744Z-0.0083
X7.9527Y2.7050Z-0.0116
X7.9910Y2.7432Z-0.0135
X8.0292Y2.7814Z-0.0152
X8.0674Y2.8197Z-0.0262
X8.0750Y2.8273Z-0.0265
X8.0827Y2.8349Z-0.0231
X8.0980Y2.8502Z-0.0131
X8.1209Y2.8732Z-0.0073
X8.1515Y2.9037Z-0.0052
X8.2432Y2.9955Z-0.0044
X8.2738Y3.0261Z-0.0057
X8.3044Y3.0566Z-0.0081
X8.3197Y3.0719Z-0.0129
X8.3503Y3.1025Z-0.0360
X8.3655Y3.1178Z-0.0417
X8.3808Y3.1331Z-0.0350
X8.3885Y3.1407Z-0.0341
X8.4267Y3.1790Z-0.0488
X8.4343Y3.1866Z-0.0479
X8.4496Y3.2019Z-0.0417
X8.4573Y3.2095Z-0.0406
X8.4879Y3.2401Z-0.0455
X8.4955Y3.2478Z-0.0451
X8.5031Y3.2554Z-0.0412
X8.5184Y3.2707Z-0.0250
X8.5261Y3.2783Z-0.0192
X8.5414Y3.2936Z-0.0148
X8.5567Y3.3089Z-0.0148
X8.5719Y3.3242Z-0.0183
X8.5796Y3.3318Z-0.0181
X8.6025Y3.3548Z-0.0313
X8.6102Y3.3624Z-0.0311
X8.6331Y3.3854Z-0.0408
X8.6407Y3.3930Z-0.0426
X8.6560Y3.4083Z-0.0301
X8.6637Y3.4159Z-0.0263
X8.6866Y3.4389Z-0.0265
X8.6943Y3.4465Z-0.0284
X8.7096Y3.4618Z-0.0484
X8.7172Y3.4694Z-0.0528
X8.7325Y3.4847Z-0.0550
X8.7401Y3.4924Z-0.0585
X8.7478Y3.5000Z-0.0597
X8.7554Y3.5077Z-0.0590
X8.7707Y3.5230Z-0.0501
X8.7860Y3.5382Z-0.0305
X8.7936Y3.5459Z-0.0253
X8.8089Y3.5612Z-0.0246
X8.8242Y3.5765Z-0.0271
X8.8319Y3.5841Z-0.0302
X8.8472Y3.5994Z-0.0448
X8.8624Y3.6147Z-0.0351
X8.8930Y3.6453Z-0.0223
X8.9007Y3.6529Z-0.0239
X8.9083Y3.6606Z-0.0292
X8.9236Y3.6759Z-0.0467
X8.9312Y3.6835Z-0.0468
X8.9389Y3.6911Z-0.0391
X8.9465Y3.6988Z-0.0339
X8.9618Y3.7141Z-0.0207
X8.9695Y3.7217Z-0.0148
X8.9848Y3.7370Z-0.0127
X9.0000Y3.7523Z-0.0153
X9.0153Y3.7676Z-0.0131
X9.0536Y3.8058Z-0.0134
X9.0689Y3.8211Z-0.0120
X9.0994Y3.8517Z-0.0150
X9.1224Y3.8746Z-0.0128
X9.1453Y3.8975Z-0.0212
X9.1529Y3.9052Z-0.0219
X9.1606Y3.9128Z-0.0256
X9.1759Y3.9281Z-0.0416
X9.1988Y3.9511Z-0.0472
X9.2141Y3.9664Z-0.0490
X9.2294Y3.9816Z-0.0441
X9.2447Y3.9969Z-0.0269
X9.2523Y4.0046Z-0.0205
X9.2600Y4.0122Z-0.0188
X9.2753Y4.0275Z-0.0204
X9.2982Y4.0504Z-0.0133
X9.3441Y4.0963Z-0.0108
X9.3823Y4.1345Z-0.0090
X9.4129Y4.1651Z-0.0115
X9.4587Y4.2110Z-0.0087
X9.5505Y4.3027Z-0.0066
X9.6498Y4.4021Z-0.0038
X9.7492Y4.5015Z-0.0056
X9.7875Y4.5397Z-0.0079
X9.8410Y4.5932Z-0.0080
X9.8639Y4.6161Z-0.0090
X9.8945Y4.6467Z-0.0094
X9.9327Y4.6850Z-0.0102
X9.9709Y4.7232Z-0.0138
X9.9786Y4.7308Z-0.0172
X9.9939Y4.7461Z-0.0313
X10.0015Y4.7538Z-0.0357
X10.0321Y4.7843Z-0.0384
X10.0856Y4.8378Z-0.0391
X10.1238Y4.8761Z-0.0393
X10.1468Y4.8990Z-0.0415
X10.2003Y4.9525Z-0.0392
X10.2844Y5.0366Z-0.0342
X10.3302Y5.0825Z-0.0378
X10.3532Y5.1054Z-0.0378
X10.3684Y5.1207Z-0.0359
X10.4067Y5.1589Z-0.0352
X10.4525Y5.2048Z-0.0368
X10.4755Y5.2277Z-0.0375
X10.4984Y5.2507Z-0.0379
X10.5137Y5.2659Z-0.0361
X10.5290Y5.2812Z-0.0384
X10.5825Y5.3347Z-0.0326
X10.6360Y5.3883Z-0.0362
X10.6666Y5.4188Z-0.0372
X10.7125Y5.4647Z-0.0439
X10.7583Y5.5106Z-0.0468
X10.7813Y5.5335Z-0.0444
X10.8577Y5.6100Z-0.0405
X10.8654Y5.6176Z-0.0392
Z0.1500
X10.8654Y5.9004
G1Z-0.0393F100.0
G1X10.8195Y5.8546Z-0.0394F150.0
X10.7660Y5.8011Z-0.0390
X10.7048Y5.7399Z-0.0403
X10.6895Y5.7246Z-0.0409
X10.6666Y5.7017Z-0.0394
X10.5443Y5.5794Z-0.0394
X10.5366Y5.5717Z-0.0386
X10.5137Y5.5488Z-0.0418
X10.4755Y5.5106Z-0.0417
X10.4525Y5.4876Z-0.0409
X10.3455Y5.3806Z-0.0384
X10.3302Y5.3653Z-0.0362
X10.2844Y5.3194Z-0.0374
X10.2614Y5.2965Z-0.0387
X10.1468Y5.1818Z-0.0398
X10.1009Y5.1360Z-0.0429
X10.0627Y5.0978Z-0.0428
X10.0321Y5.0672Z-0.0436
X10.0091Y5.0442Z-0.0423
X9.9174Y4.9525Z-0.0455
X9.8945Y4.9296Z-0.0403
X9.8180Y4.8531Z-0.0373
X9.8104Y4.8455Z-0.0354
X9.7798Y4.8149Z-0.0165
X9.7645Y4.7996Z-0.0134
X9.6957Y4.7308Z-0.0128
X9.6804Y4.7155Z-0.0187
X9.6575Y4.6926Z-0.0320
X9.6346Y4.6697Z-0.0444
X9.6269Y4.6620Z-0.0467
X9.6116Y4.6467Z-0.0566
X9.5887Y4.6238Z-0.0643
X9.5734Y4.6085Z-0.0616
X9.5658Y4.6009Z-0.0619
X9.5428Y4.5779Z-0.0303
X9.5275Y4.5626Z-0.0212
X9.5199Y4.5550Z-0.0151
X9.4893Y4.5244Z-0.0112
X9.4511Y4.4862Z-0.0093
X9.4282Y4.4632Z-0.0104
X9.4052Y4.4403Z-0.0081
X9.3058Y4.3409Z-0.0107
X9.2141Y4.2492Z-0.0104
X9.1224Y4.1575Z-0.0128
X9.0841Y4.1192Z-0.0136
X9.0612Y4.0963Z-0.0165
X9.0383Y4.0734Z-0.0138
X8.9618Y3.9969Z-0.0163
X8.9160Y3.9511Z-0.0238
X8.9007Y3.9358Z-0.0242
X8.8930Y3.9281Z-0.0259
X8.8854Y3.9205Z-0.0333
X8.8777Y3.9128Z-0.0374
X8.8624Y3.8975Z-0.0376
X8.8472Y3.8823Z-0.0438
X8.8319Y3.8670Z-0.0496
X8.8089Y3.8440Z-0.0522
X8.7860Y3.8211Z-0.0470
X8.7784Y3.8134Z-0.0447
X8.7631Y3.7982Z-0.0327
X8.7554Y3.7905Z-0.0286
X8.7401Y3.7752Z-0.0232
X8.7248Y3.7599Z-0.0179
X8.7172Y3.7523Z-0.0175
X8.7019Y3.7370Z-0.0213
X8.6790Y3.7141Z-0.0180
X8.6331Y3.6682Z-0.0231
X8.6178Y3.6529Z-0.0276
X8.5720Y3.6070Z-0.0250
X8.5567Y3.5918Z-0.0265
X8.5184Y3.5535Z-0.0172
X8.4802Y3.5153Z-0.0142
X8.4573Y3.4924Z-0.0124
X8.4420Y3.4771Z-0.0136
X8.3961Y3.4312Z-0.0100
X8.3655Y3.4006Z-0.0053
X8.2356Y3.2707Z-0.0045
X8.1439Y3.1789Z-0.0058
X8.1209Y3.1560Z-0.0064
X8.0903Y3.1254Z-0.0057
X7.9986Y3.0337Z-0.0051
X7.9757Y3.0108Z-0.0077
X7.9527Y2.9878Z-0.0165
X7.9374Y2.9725Z-0.0249
X7.9222Y2.9572Z-0.0251
X7.8839Y2.9190Z-0.0144
X7.7998Y2.8349Z-0.0112
X7.7387Y2.7738Z-0.0056
X7.5017Y2.5368Z-0.0059
X7.4864Y2.5215Z-0.0048
X7.4482Y2.4833Z-0.0066
X7.3412Y2.3763Z-0.0073
X7.2571Y2.2922Z-0.0073
X7.1806Y2.2157Z-0.0075
X7.1577Y2.1928Z-0.0072
X7.1424Y2.1775Z-0.0071
X7.0583Y2.0934Z-0.0076
X7.0124Y2.0475Z-0.0079
X6.9819Y2.0170Z-0.0066
X6.8748Y1.9099Z-0.0072
X6.8366Y1.8717Z-0.0058
X6.7907Y1.8258Z-0.0068
X6.7067Y1.7417Z-0.0050
X6.6608Y1.6959Z-0.0057
X6.6531Y1.6882Z-0.0073
X6.6073Y1.6424Z-0.0047
X6.5767Y1.6118Z-0.0050
X6.5538Y1.5889Z-0.0048
X6.5155Y1.5506Z-0.0057
X6.5002Y1.5353Z-0.0042
X6.4009Y1.4360Z-0.0067
X6.3015Y1.3366Z-0.0085
X6.2862Y1.3213Z-0.0100
X6.2709Y1.3060Z-0.0156
X6.2633Y1.2984Z-0.0168
X6.2556Y1.2907Z-0.0139
X6.2403Y1.2754Z-0.0145
X6.2250Y1.2601Z-0.0190
X6.2098Y1.2448Z-0.0161
X6.2021Y1.2372Z-0.0176
X6.1945Y1.2296Z-0.0232
X6.1792Y1.2143Z-0.0430
X6.1715Y1.2066Z-0.0448
X6.1333Y1.1684Z-0.0400
X6.1104Y1.1455Z-0.0208
X6.0798Y1.1149Z-0.0096
X6.0339Y1.0690Z-0.0092
X5.9957Y1.0308Z-0.0097
X5.9498Y0.9849Z-0.0093
X5.9040Y0.9391Z-0.0109
X5.8657Y0.9008Z-0.0085
X5.8428Y0.8779Z-0.0111
X5.8199Y0.8550Z-0.0085
X5.7740Y0.8091Z-0.0114
X5.7434Y0.7785Z-0.0123
X5.7052Y0.7403Z-0.0170
X5.6670Y0.7021Z-0.0155
X5.6364Y0.6715Z-0.0222
X5.6058Y0.6409Z-0.0221
X5.5905Y0.6256Z-0.0278
X5.5829Y0.6180Z-0.0285
X5.5600Y0.5950Z-0.0247
X5.5447Y0.5798Z-0.0262
X5.5294Y0.5645Z-0.0294
X5.5064Y0.5415Z-0.0312
X5.4912Y0.5262Z-0.0378
X5.4759Y0.5110Z-0.0519
X5.4682Y0.5033Z-0.0609
X5.4606Y0.4957Z-0.0663
X5.4453Y0.4804Z-0.0644
X5.4147Y0.4498Z-0.0720
X5.3918Y0.4269Z-0.0744
X5.3765Y0.4116Z-0.0731
X5.3535Y0.3886Z-0.0754
X5.3230Y0.3581Z-0.0688
X5.3077Y0.3428Z-0.0719
X5.2924Y0.3275Z-0.0715
X5.2695Y0.3045Z-0.0772
X5.2542Y0.2893Z-0.0762
X5.2465Y0.2816Z-0.0738
X5.2236Y0.2587Z-0.0590
X5.2159Y0.2510Z-0.0508
X5.2007Y0.2357Z-0.0456
X5.1777Y0.2128Z-0.0539
X5.1624Y0.1975Z-0.0553
X5.1471Y0.1822Z-0.0481
X5.1395Y0.1746Z-0.0460
X5.1166Y0.1517Z-0.0498
X5.1013Y0.1364Z-0.0554
X5.0936Y0.1287Z-0.0534
X5.0783Y0.1134Z-0.0444
X5.0631Y0.0981Z-0.0432
X5.0401Y0.0752Z-0.0526
X5.0325Y0.0676Z-0.0508
X5.0095Y0.0446Z-0.0361
X4.9943Y0.0293Z-0.0322
X4.9713Y0.0064Z-0.0322
Z0.1500
X4.6885Y0.0064
G1Z-0.0572F100.0
G1X4.6961Y0.0141Z-0.0573F150.0
X4.7038Y0.0217Z-0.0549
X4.7267Y0.0446Z-0.0423
X4.7496Y0.0676Z-0.0384
X4.7802Y0.0981Z-0.0313
X4.8184Y0.1364Z-0.0340
X4.8490Y0.1669Z-0.0339
X4.8719Y0.1899Z-0.0374
X4.8796Y0.1975Z-0.0399
X4.8949Y0.2128Z-0.0392
X4.9025Y0.2205Z-0.0414
X4.9178Y0.2357Z-0.0516
X4.9331Y0.2510Z-0.0626
X4.9560Y0.2740Z-0.0754
X4.9637Y0.2816Z-0.0776
X4.9943Y0.3122Z-0.0739
X5.0019Y0.3198Z-0.0694
X5.0172Y0.3351Z-0.0540
X5.0401Y0.3581Z-0.0444
X5.0554Y0.3734Z-0.0428
X5.0707Y0.3886Z-0.0433
X5.0784Y0.3963Z-0.0473
X5.0936Y0.4116Z-0.0654
X5.1013Y0.4192Z-0.0722
X5.1166Y0.4345Z-0.0769
X5.1395Y0.4574Z-0.0732
X5.1624Y0.4804Z-0.0555
X5.1854Y0.5033Z-0.0459
X5.2007Y0.5186Z-0.0454
X5.2465Y0.5645Z-0.0365
X5.2618Y0.5798Z-0.0378
X5.2924Y0.6103Z-0.0340
X5.3306Y0.6486Z-0.0354
X5.3536Y0.6715Z-0.0294
X5.3765Y0.6944Z-0.0285
X5.4147Y0.7326Z-0.0211
X5.4453Y0.7632Z-0.0221
X5.4835Y0.8015Z-0.0142
X5.5065Y0.8244Z-0.0157
X5.5370Y0.8550Z-0.0111
X5.5753Y0.8932Z-0.0117
X5.6135Y0.9314Z-0.0093
X5.6899Y1.0079Z-0.0103
X5.7052Y1.0231Z-0.0092
X5.7281Y1.0461Z-0.0109
X5.7434Y1.0614Z-0.0105
X5.7664Y1.0843Z-0.0127
X5.8122Y1.1302Z-0.0106
X5.8199Y1.1378Z-0.0118
X5.8352Y1.1531Z-0.0228
X5.8505Y1.1684Z-0.0376
X5.8581Y1.1760Z-0.0429
X5.8810Y1.1990Z-0.0473
X5.8887Y1.2066Z-0.0440
X5.8963Y1.2143Z-0.0347
X5.9040Y1.2219Z-0.0309
X5.9422Y1.2601Z-0.0503
X5.9575Y1.2754Z-0.0577
X5.9728Y1.2907Z-0.0570
X5.9957Y1.3136Z-0.0477
X6.0110Y1.3289Z-0.0459
X6.0263Y1.3442Z-0.0387
X6.0569Y1.3748Z-0.0142
X6.0951Y1.4130Z-0.0077
X6.1410Y1.4589Z-0.0058
X6.1945Y1.5124Z-0.0068
X6.3015Y1.6194Z-0.0069
X6.3550Y1.6729Z-0.0051
X6.3856Y1.7035Z-0.0059
X6.5308Y1.8488Z-0.0056
X6.7067Y2.0246Z-0.0048
X6.7372Y2.0552Z-0.0026
X6.7984Y2.1163Z-0.0078
X6.9895Y2.3074Z-0.0089
X7.0583Y2.3762Z-0.0078
X7.0889Y2.4068Z-0.0078
X7.1348Y2.4527Z-0.0072
X7.2265Y2.5444Z-0.0073
X7.2494Y2.5674Z-0.0078
X7.2571Y2.5750Z-0.0092
X7.2724Y2.5903Z-0.0062
X7.3488Y2.6667Z-0.0073
X7.3870Y2.7050Z-0.0054
X7.4176Y2.7355Z-0.0065
X7.4788Y2.7967Z-0.0056
X7.5094Y2.8273Z-0.0057
X7.5323Y2.8502Z-0.0055
X7.5476Y2.8655Z-0.0058
X7.6164Y2.9343Z-0.0063
X7.6622Y2.9802Z-0.0128
X7.7463Y3.0643Z-0.0136
X7.7769Y3.0948Z-0.0237
X7.7846Y3.1025Z-0.0253
X7.7922Y3.1101Z-0.0247
X7.8151Y3.1331Z-0.0145
X7.8381Y3.1560Z-0.0072
X7.8992Y3.2172Z-0.0066
X7.9680Y3.2860Z-0.0044
X8.0598Y3.3777Z-0.0043
X8.0827Y3.4006Z-0.0052
X8.1439Y3.4618Z-0.0061
X8.1897Y3.5077Z-0.0049
X8.2585Y3.5765Z-0.0054
X8.3885Y3.7064Z-0.0057
X8.4267Y3.7446Z-0.0051
X8.4955Y3.8134Z-0.0095
X8.5337Y3.8517Z-0.0078
X8.5567Y3.8746Z-0.0086
X8.5720Y3.8899Z-0.0081
X8.6331Y3.9510Z-0.0098
X8.6484Y3.9663Z-0.0123
X8.6713Y3.9893Z-0.0123
X8.7096Y4.0275Z-0.0156
X8.7554Y4.0734Z-0.0153
X8.8625Y4.1804Z-0.0144
X8.9465Y4.2645Z-0.0140
X9.0001Y4.3180Z-0.0124
X9.0230Y4.3409Z-0.0131
X9.0536Y4.3715Z-0.0113
X9.0765Y4.3944Z-0.0133
X9.1224Y4.4403Z-0.0120
X9.1835Y4.5015Z-0.0119
X9.2218Y4.5397Z-0.0145
X9.2447Y4.5626Z-0.0222
X9.2523Y4.5703Z-0.0231
X9.2600Y4.5779Z-0.0262
X9.2753Y4.5932Z-0.0238
X9.2829Y4.6008Z-0.0252
X9.2982Y4.6161Z-0.0216
X9.3211Y4.6391Z-0.0269
X9.3364Y4.6544Z-0.0248
X9.3594Y4.6773Z-0.0299
X9.3670Y4.6849Z-0.0347
X9.3746Y4.6926Z-0.0348
X9.3823Y4.7002Z-0.0327
X9.3899Y4.7079Z-0.0355
X9.4129Y4.7308Z-0.0675
X9.4205Y4.7384Z-0.0692
X9.4282Y4.7461Z-0.0643
X9.4434Y4.7614Z-0.0457
X9.4587Y4.7767Z-0.0398
X9.4664Y4.7843Z-0.0420
X9.4740Y4.7920Z-0.0508
X9.4817Y4.7996Z-0.0511
X9.5046Y4.8225Z-0.0381
X9.5122Y4.8302Z-0.0413
X9.5275Y4.8455Z-0.0574
X9.5352Y4.8531Z-0.0666
X9.5428Y4.8608Z-0.0627
X9.5658Y4.8837Z-0.0312
X9.5734Y4.8913Z-0.0257
X9.5963Y4.9143Z-0.0213
X9.6499Y4.9678Z-0.0242
X9.6575Y4.9754Z-0.0257
X9.6804Y4.9984Z-0.0404
X9.7492Y5.0672Z-0.0444
X9.7875Y5.1054Z-0.0437
X9.8639Y5.1818Z-0.0449
X10.0397Y5.3577Z-0.0431
X10.1085Y5.4265Z-0.0421
X10.1468Y5.4647Z-0.0436
X10.1697Y5.4876Z-0.0431
X10.1850Y5.5029Z-0.0436
X10.2003Y5.5182Z-0.0421
X10.2308Y5.5488Z-0.0434
X10.3302Y5.6482Z-0.0425
X10.4220Y5.7399Z-0.0422
X10.5137Y5.8316Z-0.0425
X10.5290Y5.8469Z-0.0410
X10.5596Y5.8775Z-0.0408
X10.6131Y5.9310Z-0.0427
X10.6589Y5.9769Z-0.0415
X10.6666Y5.9845Z-0.0400
X10.6895Y6.0075Z-0.0412
X10.7354Y6.0533Z-0.0417
X10.8195Y6.1374Z-0.0421
X10.8424Y6.1603Z-0.0431
X10.8654Y6.1833Z-0.0449
Z0.1500
X10.8651Y6.4659
G1Z-0.0406F100.0
G1X10.8192Y6.4200Z-0.0419F150.0
X10.7886Y6.3894Z-0.0397
X10.7656Y6.3664Z-0.0420
X10.6968Y6.2975Z-0.0380
X10.6126Y6.2133Z-0.0410
X10.5360Y6.1368Z-0.0419
X10.5131Y6.1138Z-0.0444
X10.4672Y6.0679Z-0.0426
X10.4289Y6.0297Z-0.0446
X10.3830Y5.9837Z-0.0428
X10.3600Y5.9608Z-0.0438
X10.3371Y5.9378Z-0.0420
X10.2758Y5.8766Z-0.0428
X10.2376Y5.8383Z-0.0420
X10.1304Y5.7312Z-0.0430
X10.0768Y5.6776Z-0.0439
X10.0080Y5.6087Z-0.0434
X9.9161Y5.5169Z-0.0475
X9.8396Y5.4404Z-0.0473
X9.8166Y5.4174Z-0.0476
X9.8090Y5.4098Z-0.0491
X9.7784Y5.3791Z-0.0469
X9.6712Y5.2720Z-0.0469
X9.6253Y5.2261Z-0.0479
X9.4876Y5.0883Z-0.0440
X9.4722Y5.0730Z-0.0322
X9.4646Y5.0654Z-0.0284
X9.4569Y5.0577Z-0.0292
X9.4416Y5.0424Z-0.0397
X9.4340Y5.0348Z-0.0462
X9.4263Y5.0271Z-0.0493
X9.4110Y5.0118Z-0.0474
X9.3881Y4.9888Z-0.0321
X9.3728Y4.9735Z-0.0256
X9.3345Y4.9353Z-0.0232
X9.3039Y4.9047Z-0.0232
X9.2809Y4.8817Z-0.0296
X9.2733Y4.8740Z-0.0337
X9.2580Y4.8587Z-0.0492
X9.2503Y4.8511Z-0.0592
X9.2427Y4.8434Z-0.0665
X9.2273Y4.8281Z-0.0700
X9.2197Y4.8205Z-0.0704
X9.2120Y4.8128Z-0.0684
X9.1967Y4.7975Z-0.0579
X9.1738Y4.7745Z-0.0340
X9.1661Y4.7669Z-0.0293
X9.1508Y4.7516Z-0.0270
X9.1355Y4.7363Z-0.0293
X9.1279Y4.7286Z-0.0341
X9.1202Y4.7210Z-0.0443
X9.0972Y4.6980Z-0.0598
X9.0896Y4.6904Z-0.0688
X9.0819Y4.6827Z-0.0701
X9.0666Y4.6674Z-0.0682
X9.0437Y4.6444Z-0.0687
X9.0284Y4.6291Z-0.0619
X9.0054Y4.6062Z-0.0341
X8.9978Y4.5985Z-0.0345
X8.9901Y4.5909Z-0.0409
X8.9748Y4.5756Z-0.0335
X8.9671Y4.5679Z-0.0342
X8.9595Y4.5603Z-0.0411
X8.9518Y4.5526Z-0.0419
X8.9442Y4.5450Z-0.0374
X8.9365Y4.5373Z-0.0366
X8.9212Y4.5220Z-0.0438
X8.9136Y4.5143Z-0.0537
X8.9059Y4.5067Z-0.0558
X8.8983Y4.4990Z-0.0540
X8.8830Y4.4837Z-0.0436
X8.8753Y4.4761Z-0.0409
X8.8677Y4.4684Z-0.0420
X8.8523Y4.4531Z-0.0353
X8.8370Y4.4378Z-0.0316
X8.8141Y4.4148Z-0.0224
X8.7605Y4.3613Z-0.0140
X8.7299Y4.3307Z-0.0087
X8.6687Y4.2694Z-0.0076
X8.6228Y4.2235Z-0.0080
X8.5845Y4.1853Z-0.0073
X8.5768Y4.1776Z-0.0063
X8.5539Y4.1546Z-0.0085
X8.5309Y4.1317Z-0.0085
X8.5156Y4.1164Z-0.0101
X8.4850Y4.0858Z-0.0069
X8.3702Y3.9710Z-0.0076
X8.2937Y3.8944Z-0.0083
X8.2554Y3.8562Z-0.0049
X8.2095Y3.8103Z-0.0058
X8.1789Y3.7796Z-0.0050
X8.0870Y3.6878Z-0.0048
X7.9646Y3.5654Z-0.0052
X7.9416Y3.5424Z-0.0060
X7.9263Y3.5271Z-0.0052
X7.7503Y3.3511Z-0.0050
X7.6967Y3.2975Z-0.0065
X7.6585Y3.2592Z-0.0151
X7.6431Y3.2439Z-0.0234
X7.6355Y3.2363Z-0.0250
X7.5896Y3.1903Z-0.0140
X7.5207Y3.1215Z-0.0131
X7.4671Y3.0679Z-0.0068
X7.4136Y3.0143Z-0.0064
X7.3676Y2.9684Z-0.0080
X7.2452Y2.8460Z-0.0072
X7.1687Y2.7694Z-0.0047
X7.0845Y2.6852Z-0.0057
X6.9008Y2.5016Z-0.0069
X6.7936Y2.3944Z-0.0061
X6.6253Y2.2260Z-0.0046
X6.6176Y2.2184Z-0.0056
X6.5794Y2.1801Z-0.0032
X6.5181Y2.1189Z-0.0052
X6.5105Y2.1113Z-0.0041
X6.4110Y2.0118Z-0.0058
X6.3115Y1.9123Z-0.0064
X6.2503Y1.8510Z-0.0060
X6.1967Y1.7975Z-0.0067
X6.0666Y1.6674Z-0.0076
X5.9441Y1.5449Z-0.0075
X5.9135Y1.5143Z-0.0064
X5.8906Y1.4913Z-0.0070
X5.8600Y1.4607Z-0.0089
X5.8447Y1.4454Z-0.0118
X5.8217Y1.4225Z-0.0093
X5.7834Y1.3842Z-0.0121
X5.7681Y1.3689Z-0.0194
X5.7605Y1.3612Z-0.0208
X5.7528Y1.3536Z-0.0200
X5.7452Y1.3459Z-0.0212
X5.7299Y1.3306Z-0.0390
X5.7222Y1.3230Z-0.0439
X5.7069Y1.3077Z-0.0449
X5.6992Y1.3000Z-0.0427
X5.6610Y1.2618Z-0.0549
X5.6380Y1.2388Z-0.0520
X5.6304Y1.2311Z-0.0528
X5.6227Y1.2235Z-0.0560
X5.6074Y1.2082Z-0.0576
X5.5921Y1.1929Z-0.0555
X5.5691Y1.1699Z-0.0363
X5.5538Y1.1546Z-0.0345
X5.5385Y1.1393Z-0.0399
X5.5309Y1.1316Z-0.0401
X5.5156Y1.1163Z-0.0212
X5.5079Y1.1087Z-0.0174
X5.4850Y1.0857Z-0.0144
X5.4620Y1.0628Z-0.0135
X5.4543Y1.0551Z-0.0105
X5.4390Y1.0398Z-0.0106
X5.4161Y1.0169Z-0.0122
X5.3702Y0.9709Z-0.0123
X5.3472Y0.9480Z-0.0126
X5.2860Y0.8867Z-0.0134
X5.2554Y0.8561Z-0.0179
X5.1712Y0.7720Z-0.0224
X5.1406Y0.7413Z-0.0305
X5.1253Y0.7260Z-0.0291
X5.1023Y0.7031Z-0.0317
X5.0717Y0.6725Z-0.0357
X5.0181Y0.6189Z-0.0378
X4.9799Y0.5806Z-0.0507
X4.9492Y0.5500Z-0.0531
X4.9416Y0.5424Z-0.0564
X4.9263Y0.5271Z-0.0553
X4.9110Y0.5117Z-0.0505
X4.8957Y0.4964Z-0.0535
X4.8880Y0.4888Z-0.0568
X4.8727Y0.4735Z-0.0564
X4.8651Y0.4658Z-0.0552
X4.8574Y0.4582Z-0.0582
X4.8497Y0.4505Z-0.0640
X4.8191Y0.4199Z-0.0794
X4.8038Y0.4046Z-0.0791
X4.7809Y0.3816Z-0.0721
X4.7732Y0.3740Z-0.0683
X4.7656Y0.3663Z-0.0667
X4.7426Y0.3434Z-0.0731
X4.7120Y0.3128Z-0.0680
X4.6890Y0.2898Z-0.0785
X4.6584Y0.2592Z-0.0796
X4.6431Y0.2439Z-0.0760
X4.6278Y0.2286Z-0.0687
X4.6125Y0.2133Z-0.0582
X4.5972Y0.1980Z-0.0454
X4.5819Y0.1827Z-0.0387
X4.5360Y0.1367Z-0.0353
X4.5130Y0.1138Z-0.0392
X4.4977Y0.0985Z-0.0350
X4.4824Y0.0832Z-0.0357
X4.4671Y0.0679Z-0.0415
X4.4518Y0.0526Z-0.0486
X4.4365Y0.0372Z-0.0495
X4.4212Y0.0219Z-0.0495
X4.4059Y0.0066Z-0.0523
Z0.1500
X4.1230Y0.0066
G1Z-0.0394F100.0
G1X4.1460Y0.0296Z-0.0402F150.0
X4.1536Y0.0372Z-0.0380
X4.1842Y0.0678Z-0.0394
X4.2072Y0.0908Z-0.0350
X4.2225Y0.1061Z-0.0366
X4.2378Y0.1214Z-0.0392
X4.2455Y0.1291Z-0.0373
X4.2608Y0.1444Z-0.0410
X4.2761Y0.1597Z-0.0517
X4.2914Y0.1750Z-0.0647
X4.3067Y0.1903Z-0.0714
X4.3296Y0.2133Z-0.0767
X4.3526Y0.2362Z-0.0760
X4.3679Y0.2515Z-0.0766
X4.3832Y0.2668Z-0.0754
X4.4062Y0.2898Z-0.0770
X4.4291Y0.3127Z-0.0770
X4.4521Y0.3357Z-0.0801
X4.4750Y0.3587Z-0.0800
X4.4904Y0.3740Z-0.0815
X4.5133Y0.3969Z-0.0799
X4.5592Y0.4428Z-0.0806
X4.5745Y0.4581Z-0.0789
X4.6128Y0.4964Z-0.0792
X4.6281Y0.5117Z-0.0749
X4.6434Y0.5270Z-0.0664
X4.6587Y0.5423Z-0.0512
X4.6740Y0.5576Z-0.0420
X4.6817Y0.5653Z-0.0409
X4.6970Y0.5806Z-0.0430
X4.7276Y0.6112Z-0.0377
X4.7505Y0.6342Z-0.0405
X4.7735Y0.6571Z-0.0349
X4.8271Y0.7107Z-0.0331
X4.8653Y0.7489Z-0.0272
X4.9036Y0.7872Z-0.0246
X4.9266Y0.8102Z-0.0207
X4.9648Y0.8484Z-0.0187
X4.9801Y0.8637Z-0.0208
X5.0107Y0.8944Z-0.0156
X5.0643Y0.9479Z-0.0140
X5.1026Y0.9862Z-0.0133
X5.1102Y0.9938Z-0.0142
X5.1255Y1.0091Z-0.0115
X5.1715Y1.0551Z-0.0138
X5.2021Y1.0857Z-0.0121
X5.2174Y1.1010Z-0.0128
X5.2250Y1.1086Z-0.0171
X5.2480Y1.1316Z-0.0428
X5.2633Y1.1469Z-0.0474
X5.2862Y1.1699Z-0.0464
X5.2939Y1.1775Z-0.0435
X5.3015Y1.1852Z-0.0351
X5.3092Y1.1928Z-0.0295
X5.3245Y1.2081Z-0.0240
X5.3398Y1.2234Z-0.0162
X5.3704Y1.2540Z-0.0171
X5.3857Y1.2693Z-0.0226
X5.3934Y1.2770Z-0.0270
X5.4087Y1.2923Z-0.0414
X5.4163Y1.3000Z-0.0442
X5.4240Y1.3076Z-0.0450
X5.4316Y1.3153Z-0.0426
X5.4546Y1.3382Z-0.0248
X5.4699Y1.3535Z-0.0215
X5.4929Y1.3765Z-0.0123
X5.5158Y1.3994Z-0.0121
X5.5388Y1.4224Z-0.0129
X5.5770Y1.4607Z-0.0087
X5.6000Y1.4836Z-0.0093
X5.6536Y1.5372Z-0.0080
X5.6689Y1.5525Z-0.0109
X5.6918Y1.5755Z-0.0096
X5.7225Y1.6061Z-0.0120
X5.7378Y1.6214Z-0.0218
X5.7454Y1.6290Z-0.0300
X5.7607Y1.6443Z-0.0389
X5.7684Y1.6520Z-0.0411
X5.7837Y1.6673Z-0.0386
X5.7913Y1.6749Z-0.0351
X5.8066Y1.6902Z-0.0225
X5.8219Y1.7055Z-0.0152
X5.8372Y1.7209Z-0.0129
X5.8755Y1.7591Z-0.0100
X5.9597Y1.8433Z-0.0082
X6.0821Y1.9657Z-0.0070
X6.1969Y2.0805Z-0.0061
X6.2581Y2.1418Z-0.0059
X6.4112Y2.2948Z-0.0048
X6.4801Y2.3637Z-0.0052
X6.5490Y2.4326Z-0.0057
X6.6867Y2.5703Z-0.0055
X6.8780Y2.7616Z-0.0054
X7.1229Y3.0065Z-0.0031
X7.1382Y3.0218Z-0.0048
X7.1535Y3.0371Z-0.0032
X7.2301Y3.1137Z-0.0055
X7.2530Y3.1366Z-0.0109
X7.2913Y3.1749Z-0.0133
X7.3984Y3.2820Z-0.0143
X7.4137Y3.2973Z-0.0175
X7.4443Y3.3279Z-0.0285
X7.4673Y3.3509Z-0.0315
X7.4826Y3.3662Z-0.0307
X7.4902Y3.3739Z-0.0275
X7.5056Y3.3892Z-0.0156
X7.5362Y3.4198Z-0.0087
X7.6739Y3.5575Z-0.0049
X7.7275Y3.6111Z-0.0059
X7.7581Y3.6417Z-0.0048
X7.7811Y3.6647Z-0.0054
X7.8958Y3.7795Z-0.0045
X7.9953Y3.8789Z-0.0067
X8.1101Y3.9937Z-0.0082
X8.1867Y4.0703Z-0.0072
X8.1943Y4.0779Z-0.0080
X8.2173Y4.1009Z-0.0067
X8.2479Y4.1315Z-0.0067
X8.2632Y4.1468Z-0.0082
X8.3550Y4.2386Z-0.0077
X8.4009Y4.2845Z-0.0063
X8.5157Y4.3993Z-0.0101
X8.5463Y4.4299Z-0.0098
X8.5693Y4.4529Z-0.0089
X8.6076Y4.4912Z-0.0092
X8.6305Y4.5141Z-0.0084
X8.6764Y4.5600Z-0.0085
X8.7453Y4.6289Z-0.0114
X8.7989Y4.6825Z-0.0222
X8.8524Y4.7361Z-0.0235
X8.9060Y4.7896Z-0.0266
X8.9366Y4.8202Z-0.0262
X8.9443Y4.8279Z-0.0273
X8.9672Y4.8508Z-0.0255
X8.9978Y4.8815Z-0.0283
X9.0208Y4.9044Z-0.0267
X9.0361Y4.9197Z-0.0269
X9.0438Y4.9274Z-0.0248
X9.0591Y4.9427Z-0.0275
X9.0744Y4.9580Z-0.0223
X9.0897Y4.9733Z-0.0225
X9.0973Y4.9809Z-0.0236
X9.1050Y4.9886Z-0.0271
X9.1279Y5.0116Z-0.0262
X9.1356Y5.0192Z-0.0286
X9.1586Y5.0422Z-0.0266
X9.1739Y5.0575Z-0.0290
X9.1892Y5.0728Z-0.0347
X9.1968Y5.0804Z-0.0346
X9.2121Y5.0957Z-0.0280
X9.2351Y5.1187Z-0.0275
X9.2427Y5.1263Z-0.0319
X9.2580Y5.1417Z-0.0480
X9.2810Y5.1646Z-0.0470
X9.3269Y5.2105Z-0.0463
X9.3652Y5.2488Z-0.0480
X9.4570Y5.3406Z-0.0482
X9.5106Y5.3942Z-0.0475
X9.6407Y5.5243Z-0.0466
X9.7325Y5.6161Z-0.0444
X9.7555Y5.6391Z-0.0429
X9.8244Y5.7080Z-0.0450
X9.8703Y5.7539Z-0.0441
X9.9315Y5.8151Z-0.0443
X9.9544Y5.8381Z-0.0434
X10.0769Y5.9605Z-0.0442
X10.1458Y6.0294Z-0.0451
X10.2299Y6.1136Z-0.0438
X10.2606Y6.1442Z-0.0455
X10.3677Y6.2513Z-0.0427
X10.4213Y6.3049Z-0.0417
X10.4595Y6.3431Z-0.0418
X10.5131Y6.3967Z-0.0370
X10.5514Y6.4350Z-0.0403
X10.5896Y6.4732Z-0.0385
X10.6126Y6.4962Z-0.0417
X10.6279Y6.5115Z-0.0390
X10.6355Y6.5192Z-0.0361
X10.6509Y6.5345Z-0.0413
X10.6891Y6.5727Z-0.0378
X10.8192Y6.7028Z-0.0385
X10.8651Y6.7487Z-0.0381
Z0.1500
X10.8651Y7.0316
G1Z-0.0387F100.0
G1X10.8269Y6.9933Z-0.0395F150.0
X10.7963Y6.9627Z-0.0391
X10.7350Y6.9015Z-0.0389
X10.6738Y6.8403Z-0.0432
X10.6203Y6.7867Z-0.0420
X10.5667Y6.7331Z-0.0428
X10.5131Y6.6796Z-0.0412
X10.4825Y6.6490Z-0.0416
X10.4136Y6.5801Z-0.0398
X10.3677Y6.5342Z-0.0413
X10.3524Y6.5189Z-0.0433
X10.3371Y6.5036Z-0.0410
X10.2759Y6.4424Z-0.0441
X10.2070Y6.3735Z-0.0437
X10.1152Y6.2816Z-0.0438
X10.0769Y6.2434Z-0.0455
X10.0387Y6.2051Z-0.0453
X10.0157Y6.1822Z-0.0439
X9.8780Y6.0444Z-0.0457
X9.7326Y5.8990Z-0.0468
X9.6560Y5.8225Z-0.0479
X9.4724Y5.6388Z-0.0498
X9.4571Y5.6235Z-0.0479
X9.3806Y5.5470Z-0.0501
X9.2658Y5.4322Z-0.0485
X9.1969Y5.3634Z-0.0495
X9.1357Y5.3021Z-0.0484
X9.1127Y5.2792Z-0.0492
X9.0898Y5.2562Z-0.0474
X9.0515Y5.2180Z-0.0485
X9.0439Y5.2103Z-0.0505
X9.0285Y5.1950Z-0.0618
X9.0209Y5.1873Z-0.0636
X9.0056Y5.1720Z-0.0535
X8.9979Y5.1644Z-0.0512
X8.9826Y5.1491Z-0.0533
X8.9673Y5.1338Z-0.0508
X8.9597Y5.1261Z-0.0529
X8.9520Y5.1185Z-0.0528
X8.9367Y5.1032Z-0.0348
X8.9214Y5.0879Z-0.0282
X8.9138Y5.0802Z-0.0260
X8.8985Y5.0649Z-0.0267
X8.8755Y5.0419Z-0.0220
X8.8602Y5.0266Z-0.0229
X8.8525Y5.0190Z-0.0250
X8.8296Y4.9960Z-0.0216
X8.8143Y4.9807Z-0.0229
X8.7990Y4.9654Z-0.0200
X8.7760Y4.9425Z-0.0223
X8.7684Y4.9348Z-0.0246
X8.7531Y4.9195Z-0.0362
X8.7454Y4.9119Z-0.0396
X8.7148Y4.8812Z-0.0152
X8.6842Y4.8506Z-0.0115
X8.6000Y4.7665Z-0.0106
X8.5541Y4.7205Z-0.0107
X8.5235Y4.6899Z-0.0114
X8.5005Y4.6670Z-0.0120
X8.4623Y4.6287Z-0.0088
X8.3551Y4.5216Z-0.0092
X8.2786Y4.4451Z-0.0089
X8.1944Y4.3609Z-0.0086
X8.0414Y4.2078Z-0.0073
X7.9189Y4.0854Z-0.0068
X7.8807Y4.0471Z-0.0074
X7.8118Y3.9783Z-0.0079
X7.7276Y3.8941Z-0.0080
X7.6434Y3.8099Z-0.0072
X7.5746Y3.7410Z-0.0061
X7.5210Y3.6875Z-0.0068
X7.4751Y3.6415Z-0.0066
X7.4215Y3.5880Z-0.0086
X7.3909Y3.5574Z-0.0098
X7.3603Y3.5268Z-0.0189
X7.3450Y3.5115Z-0.0287
X7.3297Y3.4961Z-0.0316
X7.3144Y3.4808Z-0.0308
X7.2914Y3.4579Z-0.0225
X7.2761Y3.4426Z-0.0175
X7.2379Y3.4043Z-0.0154
X7.1537Y3.3201Z-0.0135
X7.1231Y3.2895Z-0.0105
X7.1001Y3.2666Z-0.0059
X7.0389Y3.2054Z-0.0049
X6.9624Y3.1288Z-0.0043
X6.9394Y3.1059Z-0.0047
X6.8170Y2.9834Z-0.0051
X6.7711Y2.9375Z-0.0044
X6.5951Y2.7615Z-0.0047
X6.4267Y2.5932Z-0.0054
X6.2737Y2.4401Z-0.0064
X6.1665Y2.3330Z-0.0052
X6.1283Y2.2947Z-0.0065
X6.0211Y2.1876Z-0.0085
X6.0058Y2.1723Z-0.0071
X5.9446Y2.1110Z-0.0085
X5.7839Y1.9503Z-0.0083
X5.7609Y1.9274Z-0.0097
X5.7456Y1.9121Z-0.0085
X5.6768Y1.8432Z-0.0112
X5.6615Y1.8279Z-0.0177
X5.6538Y1.8203Z-0.0251
X5.6462Y1.8126Z-0.0300
X5.6385Y1.8050Z-0.0316
X5.6308Y1.7973Z-0.0295
X5.6002Y1.7667Z-0.0366
X5.5926Y1.7590Z-0.0365
X5.5849Y1.7514Z-0.0334
X5.5620Y1.7284Z-0.0151
X5.5467Y1.7131Z-0.0122
X5.4701Y1.6366Z-0.0124
X5.4242Y1.5907Z-0.0112
X5.3860Y1.5524Z-0.0140
X5.3630Y1.5295Z-0.0086
X5.3324Y1.4989Z-0.0099
X5.3094Y1.4759Z-0.0123
X5.2788Y1.4453Z-0.0104
X5.2329Y1.3994Z-0.0162
X5.2023Y1.3688Z-0.0145
X5.1870Y1.3535Z-0.0163
X5.1717Y1.3381Z-0.0218
X5.1640Y1.3305Z-0.0226
X5.1487Y1.3152Z-0.0298
X5.1411Y1.3075Z-0.0366
X5.1181Y1.2846Z-0.0472
X5.1028Y1.2693Z-0.0575
X5.0952Y1.2616Z-0.0586
X5.0799Y1.2463Z-0.0566
X5.0646Y1.2310Z-0.0568
X5.0569Y1.2234Z-0.0585
X5.0340Y1.2004Z-0.0547
X5.0110Y1.1774Z-0.0442
X4.9880Y1.1545Z-0.0509
X4.9727Y1.1392Z-0.0509
X4.9574Y1.1239Z-0.0447
X4.9421Y1.1086Z-0.0246
X4.9345Y1.1009Z-0.0177
X4.9268Y1.0933Z-0.0156
X4.8962Y1.0627Z-0.0156
X4.8733Y1.0397Z-0.0159
X4.8579Y1.0244Z-0.0136
X4.8350Y1.0014Z-0.0148
X4.7738Y0.9402Z-0.0162
X4.7508Y0.9173Z-0.0178
X4.6972Y0.8637Z-0.0219
X4.6666Y0.8331Z-0.0226
X4.6437Y0.8101Z-0.0246
X4.6131Y0.7795Z-0.0236
X4.5901Y0.7566Z-0.0256
X4.5672Y0.7336Z-0.0282
X4.5518Y0.7183Z-0.0283
X4.4677Y0.6341Z-0.0354
X4.4524Y0.6188Z-0.0373
X4.4218Y0.5882Z-0.0371
X4.3988Y0.5652Z-0.0375
X4.3835Y0.5499Z-0.0418
X4.3529Y0.5193Z-0.0474
X4.3376Y0.5040Z-0.0484
X4.3299Y0.4964Z-0.0516
X4.3070Y0.4734Z-0.0753
X4.2993Y0.4658Z-0.0779
X4.2764Y0.4428Z-0.0759
X4.2611Y0.4275Z-0.0711
X4.2534Y0.4199Z-0.0658
X4.2457Y0.4122Z-0.0573
X4.2381Y0.4045Z-0.0519
X4.2228Y0.3892Z-0.0493
X4.1998Y0.3663Z-0.0492
X4.1845Y0.3510Z-0.0547
X4.1616Y0.3280Z-0.0657
X4.1386Y0.3051Z-0.0761
X4.1310Y0.2974Z-0.0769
X4.1233Y0.2898Z-0.0756
X4.1157Y0.2821Z-0.0714
X4.0927Y0.2592Z-0.0505
X4.0391Y0.2056Z-0.0413
X3.9932Y0.1597Z-0.0399
X3.9703Y0.1367Z-0.0440
X3.9550Y0.1214Z-0.0403
X3.9473Y0.1138Z-0.0381
X3.9397Y0.1061Z-0.0390
X3.9320Y0.0984Z-0.0443
X3.9167Y0.0831Z-0.0483
X3.8861Y0.0525Z-0.0476
X3.8631Y0.0296Z-0.0547
X3.8478Y0.0143Z-0.0550
X3.8402Y0.0066Z-0.0530
Z0.1500
X3.5573Y0.0066
G1Z-0.0259F100.0
G1X3.5650Y0.0143Z-0.0272F150.0
X3.6032Y0.0525Z-0.0442
X3.6185Y0.0678Z-0.0442
X3.6491Y0.0984Z-0.0384
X3.6645Y0.1137Z-0.0391
X3.7027Y0.1520Z-0.0469
X3.7180Y0.1673Z-0.0452
X3.7410Y0.1903Z-0.0362
X3.7869Y0.2362Z-0.0352
X3.8022Y0.2515Z-0.0390
X3.8175Y0.2668Z-0.0467
X3.8328Y0.2821Z-0.0615
X3.8481Y0.2974Z-0.0686
X3.8634Y0.3127Z-0.0721
X3.8787Y0.3280Z-0.0701
X3.8940Y0.3433Z-0.0598
X3.9323Y0.3816Z-0.0565
X3.9399Y0.3892Z-0.0590
X3.9552Y0.4045Z-0.0705
X3.9629Y0.4122Z-0.0739
X3.9705Y0.4198Z-0.0746
X3.9782Y0.4275Z-0.0732
X3.9858Y0.4351Z-0.0693
X4.0011Y0.4504Z-0.0585
X4.0241Y0.4734Z-0.0520
X4.0471Y0.4964Z-0.0538
X4.0624Y0.5117Z-0.0497
X4.0930Y0.5423Z-0.0513
X4.1236Y0.5729Z-0.0462
X4.1465Y0.5958Z-0.0415
X4.1695Y0.6188Z-0.0353
X4.1925Y0.6417Z-0.0369
X4.2154Y0.6647Z-0.0350
X4.2384Y0.6877Z-0.0374
X4.2460Y0.6953Z-0.0366
X4.2690Y0.7183Z-0.0285
X4.2919Y0.7412Z-0.0276
X4.3378Y0.7871Z-0.0256
X4.3531Y0.8024Z-0.0276
X4.3838Y0.8330Z-0.0212
X4.4067Y0.8560Z-0.0244
X4.4297Y0.8790Z-0.0212
X4.4373Y0.8866Z-0.0189
X4.4756Y0.9249Z-0.0210
X4.5062Y0.9555Z-0.0225
X4.5291Y0.9784Z-0.0209
X4.5445Y0.9937Z-0.0216
X4.5827Y1.0320Z-0.0185
X4.6057Y1.0550Z-0.0232
X4.6286Y1.0779Z-0.0206
X4.6439Y1.0932Z-0.0235
X4.6592Y1.1085Z-0.0325
X4.6669Y1.1162Z-0.0327
X4.6745Y1.1238Z-0.0289
X4.6822Y1.1315Z-0.0275
X4.6898Y1.1391Z-0.0283
X4.6975Y1.1468Z-0.0333
X4.7128Y1.1621Z-0.0548
X4.7205Y1.1697Z-0.0602
X4.7434Y1.1927Z-0.0678
X4.7587Y1.2080Z-0.0680
X4.7664Y1.2157Z-0.0658
X4.8046Y1.2539Z-0.0422
X4.8123Y1.2616Z-0.0382
X4.8199Y1.2692Z-0.0398
X4.8276Y1.2769Z-0.0448
X4.8352Y1.2845Z-0.0460
X4.8429Y1.2922Z-0.0426
X4.8735Y1.3228Z-0.0207
X4.8811Y1.3304Z-0.0173
X4.9041Y1.3534Z-0.0154
X4.9271Y1.3764Z-0.0189
X4.9577Y1.4070Z-0.0167
X4.9730Y1.4223Z-0.0137
X5.0112Y1.4605Z-0.0138
X5.0495Y1.4988Z-0.0117
X5.0878Y1.5370Z-0.0122
X5.1031Y1.5524Z-0.0138
X5.1184Y1.5677Z-0.0140
X5.1337Y1.5830Z-0.0243
X5.1490Y1.5983Z-0.0366
X5.1719Y1.6212Z-0.0445
X5.1949Y1.6442Z-0.0469
X5.2102Y1.6595Z-0.0439
X5.2255Y1.6748Z-0.0354
X5.2408Y1.6901Z-0.0348
X5.2638Y1.7130Z-0.0257
X5.2791Y1.7284Z-0.0272
X5.2867Y1.7360Z-0.0255
X5.3020Y1.7513Z-0.0154
X5.3326Y1.7819Z-0.0139
X5.3479Y1.7972Z-0.0139
X5.3632Y1.8125Z-0.0158
X5.3862Y1.8355Z-0.0129
X5.4245Y1.8737Z-0.0121
X5.4551Y1.9044Z-0.0076
X5.4933Y1.9426Z-0.0078
X5.5698Y2.0191Z-0.0070
X5.7152Y2.1645Z-0.0087
X5.9295Y2.3788Z-0.0079
X5.9525Y2.4017Z-0.0072
X6.0290Y2.4783Z-0.0053
X6.0978Y2.5471Z-0.0054
X6.1744Y2.6237Z-0.0038
X6.2126Y2.6619Z-0.0049
X6.2356Y2.6849Z-0.0084
X6.2815Y2.7308Z-0.0092
X6.2968Y2.7461Z-0.0100
X6.3351Y2.7844Z-0.0062
X6.3886Y2.8379Z-0.0047
X6.6335Y3.0828Z-0.0035
X6.6794Y3.1287Z-0.0044
X6.9855Y3.4348Z-0.0057
X7.0314Y3.4807Z-0.0128
X7.1156Y3.5649Z-0.0150
X7.1538Y3.6031Z-0.0167
X7.1615Y3.6108Z-0.0182
X7.1768Y3.6261Z-0.0258
X7.1921Y3.6414Z-0.0289
X7.1998Y3.6490Z-0.0286
X7.2304Y3.6797Z-0.0161
X7.2610Y3.7103Z-0.0091
X7.3222Y3.7715Z-0.0070
X7.3681Y3.8174Z-0.0058
X7.4064Y3.8557Z-0.0067
X7.4293Y3.8786Z-0.0068
X7.4982Y3.9475Z-0.0075
X7.6206Y4.0699Z-0.0075
X7.8119Y4.2612Z-0.0067
X7.9191Y4.3684Z-0.0084
X8.0338Y4.4831Z-0.0083
X8.1027Y4.5520Z-0.0076
X8.1410Y4.5903Z-0.0085
X8.1486Y4.5979Z-0.0101
X8.1792Y4.6285Z-0.0081
X8.2634Y4.7127Z-0.0087
X8.3246Y4.7739Z-0.0113
X8.3782Y4.8275Z-0.0110
X8.4547Y4.9040Z-0.0147
X8.4853Y4.9346Z-0.0108
X8.5389Y4.9882Z-0.0119
X8.5848Y5.0341Z-0.0129
X8.6078Y5.0570Z-0.0146
X8.6231Y5.0724Z-0.0236
X8.6384Y5.0877Z-0.0396
X8.6537Y5.1030Z-0.0471
X8.6766Y5.1259Z-0.0691
X8.6919Y5.1412Z-0.0723
X8.7072Y5.1565Z-0.0710
X8.7302Y5.1795Z-0.0760
X8.7455Y5.1948Z-0.0724
X8.7608Y5.2101Z-0.0637
X8.7685Y5.2177Z-0.0611
X8.7838Y5.2330Z-0.0682
X8.8067Y5.2560Z-0.0652
X8.8144Y5.2637Z-0.0588
X8.8220Y5.2713Z-0.0548
X8.8297Y5.2790Z-0.0565
X8.8450Y5.2943Z-0.0520
X8.8756Y5.3249Z-0.0518
X8.9291Y5.3784Z-0.0497
X8.9598Y5.4090Z-0.0520
X8.9980Y5.4473Z-0.0503
X9.0210Y5.4703Z-0.0513
X9.0669Y5.5162Z-0.0493
X9.0898Y5.5391Z-0.0505
X9.2658Y5.7151Z-0.0528
X9.3041Y5.7534Z-0.0530
X9.3424Y5.7917Z-0.0519
X9.3500Y5.7993Z-0.0530
X9.3806Y5.8299Z-0.0521
X9.4189Y5.8682Z-0.0516
X9.4648Y5.9141Z-0.0508
X9.5413Y5.9906Z-0.0492
X9.6485Y6.0977Z-0.0488
X9.7556Y6.2049Z-0.0480
X9.8321Y6.2814Z-0.0462
X9.9392Y6.3885Z-0.0456
X9.9545Y6.4038Z-0.0458
X10.0005Y6.4497Z-0.0483
X10.0464Y6.4957Z-0.0483
X10.0846Y6.5339Z-0.0483
X10.1382Y6.5875Z-0.0492
X10.1765Y6.6257Z-0.0493
X10.2071Y6.6564Z-0.0486
X10.4443Y6.8936Z-0.0474
X10.4672Y6.9165Z-0.0466
X10.4902Y6.9395Z-0.0465
X10.5055Y6.9548Z-0.0458
X10.5514Y7.0007Z-0.0455
X10.6509Y7.1002Z-0.0438
X10.7427Y7.1920Z-0.0428
X10.7886Y7.2379Z-0.0394
X10.8192Y7.2685Z-0.0414
X10.8498Y7.2991Z-0.0417
X10.8651Y7.3144Z-0.0408
Z0.1500
X10.8652Y7.5973
G1Z-0.0387F100.0
G1X10.8345Y7.5667Z-0.0373F150.0
X10.7733Y7.5055Z-0.0397
X10.7427Y7.4749Z-0.0424
X10.6662Y7.3983Z-0.0444
X10.5973Y7.3295Z-0.0462
X10.5285Y7.2606Z-0.0471
X10.3142Y7.0463Z-0.0481
X10.2913Y7.0234Z-0.0475
X10.2224Y6.9545Z-0.0490
X10.1688Y6.9010Z-0.0494
X10.1076Y6.8397Z-0.0486
X10.0694Y6.8015Z-0.0502
X10.0005Y6.7326Z-0.0493
X9.9622Y6.6944Z-0.0488
X9.9546Y6.6867Z-0.0502
X9.9316Y6.6638Z-0.0490
X9.8628Y6.5949Z-0.0503
X9.7709Y6.5031Z-0.0506
X9.7403Y6.4725Z-0.0492
X9.6791Y6.4112Z-0.0509
X9.6409Y6.3730Z-0.0496
X9.5414Y6.2735Z-0.0503
X9.4572Y6.1893Z-0.0508
X9.3883Y6.1205Z-0.0533
X9.3654Y6.0975Z-0.0523
X9.2659Y5.9980Z-0.0536
X9.1511Y5.8833Z-0.0546
X9.1435Y5.8756Z-0.0555
X9.1052Y5.8373Z-0.0545
X8.9369Y5.6690Z-0.0526
X8.9216Y5.6537Z-0.0516
X8.9063Y5.6384Z-0.0470
X8.8910Y5.6231Z-0.0522
X8.8144Y5.5466Z-0.0509
X8.7150Y5.4471Z-0.0529
X8.6767Y5.4088Z-0.0506
X8.6614Y5.3935Z-0.0512
X8.6308Y5.3629Z-0.0510
X8.5849Y5.3170Z-0.0526
X8.5772Y5.3094Z-0.0508
X8.5696Y5.3017Z-0.0511
X8.5543Y5.2864Z-0.0633
X8.5390Y5.2711Z-0.0570
X8.5237Y5.2558Z-0.0580
X8.5084Y5.2405Z-0.0372
X8.5007Y5.2328Z-0.0307
X8.4778Y5.2099Z-0.0231
X8.4395Y5.1716Z-0.0235
X8.4242Y5.1563Z-0.0218
X8.4089Y5.1410Z-0.0243
X8.3706Y5.1028Z-0.0248
X8.3324Y5.0645Z-0.0206
X8.2023Y4.9344Z-0.0149
X8.1793Y4.9115Z-0.0166
X8.1105Y4.8426Z-0.0125
X7.9498Y4.6819Z-0.0109
X7.7279Y4.4600Z-0.0094
X7.6208Y4.3529Z-0.0095
X7.5595Y4.2917Z-0.0085
X7.4754Y4.2075Z-0.0076
X7.3682Y4.1004Z-0.0070
X7.3147Y4.0468Z-0.0070
X7.2229Y3.9550Z-0.0067
X7.1540Y3.8861Z-0.0074
X7.1081Y3.8402Z-0.0109
X7.0851Y3.8172Z-0.0210
X7.0775Y3.8096Z-0.0278
X7.0698Y3.8019Z-0.0308
X7.0545Y3.7866Z-0.0300
X7.0316Y3.7637Z-0.0168
X7.0163Y3.7484Z-0.0140
X6.9856Y3.7178Z-0.0172
X6.9550Y3.6872Z-0.0127
X6.9015Y3.6336Z-0.0121
X6.8556Y3.5877Z-0.0060
X6.6949Y3.4270Z-0.0049
X6.5342Y3.2663Z-0.0039
X6.5265Y3.2587Z-0.0054
X6.5036Y3.2357Z-0.0040
X6.3199Y3.0521Z-0.0050
X6.2587Y2.9908Z-0.0084
X6.1975Y2.9296Z-0.0077
X6.1439Y2.8761Z-0.0033
X6.0751Y2.8072Z-0.0041
X5.9909Y2.7230Z-0.0040
X5.9220Y2.6542Z-0.0063
X5.7537Y2.4858Z-0.0076
X5.6083Y2.3404Z-0.0082
X5.5853Y2.3175Z-0.0089
X5.4629Y2.1950Z-0.0091
X5.4170Y2.1491Z-0.0109
X5.4017Y2.1338Z-0.0144
X5.3864Y2.1185Z-0.0231
X5.3711Y2.1032Z-0.0204
X5.3558Y2.0879Z-0.0115
X5.3328Y2.0650Z-0.0087
X5.2946Y2.0267Z-0.0133
X5.2716Y2.0037Z-0.0140
X5.2563Y1.9884Z-0.0140
X5.2410Y1.9731Z-0.0123
X5.2104Y1.9425Z-0.0152
X5.2028Y1.9349Z-0.0178
X5.1951Y1.9272Z-0.0246
X5.1798Y1.9119Z-0.0320
X5.1568Y1.8890Z-0.0324
X5.1492Y1.8813Z-0.0348
X5.1339Y1.8660Z-0.0434
X5.1186Y1.8507Z-0.0458
X5.0956Y1.8278Z-0.0425
X5.0574Y1.7895Z-0.0479
X5.0344Y1.7665Z-0.0437
X4.9962Y1.7283Z-0.0442
X4.9808Y1.7130Z-0.0481
X4.9655Y1.6977Z-0.0448
X4.9579Y1.6900Z-0.0411
X4.9349Y1.6671Z-0.0456
X4.9196Y1.6518Z-0.0461
X4.9120Y1.6441Z-0.0492
X4.9043Y1.6365Z-0.0493
X4.8890Y1.6212Z-0.0415
X4.8737Y1.6058Z-0.0377
X4.8508Y1.5829Z-0.0265
X4.8049Y1.5370Z-0.0130
X4.7589Y1.4911Z-0.0149
X4.7283Y1.4605Z-0.0139
X4.6977Y1.4299Z-0.0195
X4.6748Y1.4069Z-0.0160
X4.6518Y1.3839Z-0.0197
X4.6212Y1.3533Z-0.0232
X4.6059Y1.3380Z-0.0243
X4.5829Y1.3151Z-0.0367
X4.5676Y1.2998Z-0.0441
X4.5370Y1.2692Z-0.0555
X4.5217Y1.2539Z-0.0557
X4.5141Y1.2462Z-0.0538
X4.4911Y1.2233Z-0.0290
X4.4682Y1.2003Z-0.0266
X4.4605Y1.1926Z-0.0283
X4.4452Y1.1773Z-0.0387
X4.4376Y1.1697Z-0.0419
X4.4223Y1.1544Z-0.0541
X4.4146Y1.1467Z-0.0565
X4.3917Y1.1238Z-0.0397
X4.3763Y1.1085Z-0.0352
X4.3610Y1.0932Z-0.0272
X4.3381Y1.0702Z-0.0216
X4.3151Y1.0473Z-0.0239
X4.2922Y1.0243Z-0.0231
X4.2616Y0.9937Z-0.0248
X4.2386Y0.9707Z-0.0225
X4.2233Y0.9554Z-0.0264
X4.2004Y0.9325Z-0.0284
X4.1697Y0.9019Z-0.0253
X4.1468Y0.8789Z-0.0278
X4.0932Y0.8254Z-0.0293
X4.0626Y0.7947Z-0.0298
X3.9938Y0.7259Z-0.0330
X3.9784Y0.7106Z-0.0357
X3.9631Y0.6953Z-0.0342
X3.9402Y0.6723Z-0.0375
X3.9172Y0.6494Z-0.0368
X3.8790Y0.6111Z-0.0430
X3.8637Y0.5958Z-0.0487
X3.8331Y0.5652Z-0.0727
X3.8101Y0.5422Z-0.0770
X3.7872Y0.5193Z-0.0733
X3.7718Y0.5040Z-0.0751
X3.7489Y0.4810Z-0.0734
X3.7336Y0.4657Z-0.0749
X3.7106Y0.4428Z-0.0684
X3.6877Y0.4198Z-0.0679
X3.6724Y0.4045Z-0.0701
X3.6494Y0.3815Z-0.0657
X3.6341Y0.3662Z-0.0566
X3.6188Y0.3509Z-0.0521
X3.6035Y0.3356Z-0.0503
X3.5729Y0.3050Z-0.0399
X3.5499Y0.2821Z-0.0329
X3.5270Y0.2591Z-0.0216
X3.4964Y0.2285Z-0.0164
X3.3739Y0.1061Z-0.0129
X3.3127Y0.0449Z-0.0186
X3.2821Y0.0143Z-0.0232
X3.2745Y0.0066Z-0.0265
Z0.1500
X2.9916Y0.0066
G1Z-0.0225F100.0
G1X3.0222Y0.0372Z-0.0177F150.0
X3.1141Y0.1290Z-0.0164
X3.2288Y0.2438Z-0.0096
X3.2977Y0.3127Z-0.0114
X3.3666Y0.3815Z-0.0155
X3.4660Y0.4810Z-0.0151
X3.4813Y0.4963Z-0.0177
X3.5043Y0.5193Z-0.0265
X3.5425Y0.5575Z-0.0289
X3.5885Y0.6034Z-0.0318
X3.6114Y0.6264Z-0.0387
X3.6420Y0.6570Z-0.0509
X3.6497Y0.6646Z-0.0514
X3.6726Y0.6876Z-0.0437
X3.6879Y0.7029Z-0.0376
X3.7338Y0.7488Z-0.0319
X3.7721Y0.7871Z-0.0339
X3.8104Y0.8253Z-0.0346
X3.8869Y0.9018Z-0.0308
X3.9022Y0.9171Z-0.0324
X4.0246Y1.0396Z-0.0300
X4.0399Y1.0549Z-0.0322
X4.0629Y1.0778Z-0.0283
X4.0782Y1.0931Z-0.0289
X4.0935Y1.1084Z-0.0376
X4.1164Y1.1314Z-0.0543
X4.1317Y1.1467Z-0.0654
X4.1470Y1.1620Z-0.0664
X4.1700Y1.1849Z-0.0730
X4.1853Y1.2003Z-0.0736
X4.2082Y1.2232Z-0.0701
X4.2235Y1.2385Z-0.0713
X4.2312Y1.2462Z-0.0685
X4.2388Y1.2538Z-0.0716
X4.2465Y1.2615Z-0.0693
X4.2541Y1.2691Z-0.0647
X4.2695Y1.2844Z-0.0452
X4.2771Y1.2921Z-0.0390
X4.2848Y1.2997Z-0.0358
X4.2924Y1.3074Z-0.0349
X4.3077Y1.3227Z-0.0289
X4.3230Y1.3380Z-0.0289
X4.3613Y1.3762Z-0.0186
X4.3842Y1.3992Z-0.0204
X4.4148Y1.4298Z-0.0205
X4.4378Y1.4528Z-0.0152
X4.4607Y1.4757Z-0.0179
X4.4913Y1.5063Z-0.0169
X4.5220Y1.5369Z-0.0182
X4.5373Y1.5522Z-0.0200
X4.5526Y1.5675Z-0.0180
X4.5832Y1.5981Z-0.0187
X4.5985Y1.6134Z-0.0236
X4.6214Y1.6364Z-0.0202
X4.6367Y1.6517Z-0.0199
X4.6520Y1.6670Z-0.0188
X4.6597Y1.6747Z-0.0206
X4.6673Y1.6823Z-0.0199
X4.6750Y1.6900Z-0.0165
X4.6979Y1.7129Z-0.0166
X4.7285Y1.7435Z-0.0181
X4.7515Y1.7665Z-0.0161
X4.7668Y1.7818Z-0.0174
X4.7745Y1.7894Z-0.0207
X4.7821Y1.7971Z-0.0273
X4.7974Y1.8124Z-0.0347
X4.8204Y1.8353Z-0.0362
X4.8357Y1.8506Z-0.0399
X4.8510Y1.8659Z-0.0346
X4.8739Y1.8889Z-0.0341
X4.8892Y1.9042Z-0.0281
X4.9045Y1.9195Z-0.0180
X4.9122Y1.9272Z-0.0157
X4.9351Y1.9501Z-0.0147
X5.0117Y2.0266Z-0.0104
X5.0423Y2.0572Z-0.0143
X5.0652Y2.0802Z-0.0130
X5.0805Y2.0955Z-0.0141
X5.1111Y2.1261Z-0.0133
X5.1188Y2.1338Z-0.0155
X5.1341Y2.1491Z-0.0326
X5.1417Y2.1567Z-0.0383
X5.1570Y2.1720Z-0.0370
X5.1647Y2.1797Z-0.0385
X5.1723Y2.1873Z-0.0431
X5.1800Y2.1950Z-0.0427
X5.1953Y2.2103Z-0.0374
X5.2030Y2.2179Z-0.0319
X5.2106Y2.2256Z-0.0224
X5.2183Y2.2332Z-0.0157
X5.2259Y2.2409Z-0.0129
X5.2336Y2.2485Z-0.0124
X5.2489Y2.2638Z-0.0179
X5.2565Y2.2715Z-0.0237
X5.2642Y2.2791Z-0.0249
X5.2718Y2.2868Z-0.0214
X5.2795Y2.2944Z-0.0149
X5.2948Y2.3097Z-0.0098
X5.3483Y2.3633Z-0.0082
X5.4861Y2.5010Z-0.0074
X5.5243Y2.5393Z-0.0076
X5.5549Y2.5699Z-0.0073
X5.6161Y2.6311Z-0.0084
X5.6314Y2.6464Z-0.0076
X5.7386Y2.7535Z-0.0083
X5.7692Y2.7841Z-0.0097
X5.7845Y2.7994Z-0.0095
X5.8074Y2.8224Z-0.0121
X5.9069Y2.9219Z-0.0084
X6.0523Y3.0673Z-0.0092
X6.2053Y3.2203Z-0.0077
X6.2436Y3.2585Z-0.0127
X6.2818Y3.2968Z-0.0117
X6.3201Y3.3351Z-0.0059
X6.4808Y3.4957Z-0.0043
X6.5802Y3.5952Z-0.0051
X6.6185Y3.6335Z-0.0033
X6.6950Y3.7100Z-0.0064
X6.7409Y3.7559Z-0.0117
X6.7945Y3.8095Z-0.0265
X6.8098Y3.8248Z-0.0257
X6.8327Y3.8477Z-0.0210
X6.8557Y3.8707Z-0.0151
X6.8710Y3.8860Z-0.0198
X6.8863Y3.9013Z-0.0271
X6.9093Y3.9242Z-0.0388
X6.9246Y3.9395Z-0.0390
X6.9399Y3.9548Z-0.0325
X6.9552Y3.9701Z-0.0200
X6.9705Y3.9854Z-0.0130
X7.0011Y4.0161Z-0.0096
X7.0623Y4.0773Z-0.0071
X7.2306Y4.2456Z-0.0099
X7.7586Y4.7736Z-0.0120
X7.8428Y4.8577Z-0.0149
X7.9193Y4.9343Z-0.0149
X7.9499Y4.9649Z-0.0170
X8.1182Y5.1332Z-0.0229
X8.1641Y5.1791Z-0.0252
X8.1794Y5.1944Z-0.0224
X8.2100Y5.2250Z-0.0233
X8.2407Y5.2556Z-0.0257
X8.2560Y5.2709Z-0.0229
X8.3095Y5.3245Z-0.0285
X8.3325Y5.3474Z-0.0283
X8.3631Y5.3780Z-0.0470
X8.4013Y5.4163Z-0.0492
X8.4549Y5.4699Z-0.0495
X8.6232Y5.6382Z-0.0503
X8.6462Y5.6612Z-0.0510
X8.6615Y5.6765Z-0.0504
X8.7610Y5.7759Z-0.0524
X8.8604Y5.8754Z-0.0534
X8.9140Y5.9290Z-0.0555
X8.9369Y5.9519Z-0.0540
X9.0288Y6.0437Z-0.0552
X9.1053Y6.1203Z-0.0545
X9.1818Y6.1968Z-0.0538
X9.2048Y6.2197Z-0.0525
X9.2507Y6.2656Z-0.0529
X9.3272Y6.3422Z-0.0497
X9.4420Y6.4569Z-0.0503
X9.4802Y6.4952Z-0.0497
X9.5338Y6.5487Z-0.0515
X9.5720Y6.5870Z-0.0533
X9.6103Y6.6253Z-0.0515
X9.6868Y6.7018Z-0.0496
X9.7710Y6.7859Z-0.0498
X9.8934Y6.9084Z-0.0495
X10.0388Y7.0538Z-0.0485
X10.2148Y7.2297Z-0.0490
X10.2301Y7.2450Z-0.0483
X10.2530Y7.2680Z-0.0489
X10.2913Y7.3063Z-0.0471
X10.2989Y7.3139Z-0.0489
X10.3295Y7.3445Z-0.0477
X10.3755Y7.3904Z-0.0484
X10.3908Y7.4057Z-0.0484
X10.3984Y7.4134Z-0.0493
X10.4367Y7.4516Z-0.0473
X10.4749Y7.4899Z-0.0479
X10.5821Y7.5970Z-0.0460
X10.6356Y7.6506Z-0.0454
X10.6968Y7.7118Z-0.0436
X10.7657Y7.7807Z-0.0438
X10.8116Y7.8266Z-0.0431
X10.8422Y7.8572Z-0.0432
X10.8652Y7.8801Z-0.0412
Z0.1500
X10.8652Y8.1630
G1Z-0.0427F100.0
G1X10.8116Y8.1094Z-0.0429F150.0
X10.7351Y8.0329Z-0.0440
X10.7198Y8.0176Z-0.0455
X10.6586Y7.9564Z-0.0451
X10.6356Y7.9334Z-0.0464
X10.5897Y7.8875Z-0.0452
X10.5438Y7.8416Z-0.0470
X10.5362Y7.8340Z-0.0461
X10.5209Y7.8187Z-0.0479
X10.4903Y7.7881Z-0.0485
X10.4826Y7.7804Z-0.0469
X10.4443Y7.7422Z-0.0473
X10.3219Y7.6197Z-0.0482
X10.2913Y7.5891Z-0.0482
X10.2531Y7.5509Z-0.0492
X10.2301Y7.5279Z-0.0479
X10.1842Y7.4820Z-0.0492
X10.1459Y7.4437Z-0.0483
X10.0847Y7.3825Z-0.0490
X9.9547Y7.2525Z-0.0483
X9.8322Y7.1300Z-0.0475
X9.8169Y7.1147Z-0.0492
X9.7863Y7.0841Z-0.0486
X9.7481Y7.0459Z-0.0492
X9.6792Y6.9770Z-0.0499
X9.6486Y6.9464Z-0.0474
X9.5797Y6.8775Z-0.0497
X9.5644Y6.8622Z-0.0500
X9.4650Y6.7628Z-0.0492
X9.4191Y6.7169Z-0.0498
X9.2660Y6.5638Z-0.0519
X9.1666Y6.4644Z-0.0522
X9.0747Y6.3726Z-0.0534
X8.9676Y6.2654Z-0.0527
X8.9447Y6.2425Z-0.0512
X8.8222Y6.1201Z-0.0526
X8.6616Y5.9594Z-0.0507
X8.6233Y5.9211Z-0.0525
X8.6004Y5.8982Z-0.0515
X8.4856Y5.7834Z-0.0510
X8.4014Y5.6992Z-0.0517
X8.3479Y5.6457Z-0.0520
X8.2484Y5.5462Z-0.0541
X8.1872Y5.4850Z-0.0489
X8.1719Y5.4697Z-0.0455
X8.1566Y5.4544Z-0.0362
X8.1413Y5.4391Z-0.0333
X8.1107Y5.4085Z-0.0309
X8.0801Y5.3779Z-0.0267
X8.0571Y5.3549Z-0.0312
X8.0265Y5.3243Z-0.0425
X8.0035Y5.3014Z-0.0457
X7.9653Y5.2631Z-0.0436
X7.9041Y5.2019Z-0.0440
X7.8505Y5.1483Z-0.0431
X7.7434Y5.0412Z-0.0411
X7.7204Y5.0183Z-0.0419
X7.6057Y4.9035Z-0.0420
X7.5751Y4.8729Z-0.0414
X7.4756Y4.7734Z-0.0412
X7.4603Y4.7581Z-0.0423
X7.4297Y4.7275Z-0.0417
X7.3302Y4.6280Z-0.0441
X7.2384Y4.5362Z-0.0450
X7.1772Y4.4750Z-0.0459
X7.1083Y4.4061Z-0.0469
X7.0701Y4.3679Z-0.0459
X6.9936Y4.2914Z-0.0438
X6.9477Y4.2455Z-0.0393
X6.8864Y4.1843Z-0.0362
X6.8788Y4.1766Z-0.0336
X6.8558Y4.1536Z-0.0123
X6.8405Y4.1383Z-0.0099
X6.8023Y4.1001Z-0.0093
X6.7487Y4.0465Z-0.0123
X6.6799Y3.9777Z-0.0090
X6.5880Y3.8858Z-0.0077
X6.5651Y3.8629Z-0.0116
X6.5421Y3.8399Z-0.0191
X6.5268Y3.8246Z-0.0143
X6.5115Y3.8093Z-0.0140
X6.4809Y3.7787Z-0.0219
X6.4656Y3.7634Z-0.0197
X6.4503Y3.7481Z-0.0113
X6.4350Y3.7328Z-0.0082
X6.3815Y3.6793Z-0.0083
X6.2973Y3.5951Z-0.0060
X6.2055Y3.5033Z-0.0066
X6.0218Y3.3196Z-0.0070
X5.9147Y3.2125Z-0.0073
X5.7846Y3.0825Z-0.0077
X5.7540Y3.0518Z-0.0077
X5.6928Y2.9906Z-0.0117
X5.6699Y2.9677Z-0.0189
X5.6546Y2.9524Z-0.0256
X5.6469Y2.9447Z-0.0261
X5.6163Y2.9141Z-0.0172
X5.5321Y2.8300Z-0.0149
X5.4480Y2.7458Z-0.0125
X5.3944Y2.6922Z-0.0090
X5.2643Y2.5622Z-0.0081
X5.1649Y2.4627Z-0.0074
X5.1037Y2.4015Z-0.0097
X5.0884Y2.3862Z-0.0100
X5.0654Y2.3632Z-0.0150
X5.0425Y2.3403Z-0.0311
X5.0195Y2.3173Z-0.0417
X4.9965Y2.2944Z-0.0561
X4.9812Y2.2791Z-0.0596
X4.9736Y2.2714Z-0.0595
X4.9583Y2.2561Z-0.0539
X4.9506Y2.2484Z-0.0548
X4.9430Y2.2408Z-0.0587
X4.9200Y2.2178Z-0.0562
X4.9047Y2.2025Z-0.0591
X4.8971Y2.1949Z-0.0572
X4.8894Y2.1872Z-0.0530
X4.8665Y2.1643Z-0.0477
X4.8588Y2.1566Z-0.0415
X4.8359Y2.1337Z-0.0315
X4.8206Y2.1184Z-0.0174
X4.8129Y2.1107Z-0.0138
X4.7747Y2.0725Z-0.0142
X4.7517Y2.0495Z-0.0146
X4.6981Y1.9960Z-0.0134
X4.6752Y1.9730Z-0.0139
X4.6599Y1.9577Z-0.0171
X4.6522Y1.9500Z-0.0144
X4.6216Y1.9194Z-0.0142
X4.5987Y1.8965Z-0.0145
X4.5834Y1.8812Z-0.0145
X4.5757Y1.8735Z-0.0165
X4.5681Y1.8659Z-0.0213
X4.5604Y1.8582Z-0.0222
X4.5451Y1.8429Z-0.0159
X4.5298Y1.8276Z-0.0162
X4.4916Y1.7894Z-0.0288
X4.4763Y1.7741Z-0.0392
X4.4456Y1.7435Z-0.0525
X4.4380Y1.7358Z-0.0529
X4.4150Y1.7129Z-0.0440
X4.3997Y1.6975Z-0.0456
X4.3921Y1.6899Z-0.0484
X4.3615Y1.6593Z-0.0526
X4.3385Y1.6363Z-0.0465
X4.3309Y1.6287Z-0.0462
X4.3079Y1.6057Z-0.0367
X4.2926Y1.5904Z-0.0344
X4.2697Y1.5675Z-0.0400
X4.2620Y1.5598Z-0.0373
X4.2544Y1.5522Z-0.0323
X4.2314Y1.5292Z-0.0243
X4.2238Y1.5216Z-0.0198
X4.2161Y1.5139Z-0.0175
X4.2008Y1.4986Z-0.0193
X4.1855Y1.4833Z-0.0248
X4.1778Y1.4757Z-0.0252
X4.1549Y1.4527Z-0.0189
X4.1319Y1.4297Z-0.0211
X4.1090Y1.4068Z-0.0261
X4.1013Y1.3991Z-0.0270
X4.0860Y1.3838Z-0.0227
X4.0784Y1.3762Z-0.0225
X4.0478Y1.3456Z-0.0303
X4.0401Y1.3379Z-0.0297
X4.0248Y1.3226Z-0.0251
X4.0095Y1.3073Z-0.0275
X3.9942Y1.2920Z-0.0356
X3.9713Y1.2691Z-0.0542
X3.9636Y1.2614Z-0.0538
X3.9483Y1.2461Z-0.0510
X3.9407Y1.2385Z-0.0535
X3.9254Y1.2232Z-0.0659
X3.9177Y1.2155Z-0.0691
X3.8871Y1.1849Z-0.0710
X3.8794Y1.1773Z-0.0692
X3.8718Y1.1696Z-0.0639
X3.8565Y1.1543Z-0.0461
X3.8412Y1.1390Z-0.0399
X3.8106Y1.1084Z-0.0338
X3.7188Y1.0166Z-0.0299
X3.6652Y0.9630Z-0.0290
X3.6269Y0.9248Z-0.0265
X3.5887Y0.8865Z-0.0241
X3.5275Y0.8253Z-0.0217
X3.4816Y0.7794Z-0.0214
X3.4510Y0.7488Z-0.0226
X3.4280Y0.7258Z-0.0133
X3.4051Y0.7029Z-0.0117
X3.3515Y0.6493Z-0.0162
X3.2444Y0.5422Z-0.0143
X3.1602Y0.4580Z-0.0083
X3.1143Y0.4121Z-0.0073
X2.9766Y0.2744Z-0.0136
X2.8465Y0.1443Z-0.0118
X2.7700Y0.0678Z-0.0133
X2.7241Y0.0219Z-0.0133
X2.7088Y0.0066Z-0.0135
Z0.1500
X2.4259Y0.0066
G1Z-0.0184F100.0
G1X2.5484Y0.1290Z-0.0128F150.0
X2.6555Y0.2361Z-0.0132
X2.7702Y0.3509Z-0.0112
X2.8927Y0.4733Z-0.0126
X2.9692Y0.5498Z-0.0081
X3.0610Y0.6416Z-0.0081
X3.1757Y0.7564Z-0.0111
X3.2370Y0.8176Z-0.0141
X3.2752Y0.8559Z-0.0197
X3.3058Y0.8865Z-0.0167
X3.3517Y0.9324Z-0.0091
X3.3747Y0.9553Z-0.0105
X3.3900Y0.9706Z-0.0153
X3.4053Y0.9859Z-0.0247
X3.4129Y0.9936Z-0.0275
X3.4359Y1.0165Z-0.0265
X3.5047Y1.0854Z-0.0261
X3.6119Y1.1925Z-0.0291
X3.6272Y1.2078Z-0.0315
X3.6425Y1.2231Z-0.0356
X3.6654Y1.2461Z-0.0285
X3.6807Y1.2614Z-0.0278
X3.7037Y1.2843Z-0.0407
X3.7113Y1.2920Z-0.0413
X3.7343Y1.3149Z-0.0382
X3.7572Y1.3379Z-0.0359
X3.8031Y1.3838Z-0.0339
X3.8950Y1.4756Z-0.0296
X3.9179Y1.4986Z-0.0284
X3.9332Y1.5139Z-0.0271
X3.9485Y1.5292Z-0.0308
X3.9562Y1.5368Z-0.0336
X3.9715Y1.5521Z-0.0421
X4.0021Y1.5827Z-0.0510
X4.0174Y1.5980Z-0.0529
X4.0250Y1.6057Z-0.0500
X4.0556Y1.6363Z-0.0464
X4.0633Y1.6439Z-0.0418
X4.0862Y1.6669Z-0.0360
X4.1015Y1.6822Z-0.0250
X4.1092Y1.6898Z-0.0226
X4.1168Y1.6975Z-0.0224
X4.1245Y1.7051Z-0.0255
X4.1398Y1.7204Z-0.0381
X4.1627Y1.7434Z-0.0464
X4.1781Y1.7587Z-0.0448
X4.1934Y1.7740Z-0.0373
X4.2010Y1.7817Z-0.0305
X4.2087Y1.7893Z-0.0280
X4.2163Y1.7970Z-0.0285
X4.2240Y1.8046Z-0.0314
X4.2316Y1.8123Z-0.0381
X4.2393Y1.8199Z-0.0397
X4.2622Y1.8429Z-0.0240
X4.2852Y1.8658Z-0.0189
X4.3158Y1.8964Z-0.0202
X4.3464Y1.9270Z-0.0163
X4.3770Y1.9576Z-0.0165
X4.3846Y1.9653Z-0.0148
X4.3999Y1.9806Z-0.0176
X4.4229Y2.0035Z-0.0132
X4.4611Y2.0418Z-0.0135
X4.4764Y2.0571Z-0.0163
X4.5071Y2.0877Z-0.0177
X4.5147Y2.0954Z-0.0199
X4.5300Y2.1107Z-0.0292
X4.5453Y2.1260Z-0.0315
X4.5530Y2.1336Z-0.0303
X4.5683Y2.1489Z-0.0402
X4.5836Y2.1642Z-0.0553
X4.5989Y2.1795Z-0.0605
X4.6065Y2.1872Z-0.0611
X4.6218Y2.2025Z-0.0578
X4.6371Y2.2178Z-0.0593
X4.6524Y2.2331Z-0.0544
X4.6754Y2.2560Z-0.0411
X4.6830Y2.2637Z-0.0422
X4.6907Y2.2713Z-0.0461
X4.6983Y2.2790Z-0.0474
X4.7060Y2.2866Z-0.0445
X4.7213Y2.3019Z-0.0251
X4.7289Y2.3096Z-0.0190
X4.7366Y2.3172Z-0.0158
X4.7672Y2.3478Z-0.0131
X4.7901Y2.3708Z-0.0155
X4.8054Y2.3861Z-0.0135
X4.8437Y2.4244Z-0.0143
X4.8973Y2.4779Z-0.0087
X4.9508Y2.5315Z-0.0085
X4.9814Y2.5621Z-0.0057
X5.0044Y2.5850Z-0.0061
X5.1421Y2.7227Z-0.0072
X5.1727Y2.7534Z-0.0075
X5.2186Y2.7993Z-0.0069
X5.2798Y2.8605Z-0.0089
X5.3028Y2.8834Z-0.0079
X5.3640Y2.9446Z-0.0125
X5.3869Y2.9676Z-0.0155
X5.4328Y3.0135Z-0.0177
X5.4711Y3.0517Z-0.0167
X5.4941Y3.0747Z-0.0198
X5.5094Y3.0900Z-0.0197
X5.5247Y3.1053Z-0.0234
X5.5323Y3.1130Z-0.0229
X5.5400Y3.1206Z-0.0204
X5.5553Y3.1359Z-0.0120
X5.5782Y3.1589Z-0.0072
X5.6930Y3.2736Z-0.0054
X5.7389Y3.3195Z-0.0076
X5.8154Y3.3961Z-0.0065
X5.9149Y3.4955Z-0.0065
X6.0985Y3.6791Z-0.0061
X6.1291Y3.7098Z-0.0067
X6.2286Y3.8092Z-0.0074
X6.3051Y3.8857Z-0.0072
X6.3892Y3.9699Z-0.0071
X6.5346Y4.1153Z-0.0072
X6.5652Y4.1459Z-0.0074
X6.5805Y4.1612Z-0.0117
X6.5882Y4.1688Z-0.0164
X6.6035Y4.1841Z-0.0341
X6.6111Y4.1918Z-0.0401
X6.6188Y4.1994Z-0.0415
X6.6341Y4.2147Z-0.0411
X6.6494Y4.2300Z-0.0443
X6.6953Y4.2759Z-0.0449
X6.7718Y4.3524Z-0.0476
X6.7948Y4.3754Z-0.0487
X6.8407Y4.4213Z-0.0510
X6.8560Y4.4366Z-0.0496
X6.8942Y4.4749Z-0.0514
X6.9478Y4.5284Z-0.0493
X6.9784Y4.5590Z-0.0492
X7.0396Y4.6202Z-0.0500
X7.1391Y4.7197Z-0.0486
X7.1620Y4.7427Z-0.0486
X7.2003Y4.7809Z-0.0475
X7.2691Y4.8498Z-0.0470
X7.3074Y4.8880Z-0.0451
X7.4145Y4.9951Z-0.0450
X7.4834Y5.0640Z-0.0445
X7.5446Y5.1252Z-0.0458
X7.6058Y5.1864Z-0.0463
X7.6593Y5.2400Z-0.0483
X7.6899Y5.2706Z-0.0473
X7.7435Y5.3241Z-0.0461
X7.8659Y5.4466Z-0.0458
X7.9271Y5.5078Z-0.0463
X7.9424Y5.5231Z-0.0482
X7.9730Y5.5537Z-0.0463
X8.0036Y5.5843Z-0.0477
X8.0801Y5.6608Z-0.0465
X8.1108Y5.6914Z-0.0481
X8.1490Y5.7297Z-0.0484
X8.1873Y5.7679Z-0.0495
X8.2102Y5.7909Z-0.0468
X8.3479Y5.9286Z-0.0535
X8.4015Y5.9821Z-0.0539
X8.4398Y6.0204Z-0.0571
X8.4704Y6.0510Z-0.0572
X8.5163Y6.0969Z-0.0560
X8.5851Y6.1658Z-0.0572
X8.6081Y6.1887Z-0.0535
X8.6310Y6.2117Z-0.0460
X8.7075Y6.2882Z-0.0382
X8.7611Y6.3418Z-0.0384
X8.7917Y6.3724Z-0.0451
X8.8147Y6.3953Z-0.0437
X8.8300Y6.4106Z-0.0419
X8.8682Y6.4489Z-0.0427
X8.9065Y6.4871Z-0.0487
X8.9447Y6.5254Z-0.0526
X9.0059Y6.5866Z-0.0509
X9.0672Y6.6478Z-0.0501
X9.0978Y6.6784Z-0.0506
X9.1819Y6.7626Z-0.0492
X9.2125Y6.7932Z-0.0500
X9.2355Y6.8161Z-0.0490
X9.3426Y6.9232Z-0.0478
X9.3655Y6.9462Z-0.0479
X9.4038Y6.9845Z-0.0484
X9.5186Y7.0992Z-0.0492
X9.5492Y7.1298Z-0.0487
X9.6410Y7.2216Z-0.0492
X9.7175Y7.2981Z-0.0483
X9.7864Y7.3670Z-0.0488
X9.8170Y7.3976Z-0.0507
X9.8935Y7.4741Z-0.0467
X10.0006Y7.5812Z-0.0478
X10.0542Y7.6348Z-0.0494
X10.0924Y7.6731Z-0.0481
X10.1383Y7.7190Z-0.0491
X10.2837Y7.8643Z-0.0482
X10.4367Y8.0174Z-0.0475
X10.5209Y8.1015Z-0.0465
X10.5515Y8.1321Z-0.0464
X10.5821Y8.1627Z-0.0462
X10.6127Y8.1933Z-0.0438
X10.6280Y8.2086Z-0.0450
X10.6509Y8.2316Z-0.0438
X10.7351Y8.3158Z-0.0446
X10.7734Y8.3540Z-0.0436
X10.8652Y8.4458Z-0.0446
Z0.1500
X10.8652Y8.7287
G1Z-0.0430F100.0
G1X10.7504Y8.6139Z-0.0456F150.0
X10.6510Y8.5144Z-0.0468
X10.6204Y8.4838Z-0.0457
X10.5668Y8.4303Z-0.0469
X10.5362Y8.3997Z-0.0451
X10.4903Y8.3538Z-0.0458
X10.3908Y8.2543Z-0.0458
X10.3067Y8.1702Z-0.0470
X10.2914Y8.1548Z-0.0457
X10.2837Y8.1472Z-0.0477
X10.2531Y8.1166Z-0.0468
X10.1613Y8.0248Z-0.0470
X10.1383Y8.0018Z-0.0476
X10.0618Y7.9253Z-0.0480
X10.0083Y7.8718Z-0.0477
X9.9853Y7.8488Z-0.0475
X9.8553Y7.7187Z-0.0485
X9.8400Y7.7034Z-0.0465
X9.7481Y7.6116Z-0.0488
X9.6869Y7.5504Z-0.0481
X9.6257Y7.4892Z-0.0477
X9.5339Y7.3974Z-0.0509
X9.5033Y7.3668Z-0.0482
X9.4651Y7.3285Z-0.0501
X9.4038Y7.2673Z-0.0494
X9.3809Y7.2444Z-0.0504
X9.3579Y7.2214Z-0.0490
X9.2967Y7.1602Z-0.0495
X9.1896Y7.0531Z-0.0477
X9.1590Y7.0225Z-0.0421
X9.1208Y6.9843Z-0.0396
X9.1055Y6.9690Z-0.0379
X8.9830Y6.8465Z-0.0373
X8.9601Y6.8236Z-0.0405
X8.9371Y6.8006Z-0.0452
X8.9142Y6.7777Z-0.0435
X8.8836Y6.7471Z-0.0344
X8.8530Y6.7165Z-0.0309
X8.7382Y6.6017Z-0.0390
X8.7229Y6.5864Z-0.0368
X8.6923Y6.5558Z-0.0320
X8.6617Y6.5252Z-0.0291
X8.6311Y6.4946Z-0.0301
X8.5775Y6.4410Z-0.0378
X8.5163Y6.3798Z-0.0396
X8.4704Y6.3339Z-0.0439
X8.4322Y6.2957Z-0.0538
X8.4169Y6.2804Z-0.0570
X8.4016Y6.2651Z-0.0543
X8.3863Y6.2498Z-0.0498
X8.3557Y6.2192Z-0.0487
X8.2868Y6.1503Z-0.0459
X8.2639Y6.1273Z-0.0432
X8.2333Y6.0967Z-0.0439
X8.2103Y6.0738Z-0.0404
X8.1720Y6.0355Z-0.0413
X8.1567Y6.0202Z-0.0401
X8.1338Y5.9973Z-0.0412
X8.1261Y5.9896Z-0.0338
X8.1185Y5.9820Z-0.0336
X8.1108Y5.9743Z-0.0378
X8.0879Y5.9514Z-0.0411
X8.0573Y5.9208Z-0.0394
X8.0190Y5.8825Z-0.0399
X7.9884Y5.8519Z-0.0399
X7.9349Y5.7984Z-0.0400
X7.9196Y5.7831Z-0.0387
X7.8890Y5.7524Z-0.0416
X7.8584Y5.7218Z-0.0407
X7.7818Y5.6453Z-0.0421
X7.6900Y5.5535Z-0.0408
X7.6441Y5.5076Z-0.0398
X7.6059Y5.4694Z-0.0398
X7.5753Y5.4388Z-0.0396
X7.5447Y5.4082Z-0.0401
X7.5294Y5.3929Z-0.0396
X7.4682Y5.3316Z-0.0412
X7.4299Y5.2934Z-0.0412
X7.3763Y5.2398Z-0.0403
X7.2845Y5.1480Z-0.0396
X7.1851Y5.0486Z-0.0401
X7.1468Y5.0103Z-0.0397
X7.0856Y4.9491Z-0.0453
X7.0397Y4.9032Z-0.0478
X6.9708Y4.8343Z-0.0519
X6.9173Y4.7808Z-0.0490
X6.8867Y4.7502Z-0.0514
X6.8255Y4.6890Z-0.0571
X6.7643Y4.6278Z-0.0584
X6.7184Y4.5819Z-0.0565
X6.7031Y4.5665Z-0.0555
X6.6801Y4.5436Z-0.0572
X6.6342Y4.4977Z-0.0567
X6.6189Y4.4824Z-0.0553
X6.6036Y4.4671Z-0.0567
X6.5194Y4.3829Z-0.0539
X6.4659Y4.3294Z-0.0553
X6.4353Y4.2988Z-0.0479
X6.4123Y4.2758Z-0.0172
X6.4047Y4.2682Z-0.0121
X6.3664Y4.2299Z-0.0079
X6.2899Y4.1534Z-0.0074
X6.2210Y4.0845Z-0.0057
X6.1216Y3.9851Z-0.0068
X6.0221Y3.8856Z-0.0071
X5.9915Y3.8550Z-0.0071
X5.9150Y3.7785Z-0.0068
X5.7467Y3.6102Z-0.0077
X5.6166Y3.4801Z-0.0108
X5.5937Y3.4572Z-0.0090
X5.5631Y3.4266Z-0.0063
X5.4636Y3.3271Z-0.0093
X5.4483Y3.3118Z-0.0121
X5.4253Y3.2888Z-0.0220
X5.3794Y3.2429Z-0.0190
X5.3259Y3.1894Z-0.0194
X5.2800Y3.1435Z-0.0157
X5.2341Y3.0976Z-0.0120
X5.2111Y3.0746Z-0.0124
X5.1576Y3.0211Z-0.0096
X5.1040Y2.9675Z-0.0093
X5.0352Y2.8986Z-0.0063
X4.9280Y2.7915Z-0.0069
X4.8821Y2.7456Z-0.0073
X4.8056Y2.6691Z-0.0099
X4.7750Y2.6385Z-0.0107
X4.7521Y2.6156Z-0.0108
X4.7291Y2.5926Z-0.0116
X4.7138Y2.5773Z-0.0124
X4.6909Y2.5543Z-0.0110
X4.6297Y2.4931Z-0.0113
X4.5225Y2.3860Z-0.0117
X4.4766Y2.3401Z-0.0131
X4.4613Y2.3248Z-0.0134
X4.4384Y2.3019Z-0.0172
X4.4307Y2.2942Z-0.0234
X4.4154Y2.2789Z-0.0425
X4.4078Y2.2713Z-0.0458
X4.3925Y2.2560Z-0.0389
X4.3695Y2.2330Z-0.0215
X4.3619Y2.2254Z-0.0169
X4.3389Y2.2024Z-0.0148
X4.3236Y2.1871Z-0.0178
X4.2854Y2.1488Z-0.0385
X4.2777Y2.1412Z-0.0363
X4.2624Y2.1259Z-0.0250
X4.2395Y2.1029Z-0.0205
X4.2241Y2.0876Z-0.0153
X4.2012Y2.0647Z-0.0138
X4.1782Y2.0417Z-0.0168
X4.1323Y1.9958Z-0.0171
X4.1017Y1.9652Z-0.0214
X4.0788Y1.9423Z-0.0192
X4.0329Y1.8964Z-0.0269
X4.0099Y1.8734Z-0.0240
X4.0023Y1.8658Z-0.0264
X3.9870Y1.8505Z-0.0394
X3.9793Y1.8428Z-0.0467
X3.9564Y1.8199Z-0.0562
X3.9105Y1.7739Z-0.0565
X3.8875Y1.7510Z-0.0507
X3.8646Y1.7280Z-0.0366
X3.8416Y1.7051Z-0.0298
X3.8186Y1.6821Z-0.0317
X3.7727Y1.6362Z-0.0292
X3.7192Y1.5827Z-0.0317
X3.6733Y1.5368Z-0.0297
X3.6503Y1.5138Z-0.0230
X3.5968Y1.4603Z-0.0268
X3.5738Y1.4373Z-0.0247
X3.5662Y1.4297Z-0.0258
X3.5356Y1.3991Z-0.0224
X3.5203Y1.3838Z-0.0243
X3.4820Y1.3455Z-0.0210
X3.4284Y1.2919Z-0.0199
X3.3978Y1.2613Z-0.0163
X3.3443Y1.2078Z-0.0086
X3.2907Y1.1542Z-0.0088
X3.2525Y1.1160Z-0.0129
X3.2066Y1.0701Z-0.0203
X3.1683Y1.0318Z-0.0171
X3.1454Y1.0089Z-0.0118
X3.0842Y0.9476Z-0.0084
X2.9235Y0.7870Z-0.0081
X2.8470Y0.7105Z-0.0096
X2.7475Y0.6110Z-0.0142
X2.7093Y0.5727Z-0.0125
X2.6634Y0.5268Z-0.0115
X2.5715Y0.4350Z-0.0146
X2.4644Y0.3279Z-0.0129
X2.4185Y0.2820Z-0.0133
X2.3420Y0.2055Z-0.0166
X2.2272Y0.0907Z-0.0123
X2.1431Y0.0066Z-0.0111
Z0.1500
X1.8602Y0.0066
G1Z-0.0050F100.0
G1X1.9138Y0.0601Z-0.0063F150.0
X1.9444Y0.0907Z-0.0063
X2.1051Y0.2514Z-0.0104
X2.1816Y0.3279Z-0.0138
X2.2887Y0.4350Z-0.0173
X2.4494Y0.5957Z-0.0144
X2.5794Y0.7257Z-0.0154
X2.6406Y0.7869Z-0.0183
X2.7477Y0.8941Z-0.0108
X2.7630Y0.9094Z-0.0129
X2.7860Y0.9323Z-0.0092
X2.8625Y1.0088Z-0.0067
X2.9543Y1.1006Z-0.0070
X3.0385Y1.1848Z-0.0097
X3.0844Y1.2307Z-0.0160
X3.1073Y1.2536Z-0.0205
X3.1379Y1.2842Z-0.0194
X3.1991Y1.3455Z-0.0109
X3.2603Y1.4067Z-0.0084
X3.3062Y1.4526Z-0.0085
X3.3445Y1.4908Z-0.0136
X3.3827Y1.5291Z-0.0199
X3.4133Y1.5597Z-0.0195
X3.4363Y1.5826Z-0.0203
X3.4516Y1.5979Z-0.0188
X3.4822Y1.6285Z-0.0197
X3.5052Y1.6515Z-0.0239
X3.5281Y1.6744Z-0.0209
X3.5587Y1.7050Z-0.0239
X3.5740Y1.7203Z-0.0275
X3.6046Y1.7509Z-0.0240
X3.6429Y1.7892Z-0.0269
X3.6658Y1.8122Z-0.0253
X3.6888Y1.8351Z-0.0275
X3.7041Y1.8504Z-0.0294
X3.7347Y1.8810Z-0.0258
X3.7576Y1.9040Z-0.0252
X3.7882Y1.9346Z-0.0313
X3.8188Y1.9652Z-0.0270
X3.8647Y2.0111Z-0.0323
X3.8953Y2.0417Z-0.0283
X3.9336Y2.0799Z-0.0277
X3.9566Y2.1029Z-0.0295
X3.9719Y2.1182Z-0.0355
X3.9795Y2.1258Z-0.0407
X3.9948Y2.1411Z-0.0569
X4.0025Y2.1488Z-0.0618
X4.0178Y2.1641Z-0.0628
X4.0254Y2.1717Z-0.0614
X4.0484Y2.1947Z-0.0645
X4.0866Y2.2329Z-0.0601
X4.1096Y2.2559Z-0.0615
X4.1249Y2.2712Z-0.0564
X4.1325Y2.2788Z-0.0528
X4.1555Y2.3018Z-0.0337
X4.1937Y2.3401Z-0.0150
X4.2779Y2.4242Z-0.0093
X4.3085Y2.4548Z-0.0093
X4.3773Y2.5237Z-0.0090
X4.4921Y2.6384Z-0.0097
X4.5457Y2.6920Z-0.0122
X4.6604Y2.8068Z-0.0089
X4.7063Y2.8527Z-0.0085
X4.7752Y2.9215Z-0.0058
X4.8823Y3.0286Z-0.0083
X4.9052Y3.0516Z-0.0095
X4.9741Y3.1204Z-0.0112
X5.1042Y3.2505Z-0.0133
X5.2189Y3.3653Z-0.0165
X5.2725Y3.4188Z-0.0205
X5.2954Y3.4418Z-0.0200
X5.3184Y3.4647Z-0.0249
X5.3260Y3.4724Z-0.0224
X5.3337Y3.4800Z-0.0173
X5.3566Y3.5030Z-0.0119
X5.4025Y3.5489Z-0.0084
X5.4714Y3.6177Z-0.0082
X5.4944Y3.6407Z-0.0121
X5.6244Y3.7707Z-0.0088
X5.7468Y3.8932Z-0.0080
X5.8769Y4.0232Z-0.0081
X5.9611Y4.1074Z-0.0096
X6.0605Y4.2068Z-0.0108
X6.0911Y4.2374Z-0.0110
X6.2059Y4.3522Z-0.0177
X6.2212Y4.3675Z-0.0205
X6.2365Y4.3828Z-0.0286
X6.2594Y4.4058Z-0.0585
X6.2671Y4.4134Z-0.0660
X6.3053Y4.4517Z-0.0736
X6.3436Y4.4899Z-0.0754
X6.4507Y4.5970Z-0.0662
X6.4737Y4.6200Z-0.0647
X6.5655Y4.7118Z-0.0583
X6.6037Y4.7500Z-0.0513
X6.6267Y4.7730Z-0.0532
X6.6573Y4.8036Z-0.0584
X6.6879Y4.8342Z-0.0569
X6.7032Y4.8495Z-0.0548
X6.7414Y4.8878Z-0.0545
X6.8103Y4.9566Z-0.0468
X6.8332Y4.9796Z-0.0454
X6.8638Y5.0102Z-0.0432
X6.8791Y5.0255Z-0.0417
X6.9021Y5.0484Z-0.0398
X6.9480Y5.0943Z-0.0359
X6.9939Y5.1402Z-0.0335
X7.0092Y5.1555Z-0.0345
X7.1087Y5.2550Z-0.0338
X7.3229Y5.4692Z-0.0343
X7.3611Y5.5075Z-0.0348
X7.3688Y5.5151Z-0.0364
X7.3994Y5.5457Z-0.0340
X7.4453Y5.5916Z-0.0340
X7.5371Y5.6834Z-0.0340
X7.5677Y5.7140Z-0.0372
X7.6595Y5.8058Z-0.0378
X7.7207Y5.8671Z-0.0361
X7.7972Y5.9436Z-0.0345
X7.8584Y6.0048Z-0.0358
X7.9655Y6.1119Z-0.0374
X7.9809Y6.1272Z-0.0370
X8.1645Y6.3108Z-0.0405
X8.1951Y6.3414Z-0.0418
X8.3175Y6.4638Z-0.0438
X8.3557Y6.5021Z-0.0490
X8.4246Y6.5709Z-0.0524
X8.5317Y6.6780Z-0.0405
X8.5776Y6.7239Z-0.0390
X8.6388Y6.7851Z-0.0392
X8.7077Y6.8540Z-0.0555
X8.7306Y6.8770Z-0.0572
X8.7918Y6.9382Z-0.0496
X8.8530Y6.9994Z-0.0409
X8.8913Y7.0376Z-0.0425
X8.9219Y7.0682Z-0.0475
X8.9831Y7.1294Z-0.0453
X9.0061Y7.1524Z-0.0504
X9.0214Y7.1677Z-0.0557
X9.0367Y7.1830Z-0.0664
X9.0443Y7.1906Z-0.0699
X9.0826Y7.2289Z-0.0709
X9.0979Y7.2442Z-0.0675
X9.1208Y7.2671Z-0.0540
X9.1438Y7.2901Z-0.0512
X9.1667Y7.3130Z-0.0536
X9.1744Y7.3207Z-0.0560
X9.2203Y7.3666Z-0.0503
X9.3350Y7.4814Z-0.0504
X9.3962Y7.5426Z-0.0512
X9.4574Y7.6038Z-0.0480
X9.4957Y7.6420Z-0.0498
X9.5263Y7.6726Z-0.0489
X9.5799Y7.7262Z-0.0492
X9.8017Y7.9481Z-0.0490
X9.9012Y8.0475Z-0.0482
X9.9394Y8.0858Z-0.0484
X10.0925Y8.2388Z-0.0478
X10.1154Y8.2617Z-0.0471
X10.1384Y8.2847Z-0.0476
X10.2149Y8.3612Z-0.0479
X10.2684Y8.4148Z-0.0476
X10.2990Y8.4454Z-0.0482
X10.3755Y8.5219Z-0.0464
X10.3985Y8.5448Z-0.0449
X10.4367Y8.5831Z-0.0473
X10.6586Y8.8049Z-0.0459
X10.7198Y8.8662Z-0.0458
X10.8040Y8.9503Z-0.0463
X10.8346Y8.9809Z-0.0452
X10.8652Y9.0115Z-0.0452
Z0.1500
X10.8652Y9.2944
G1Z-0.0469F100.0
G1X10.8422Y9.2714Z-0.0462F150.0
X10.8040Y9.2332Z-0.0471
X10.7734Y9.2026Z-0.0450
X10.7275Y9.1567Z-0.0468
X10.5668Y8.9960Z-0.0469
X10.5515Y8.9807Z-0.0478
X10.5362Y8.9654Z-0.0467
X10.4215Y8.8506Z-0.0480
X10.3679Y8.7971Z-0.0478
X10.2455Y8.6747Z-0.0470
X10.1613Y8.5905Z-0.0461
X10.1384Y8.5676Z-0.0489
X10.0695Y8.4987Z-0.0481
X10.0389Y8.4681Z-0.0483
X10.0313Y8.4604Z-0.0468
X10.0083Y8.4375Z-0.0482
X9.9854Y8.4145Z-0.0479
X9.9471Y8.3763Z-0.0475
X9.9242Y8.3533Z-0.0480
X9.8247Y8.2539Z-0.0500
X9.8094Y8.2386Z-0.0492
X9.7865Y8.2156Z-0.0498
X9.7559Y8.1850Z-0.0497
X9.6947Y8.1238Z-0.0497
X9.6717Y8.1009Z-0.0510
X9.6488Y8.0779Z-0.0517
X9.6028Y8.0320Z-0.0498
X9.5110Y7.9402Z-0.0502
X9.4422Y7.8714Z-0.0486
X9.4192Y7.8484Z-0.0483
X9.3274Y7.7566Z-0.0509
X9.2356Y7.6648Z-0.0520
X9.2280Y7.6571Z-0.0528
X9.2050Y7.6342Z-0.0509
X9.1821Y7.6112Z-0.0516
X9.1591Y7.5883Z-0.0524
X9.1362Y7.5653Z-0.0541
X9.1209Y7.5500Z-0.0580
X9.0979Y7.5271Z-0.0572
X9.0903Y7.5194Z-0.0620
X9.0826Y7.5118Z-0.0697
X9.0750Y7.5041Z-0.0738
X9.0520Y7.4812Z-0.0799
X9.0291Y7.4582Z-0.0803
X9.0138Y7.4429Z-0.0760
X8.9755Y7.4047Z-0.0722
X8.9372Y7.3664Z-0.0789
X8.8913Y7.3205Z-0.0773
X8.8607Y7.2899Z-0.0701
X8.8454Y7.2746Z-0.0695
X8.8378Y7.2670Z-0.0676
X8.8148Y7.2440Z-0.0555
X8.8072Y7.2364Z-0.0534
X8.7919Y7.2211Z-0.0581
X8.7842Y7.2134Z-0.0590
X8.7689Y7.1981Z-0.0568
X8.7613Y7.1905Z-0.0577
X8.7536Y7.1828Z-0.0618
X8.7307Y7.1599Z-0.0665
X8.7154Y7.1446Z-0.0669
X8.7001Y7.1292Z-0.0713
X8.6848Y7.1139Z-0.0763
X8.6465Y7.0757Z-0.0791
X8.5853Y7.0145Z-0.0792
X8.5471Y6.9762Z-0.0771
X8.5241Y6.9533Z-0.0692
X8.5012Y6.9303Z-0.0552
X8.4935Y6.9227Z-0.0532
X8.4553Y6.8844Z-0.0528
X8.4247Y6.8538Z-0.0508
X8.4017Y6.8309Z-0.0478
X8.3482Y6.7773Z-0.0426
X8.3176Y6.7467Z-0.0429
X8.2793Y6.7085Z-0.0417
X8.2257Y6.6549Z-0.0419
X8.1492Y6.5784Z-0.0391
X8.0957Y6.5249Z-0.0374
X8.0574Y6.4866Z-0.0380
X8.0268Y6.4560Z-0.0372
X7.9886Y6.4177Z-0.0396
X7.8509Y6.2800Z-0.0384
X7.8279Y6.2571Z-0.0371
X7.7132Y6.1423Z-0.0359
X7.6826Y6.1117Z-0.0374
X7.5831Y6.0123Z-0.0387
X7.5601Y5.9893Z-0.0413
X7.4913Y5.9205Z-0.0348
X7.3689Y5.7980Z-0.0342
X7.3383Y5.7674Z-0.0342
X7.2924Y5.7215Z-0.0325
X7.2159Y5.6450Z-0.0316
X7.0935Y5.5226Z-0.0318
X7.0246Y5.4538Z-0.0329
X6.9404Y5.3696Z-0.0303
X6.8257Y5.2549Z-0.0332
X6.7721Y5.2013Z-0.0338
X6.7033Y5.1325Z-0.0386
X6.6497Y5.0789Z-0.0424
X6.6115Y5.0406Z-0.0432
X6.5579Y4.9871Z-0.0482
X6.5503Y4.9794Z-0.0473
X6.5350Y4.9641Z-0.0504
X6.4967Y4.9259Z-0.0525
X6.4738Y4.9029Z-0.0595
X6.4432Y4.8723Z-0.0644
X6.4279Y4.8570Z-0.0660
X6.3973Y4.8264Z-0.0602
X6.3590Y4.7882Z-0.0564
X6.3131Y4.7423Z-0.0651
X6.2442Y4.6734Z-0.0725
X6.1830Y4.6122Z-0.0787
X6.1524Y4.5816Z-0.0771
X6.1371Y4.5663Z-0.0742
X6.1218Y4.5510Z-0.0680
X6.1142Y4.5434Z-0.0696
X6.0989Y4.5281Z-0.0642
X6.0912Y4.5204Z-0.0596
X6.0759Y4.5051Z-0.0400
X6.0683Y4.4975Z-0.0334
X6.0606Y4.4898Z-0.0305
X6.0224Y4.4515Z-0.0263
X5.9306Y4.3597Z-0.0235
X5.8770Y4.3062Z-0.0228
X5.8388Y4.2679Z-0.0218
X5.7546Y4.1838Z-0.0170
X5.6399Y4.0690Z-0.0098
X5.5174Y3.9466Z-0.0091
X5.4486Y3.8778Z-0.0125
X5.3950Y3.8242Z-0.0137
X5.3491Y3.7783Z-0.0083
X5.2573Y3.6865Z-0.0114
X5.2344Y3.6635Z-0.0146
X5.2191Y3.6482Z-0.0216
X5.2114Y3.6406Z-0.0232
X5.1502Y3.5794Z-0.0199
X5.1349Y3.5641Z-0.0204
X5.1120Y3.5411Z-0.0174
X4.9972Y3.4264Z-0.0156
X4.9666Y3.3958Z-0.0139
X4.8824Y3.3116Z-0.0133
X4.8595Y3.2887Z-0.0124
X4.8059Y3.2351Z-0.0121
X4.7906Y3.2198Z-0.0129
X4.7830Y3.2122Z-0.0113
X4.7371Y3.1663Z-0.0164
X4.7218Y3.1510Z-0.0220
X4.7141Y3.1433Z-0.0231
X4.6912Y3.1203Z-0.0128
X4.6682Y3.0974Z-0.0104
X4.5841Y3.0132Z-0.0090
X4.5535Y2.9826Z-0.0098
X4.5305Y2.9597Z-0.0104
X4.5152Y2.9444Z-0.0114
X4.4693Y2.8985Z-0.0098
X4.4464Y2.8755Z-0.0094
X4.4081Y2.8373Z-0.0075
X4.3775Y2.8067Z-0.0067
X4.3240Y2.7531Z-0.0062
X4.1403Y2.5695Z-0.0090
X4.1250Y2.5542Z-0.0086
X4.1021Y2.5313Z-0.0105
X4.0485Y2.4777Z-0.0136
X4.0256Y2.4548Z-0.0128
X4.0026Y2.4318Z-0.0154
X3.9950Y2.4241Z-0.0178
X3.9720Y2.4012Z-0.0160
X3.9261Y2.3553Z-0.0249
X3.8879Y2.3170Z-0.0312
X3.8726Y2.3017Z-0.0339
