(VECTRIC POST REV.)
(C9BFEAB1355AE3F66DEE4C3477420302)
T1M6
G17
G0Z2.0000
G0X0.0000Y0.0000S18000M3
G0X10.8617Y0.0206
G0Z0.5000
G1Z-0.0006F100.0
G1X10.8111Y0.0002Z-0.0011F200.0
Z0.0200
X10.7650Y0.0034
G1Z-0.0009F100.0
G1X10.8627Y0.0429Z-0.0009F200.0
Z0.0200
X10.8621Y0.0645
G1Z-0.0007F100.0
G1X10.8421Y0.0564Z-0.0022F200.0
X10.8021Y0.0403Z-0.0003
X10.7122Y0.0040Z-0.0009
Z0.0200
X10.6489Y0.0002
G1Z-0.0012F100.0
G1X10.8718Y0.0903Z-0.0001F200.0
Z0.0200
X10.8622Y0.1082
G1Z-0.0006F100.0
G1X10.6038Y0.0038Z-0.0016F200.0
Z0.0200
X10.5403Y0.0000
G1Z-0.0029F100.0
G1X10.7815Y0.0975Z-0.0004F200.0
X10.8619Y0.1300Z-0.0017
Z0.0200
X10.8717Y0.1558
G1Z-0.0012F100.0
G1X10.5475Y0.0248Z-0.0019F200.0
X10.4866Y0.0002Z-0.0035
Z0.0200
X10.4419Y0.0040
G1Z-0.0035F100.0
G1X10.6920Y0.1050Z-0.0011F200.0
X10.7920Y0.1454Z-0.0016
X10.8120Y0.1535Z-0.0012
X10.8620Y0.1737Z-0.0014
Z0.0200
X10.8618Y0.1955
G1Z-0.0039F100.0
G1X10.8215Y0.1792Z-0.0010F200.0
X10.4890Y0.0449Z-0.0021
X10.4084Y0.0123Z-0.0034
X10.3782Y0.0001Z-0.0033
Z0.0200
X10.3336Y0.0039
G1Z-0.0034F100.0
G1X10.7125Y0.1570Z-0.0006F200.0
X10.8621Y0.2175Z-0.0011
Z0.0200
X10.8619Y0.2392
G1Z-0.0012F100.0
G1X10.4906Y0.0892Z-0.0016F200.0
X10.2698Y0.0000Z-0.0037
Z0.0200
X10.2160Y0.0001
G1Z-0.0038F100.0
G1X10.7104Y0.1999Z-0.0006F200.0
X10.8617Y0.2610Z-0.0011
Z0.0200
X10.8620Y0.2830
G1Z-0.0008F100.0
G1X10.4017Y0.0970Z-0.0022F200.0
X10.1715Y0.0040Z-0.0038
Z0.0200
X10.1077Y0.0001
G1Z-0.0038F100.0
G1X10.3993Y0.1179Z-0.0022F200.0
X10.8317Y0.2926Z-0.0009
X10.8619Y0.3048Z-0.0010
Z0.0200
X10.8621Y0.3267
G1Z-0.0009F100.0
G1X10.6624Y0.2460Z-0.0013F200.0
X10.2130Y0.0645Z-0.0029
X10.0632Y0.0039Z-0.0038
Z0.0200
X9.9994Y0.0000
G1Z-0.0039F100.0
G1X10.6413Y0.2593Z-0.0008F200.0
X10.7015Y0.2837Z-0.0015
X10.8619Y0.3485Z-0.0008
Z0.0200
X10.8618Y0.3703
G1Z-0.0010F100.0
G1X10.3080Y0.1465Z-0.0021F200.0
X9.9455Y0.0001Z-0.0040
Z0.0200
X9.9011Y0.0040
G1Z-0.0052F100.0
G1X10.5017Y0.2466Z-0.0010F200.0
X10.8620Y0.3922Z-0.0011
Z0.0200
X10.8619Y0.4140
G1Z-0.0020F100.0
G1X10.5304Y0.2801Z-0.0011F200.0
X9.9477Y0.0447Z-0.0046
X9.8372Y0.0000Z-0.0044
Z0.0200
X9.7929Y0.0040
G1Z-0.0042F100.0
G1X9.9528Y0.0686Z-0.0052F200.0
X10.1426Y0.1453Z-0.0026
X10.7321Y0.3834Z-0.0011
X10.8620Y0.4359Z-0.0017
Z0.0200
X10.8619Y0.4577
G1Z-0.0017F100.0
G1X10.3807Y0.2633Z-0.0014F200.0
X9.9796Y0.1013Z-0.0046
X9.7390Y0.0040Z-0.0045
Z0.0200
X9.6751Y0.0001
G1Z-0.0056F100.0
G1X9.9265Y0.1016Z-0.0045F200.0
X10.0070Y0.1342Z-0.0048
X10.1880Y0.2073Z-0.0027
X10.6406Y0.3902Z-0.0010
X10.8618Y0.4795Z-0.0019
Z0.0200
X10.8620Y0.5015
G1Z-0.0022F100.0
G1X10.7919Y0.4731Z-0.0017F200.0
X10.7519Y0.4570Z-0.0026
X10.7218Y0.4448Z-0.0014
X10.2914Y0.2709Z-0.0018
X10.1713Y0.2224Z-0.0035
X10.1112Y0.1981Z-0.0030
X9.9711Y0.1415Z-0.0050
X9.7809Y0.0647Z-0.0043
X9.6708Y0.0202Z-0.0059
X9.6408Y0.0081Z-0.0100
X9.6308Y0.0040Z-0.0125
Z0.0200
X9.5668Y0.0000
G1Z-0.0118F100.0
G1X9.5830Y0.0066Z-0.0125F200.0
X9.6170Y0.0203
X9.6264Y0.0241
X9.6170Y0.0203
X9.5830Y0.0066
X9.6170Y0.0203Z-0.0140
X9.6264Y0.0241Z-0.0125
X9.6672Y0.0406Z-0.0059
X9.9684Y0.1623Z-0.0039
X10.0387Y0.1907Z-0.0048
X10.1591Y0.2393Z-0.0033
X10.2495Y0.2758Z-0.0026
X10.5206Y0.3854Z-0.0008
X10.8619Y0.5233Z-0.0029
Z0.0200
X10.8620Y0.5452
G1Z-0.0038F100.0
G1X10.5521Y0.4200Z-0.0007F200.0
X10.2722Y0.3069Z-0.0018
X10.2523Y0.2988Z-0.0050
X10.2323Y0.2907Z-0.0023
X10.0223Y0.2059Z-0.0049
X9.8924Y0.1534Z-0.0034
X9.6725Y0.0646Z-0.0056
X9.6425Y0.0524Z-0.0087
X9.6205Y0.0436Z-0.0125
X9.6125Y0.0403
X9.5388Y0.0106
X9.6125Y0.0403
X9.6205Y0.0436
X9.6125Y0.0403Z-0.0139
X9.5388Y0.0106Z-0.0125
X9.5225Y0.0040Z-0.0122
Z0.0200
X9.4686Y0.0040
G1Z-0.0040F100.0
G1X9.5187Y0.0243Z-0.0115F200.0
X9.5512Y0.0374Z-0.0125
X9.6089Y0.0607
X9.6190Y0.0648
X9.6257Y0.0675
X9.6190Y0.0648
X9.6089Y0.0607
X9.5512Y0.0374
X9.6089Y0.0607Z-0.0143
X9.6190Y0.0648Z-0.0140
X9.6257Y0.0675Z-0.0125
X9.6490Y0.0769Z-0.0071
X9.7292Y0.1093Z-0.0049
X9.9798Y0.2106Z-0.0032
X10.1101Y0.2632Z-0.0042
X10.4008Y0.3807Z-0.0011
X10.7717Y0.5305Z-0.0027
X10.8619Y0.5670Z-0.0041
Z0.0200
X10.8619Y0.5888
G1Z-0.0043F100.0
G1X10.5001Y0.4426Z-0.0008F200.0
X10.2187Y0.3289Z-0.0022
X10.0780Y0.2721Z-0.0042
X9.8267Y0.1706Z-0.0032
X9.6559Y0.1016Z-0.0063
X9.6257Y0.0894Z-0.0120
X9.6220Y0.0878Z-0.0125
X9.6056Y0.0813
X9.5623Y0.0637
X9.6056Y0.0813
X9.6220Y0.0878
X9.6056Y0.0813Z-0.0148
X9.5623Y0.0637Z-0.0125
X9.5152Y0.0447Z-0.0100
X9.4549Y0.0203Z-0.0038
X9.4046Y0.0000Z-0.0036
Z0.0200
X9.3604Y0.0040
G1Z-0.0040F100.0
G1X9.4304Y0.0323Z-0.0049F200.0
X9.4705Y0.0485Z-0.0047
X9.5623Y0.0856Z-0.0125
X9.5906Y0.0970
X9.6106Y0.1051
X9.6223Y0.1098
X9.6106Y0.1051
X9.5906Y0.0970
X9.5623Y0.0856
X9.5906Y0.0970Z-0.0149
X9.6106Y0.1051Z-0.0151
X9.6223Y0.1098Z-0.0125
X9.6507Y0.1213Z-0.0063
X9.8909Y0.2184Z-0.0025
X10.0711Y0.2912Z-0.0035
X10.1012Y0.3033Z-0.0052
X10.3915Y0.4206Z-0.0009
X10.6818Y0.5379Z-0.0028
X10.8420Y0.6026Z-0.0046
X10.8620Y0.6107Z-0.0045
Z0.0200
X10.8619Y0.6325
G1Z-0.0051F100.0
G1X10.6211Y0.5352Z-0.0022F200.0
X10.3300Y0.4176Z-0.0011
X10.2498Y0.3852Z-0.0032
X10.2297Y0.3771Z-0.0049
X10.1996Y0.3649Z-0.0035
X9.7681Y0.1906Z-0.0029
X9.6376Y0.1379Z-0.0074
X9.6183Y0.1301Z-0.0125
X9.6075Y0.1257
X9.5673Y0.1095
X9.6075Y0.1257
X9.6183Y0.1301
X9.6075Y0.1257Z-0.0153
X9.5673Y0.1095Z-0.0125
X9.4971Y0.0811Z-0.0075
X9.4570Y0.0649Z-0.0045
X9.4068Y0.0446Z-0.0100
X9.3767Y0.0325Z-0.0080
X9.3566Y0.0243Z-0.0045
X9.2964Y0.0000Z-0.0042
Z0.0200
X9.2424Y0.0001
G1Z-0.0061F100.0
G1X9.3531Y0.0448Z-0.0049F200.0
X9.3977Y0.0628Z-0.0125
X9.4034Y0.0651
X9.4102Y0.0679
X9.4034Y0.0651
X9.3977Y0.0628
X9.4034Y0.0651Z-0.0135
X9.4102Y0.0679Z-0.0125
X9.4235Y0.0732Z-0.0106
X9.4436Y0.0813Z-0.0057
X9.4738Y0.0935Z-0.0050
X9.5341Y0.1179Z-0.0108
X9.5632Y0.1297Z-0.0125
X9.6045Y0.1464
X9.6143Y0.1503
X9.6045Y0.1464
X9.5632Y0.1297
X9.6045Y0.1464Z-0.0149
X9.6143Y0.1503Z-0.0125
X9.6347Y0.1586Z-0.0074
X9.6951Y0.1829Z-0.0052
X9.8158Y0.2317Z-0.0019
X10.2583Y0.4105Z-0.0029
X10.4494Y0.4877Z-0.0010
X10.6506Y0.5690Z-0.0041
X10.8618Y0.6543Z-0.0050
Z0.0200
X10.8619Y0.6762
G1Z-0.0046F100.0
G1X10.6114Y0.5750Z-0.0041F200.0
X10.4109Y0.4940Z-0.0013
X10.0902Y0.3644Z-0.0023
X9.7494Y0.2268Z-0.0024
X9.6592Y0.1903Z-0.0054
X9.6292Y0.1782Z-0.0075
X9.6092Y0.1701Z-0.0125
X9.5991Y0.1660
X9.5590Y0.1498
X9.5562Y0.1487
X9.5590Y0.1498
X9.5991Y0.1660
X9.6092Y0.1701
X9.5991Y0.1660Z-0.0150
X9.5590Y0.1498Z-0.0127
X9.5562Y0.1487Z-0.0125
X9.4989Y0.1255Z-0.0089
X9.4688Y0.1134Z-0.0050
X9.4387Y0.1012Z-0.0070
X9.4131Y0.0909Z-0.0125
X9.4087Y0.0891
X9.3886Y0.0810
X9.3849Y0.0795
X9.3886Y0.0810
X9.4087Y0.0891
X9.4131Y0.0909
X9.4087Y0.0891Z-0.0135
X9.3886Y0.0810Z-0.0134
X9.3849Y0.0795Z-0.0125
X9.3586Y0.0688Z-0.0061
X9.3185Y0.0526Z-0.0047
X9.2784Y0.0364Z-0.0073
X9.2490Y0.0246Z-0.0125
X9.2483Y0.0243
X9.2443Y0.0227
X9.2483Y0.0243
X9.2490Y0.0246
X9.2483Y0.0243Z-0.0126
X9.2443Y0.0227Z-0.0125
X9.2283Y0.0162Z-0.0120
X9.2234Y0.0142Z-0.0125
X9.1982Y0.0040
X9.2234Y0.0142
X9.1982Y0.0040Z-0.0153
Z-0.0125
Z0.0200
X9.1342Y0.0000
G1Z-0.0070F100.0
G1X9.1542Y0.0081Z-0.0125F200.0
X9.1643Y0.0122
X9.2346Y0.0406
X9.2648Y0.0528
X9.2691Y0.0545
X9.2648Y0.0528
X9.2346Y0.0406
X9.1643Y0.0122
X9.1542Y0.0081
X9.1643Y0.0122Z-0.0153
X9.2346Y0.0406Z-0.0170
X9.2648Y0.0528Z-0.0136
X9.2691Y0.0545Z-0.0125
X9.2949Y0.0650Z-0.0061
X9.3451Y0.0853Z-0.0051
X9.3855Y0.1015Z-0.0125
X9.3954Y0.1055
X9.4155Y0.1137
X9.4210Y0.1159
X9.4155Y0.1137
X9.3954Y0.1055
X9.3855Y0.1015
X9.3954Y0.1055Z-0.0143
X9.4155Y0.1137Z-0.0135
X9.4210Y0.1159Z-0.0125
X9.4556Y0.1299Z-0.0062
X9.4757Y0.1380Z-0.0067
X9.5159Y0.1542Z-0.0122
X9.5285Y0.1593Z-0.0125
X9.5661Y0.1745
X9.5862Y0.1827
X9.5963Y0.1867
X9.6048Y0.1902
X9.5963Y0.1867
X9.5862Y0.1827
X9.5661Y0.1745
X9.5285Y0.1593
X9.5661Y0.1745Z-0.0135
X9.5862Y0.1827Z-0.0154
X9.5963Y0.1867Z-0.0147
X9.6048Y0.1902Z-0.0125
X9.6264Y0.1989Z-0.0070
X9.7871Y0.2638Z-0.0017
X10.0784Y0.3815Z-0.0021
X10.4802Y0.5438Z-0.0027
X10.7213Y0.6412Z-0.0054
X10.8619Y0.6981Z-0.0041
Z0.0200
X10.8620Y0.7200
G1Z-0.0037F100.0
G1X10.6417Y0.6310Z-0.0057F200.0
X10.4715Y0.5622Z-0.0059
X10.4215Y0.5420Z-0.0037
X10.4015Y0.5339Z-0.0053
X10.3714Y0.5218Z-0.0021
X9.7207Y0.2588Z-0.0026
X9.6506Y0.2305Z-0.0060
X9.6206Y0.2184Z-0.0070
X9.5979Y0.2092Z-0.0125
X9.5905Y0.2063
X9.5205Y0.1779
X9.5104Y0.1739
X9.4990Y0.1693
X9.5104Y0.1739
X9.5205Y0.1779
X9.5905Y0.2063
X9.5979Y0.2092
X9.5905Y0.2063Z-0.0143
X9.5205Y0.1779Z-0.0143
X9.5104Y0.1739Z-0.0148
X9.4990Y0.1693Z-0.0125
X9.4704Y0.1577Z-0.0066
X9.4504Y0.1496Z-0.0078
X9.4331Y0.1426Z-0.0125
X9.4304Y0.1415
X9.4003Y0.1294
X9.3803Y0.1213
X9.3780Y0.1204
X9.3803Y0.1213
X9.4003Y0.1294
X9.4304Y0.1415
X9.4331Y0.1426
X9.4304Y0.1415Z-0.0132
X9.4003Y0.1294Z-0.0155
X9.3803Y0.1213Z-0.0130
X9.3780Y0.1204Z-0.0125
X9.3503Y0.1092Z-0.0060
X9.2902Y0.0849Z-0.0081
X9.2747Y0.0786Z-0.0125
X9.2602Y0.0728
X9.2101Y0.0525
X9.1600Y0.0323
X9.1396Y0.0241
X9.1600Y0.0323
X9.2101Y0.0525
X9.2602Y0.0728
X9.2747Y0.0786
X9.2602Y0.0728Z-0.0166
X9.2101Y0.0525Z-0.0182
X9.1600Y0.0323Z-0.0169
X9.1396Y0.0241Z-0.0125
X9.1200Y0.0161Z-0.0083
X9.0900Y0.0040Z-0.0072
Z0.0200
X9.0260Y0.0000
G1Z-0.0125F100.0
G1X9.0761Y0.0203Z-0.0125F200.0
X9.0861Y0.0243
X9.0761Y0.0203
X9.0260Y0.0000
Z-0.0139
X9.0761Y0.0203Z-0.0144
X9.0861Y0.0243Z-0.0125
X9.1062Y0.0324Z-0.0085
X9.1263Y0.0405Z-0.0091
X9.1397Y0.0459Z-0.0125
X9.1564Y0.0527
X9.1965Y0.0689
X9.2668Y0.0973
X9.2969Y0.1094
X9.3069Y0.1135
X9.3072Y0.1136
X9.3069Y0.1135
X9.2969Y0.1094
X9.2668Y0.0973
X9.1965Y0.0689
X9.1564Y0.0527
X9.1397Y0.0459
X9.1564Y0.0527Z-0.0168
X9.1965Y0.0689Z-0.0180
X9.2668Y0.0973Z-0.0154
X9.2969Y0.1094Z-0.0126
X9.3069Y0.1135Z-0.0126
X9.3072Y0.1136Z-0.0125
X9.3270Y0.1216Z-0.0075
X9.3470Y0.1297Z-0.0081
X9.3675Y0.1380Z-0.0125
X9.3771Y0.1419
X9.4072Y0.1540
X9.4273Y0.1621
X9.4336Y0.1647
X9.4273Y0.1621
X9.4072Y0.1540
X9.3771Y0.1419
X9.3675Y0.1380
X9.3771Y0.1419Z-0.0146
X9.4072Y0.1540Z-0.0155
X9.4273Y0.1621Z-0.0141
X9.4336Y0.1647Z-0.0125
X9.4574Y0.1743Z-0.0065
X9.4774Y0.1824Z-0.0085
X9.4925Y0.1885Z-0.0125
X9.5075Y0.1946
X9.5577Y0.2148
X9.5878Y0.2270
X9.5929Y0.2290
X9.5878Y0.2270
X9.5577Y0.2148
X9.5075Y0.1946
X9.4925Y0.1885
X9.5075Y0.1946Z-0.0165
X9.5577Y0.2148Z-0.0141
X9.5878Y0.2270Z-0.0136
X9.5929Y0.2290Z-0.0125
X9.6179Y0.2392Z-0.0070
X9.7684Y0.3000Z-0.0015
X10.0493Y0.4135Z-0.0025
X10.2600Y0.4986Z-0.0023
X10.3904Y0.5513Z-0.0038
X10.4707Y0.5837Z-0.0090
X10.6412Y0.6526Z-0.0062
X10.8619Y0.7418Z-0.0032
Z0.0200
X10.8619Y0.7636
G1Z-0.0027F100.0
G1X10.5703Y0.6458Z-0.0073F200.0
X10.4397Y0.5930Z-0.0102
X10.3291Y0.5483Z-0.0027
X10.0074Y0.4184Z-0.0018
X9.7159Y0.3006Z-0.0022
X9.6053Y0.2559Z-0.0089
X9.5926Y0.2508Z-0.0125
X9.5852Y0.2478
X9.5550Y0.2356
X9.5249Y0.2234
X9.5048Y0.2153
X9.4854Y0.2075
X9.5048Y0.2153
X9.5249Y0.2234
X9.5550Y0.2356
X9.5852Y0.2478
X9.5926Y0.2508
X9.5852Y0.2478Z-0.0146
X9.5550Y0.2356Z-0.0146
X9.5249Y0.2234Z-0.0159
X9.5048Y0.2153Z-0.0177
X9.4854Y0.2075Z-0.0125
X9.4646Y0.1991Z-0.0069
X9.4445Y0.1909Z-0.0071
X9.4287Y0.1846Z-0.0125
X9.4244Y0.1828
X9.3741Y0.1625
X9.3579Y0.1560
X9.3741Y0.1625
X9.4244Y0.1828
X9.4287Y0.1846
X9.4244Y0.1828Z-0.0140
X9.3741Y0.1625Z-0.0154
X9.3579Y0.1560Z-0.0125
X9.3339Y0.1463Z-0.0083
X9.3138Y0.1381Z-0.0119
X9.3120Y0.1374Z-0.0125
X9.3037Y0.1341
X9.2736Y0.1219
X9.2233Y0.1016
X9.1831Y0.0853
X9.1529Y0.0732
X9.1377Y0.0670
X9.1529Y0.0732
X9.1831Y0.0853
X9.2233Y0.1016
X9.2736Y0.1219
X9.3037Y0.1341
X9.3120Y0.1374
X9.3037Y0.1341Z-0.0150
X9.2736Y0.1219Z-0.0155
X9.2233Y0.1016Z-0.0141
X9.1831Y0.0853Z-0.0184
X9.1529Y0.0732Z-0.0165
X9.1377Y0.0670Z-0.0125
X9.1228Y0.0610Z-0.0086
X9.1027Y0.0528Z-0.0101
X9.0921Y0.0486Z-0.0125
X9.0725Y0.0407
X9.0223Y0.0204
X8.9720Y0.0000
X9.0223Y0.0204
X9.0725Y0.0407
X9.0921Y0.0486
X9.0725Y0.0407Z-0.0169
X9.0223Y0.0204Z-0.0154
X8.9720Y0.0000Z-0.0179
Z-0.0125
Z0.0200
X8.9278Y0.0040
G1Z-0.0125F100.0
G1X8.9779Y0.0243Z-0.0125F200.0
X9.0234Y0.0427
X8.9779Y0.0243
X8.9278Y0.0040
Z-0.0194
X8.9779Y0.0243Z-0.0163
X9.0234Y0.0427Z-0.0125
X9.0280Y0.0445Z-0.0121
X9.0320Y0.0462Z-0.0125
X9.0781Y0.0648
X9.1080Y0.0768
X9.0781Y0.0648
X9.0320Y0.0462
X9.0781Y0.0648Z-0.0169
X9.1080Y0.0768Z-0.0125
X9.1182Y0.0810Z-0.0110
X9.1262Y0.0842Z-0.0125
X9.1382Y0.0891
X9.1683Y0.1012
X9.1984Y0.1134
X9.2218Y0.1228
X9.1984Y0.1134
X9.1683Y0.1012
X9.1382Y0.0891
X9.1262Y0.0842
X9.1382Y0.0891Z-0.0147
X9.1683Y0.1012Z-0.0185
X9.1984Y0.1134Z-0.0171
X9.2218Y0.1228Z-0.0125
X9.2385Y0.1296Z-0.0092
X9.2685Y0.1417Z-0.0120
X9.2722Y0.1432Z-0.0125
X9.2886Y0.1498
X9.3148Y0.1604
X9.2886Y0.1498
X9.2722Y0.1432
X9.2886Y0.1498Z-0.0147
X9.3148Y0.1604Z-0.0125
X9.3186Y0.1619Z-0.0122
X9.3387Y0.1700Z-0.0100
X9.3544Y0.1764Z-0.0125
X9.3687Y0.1822
X9.4188Y0.2024
X9.4231Y0.2042
X9.4188Y0.2024
X9.3687Y0.1822
X9.3544Y0.1764
X9.3687Y0.1822Z-0.0148
X9.4188Y0.2024Z-0.0134
X9.4231Y0.2042Z-0.0125
X9.4489Y0.2146Z-0.0072
X9.4790Y0.2267Z-0.0119
X9.4810Y0.2275Z-0.0125
X9.4990Y0.2348
X9.5191Y0.2429
X9.5491Y0.2551
X9.5692Y0.2632
X9.5892Y0.2713
X9.5905Y0.2718
X9.5892Y0.2713
X9.5692Y0.2632
X9.5491Y0.2551
X9.5191Y0.2429
X9.4990Y0.2348
X9.4810Y0.2275
X9.4990Y0.2348Z-0.0177
X9.5191Y0.2429Z-0.0160
X9.5491Y0.2551Z-0.0152
X9.5692Y0.2632Z-0.0164
X9.5892Y0.2713Z-0.0127
X9.5905Y0.2718Z-0.0125
X9.6193Y0.2834Z-0.0071
X9.7295Y0.3280Z-0.0015
X10.0602Y0.4616Z-0.0016
X10.3408Y0.5749Z-0.0028
X10.4310Y0.6114Z-0.0096
X10.5012Y0.6397Z-0.0095
X10.7016Y0.7207Z-0.0043
X10.8620Y0.7855Z-0.0025
Z0.0200
X10.8619Y0.8073
G1Z-0.0020F100.0
G1X10.8117Y0.7870Z-0.0034F200.0
X10.7715Y0.7708Z-0.0024
X10.7314Y0.7546Z-0.0041
X10.6008Y0.7018Z-0.0056
X10.4603Y0.6450Z-0.0091
X10.3297Y0.5923Z-0.0019
X9.9381Y0.4341Z-0.0016
X9.6972Y0.3367Z-0.0024
X9.6068Y0.3002Z-0.0080
X9.5852Y0.2915Z-0.0125
X9.5666Y0.2840
X9.5265Y0.2678
X9.4964Y0.2556
X9.4691Y0.2446
X9.4964Y0.2556
X9.5265Y0.2678
X9.5666Y0.2840
X9.5852Y0.2915
X9.5666Y0.2840Z-0.0164
X9.5265Y0.2678Z-0.0158
X9.4964Y0.2556Z-0.0179
X9.4691Y0.2446Z-0.0125
X9.4562Y0.2394Z-0.0099
X9.4139Y0.2223Z-0.0125
X9.3658Y0.2029
X9.3426Y0.1935
X9.3658Y0.2029
X9.4139Y0.2223
X9.3658Y0.2029Z-0.0154
X9.3426Y0.1935Z-0.0125
X9.3357Y0.1907Z-0.0116
X9.3298Y0.1883Z-0.0125
X9.3156Y0.1826
X9.2955Y0.1744
X9.3156Y0.1826
X9.3298Y0.1883
X9.3156Y0.1826Z-0.0146
X9.2955Y0.1744Z-0.0125
X9.2453Y0.1542Z-0.0072
X9.2155Y0.1421Z-0.0125
X9.2152Y0.1420
X9.1851Y0.1298
X9.1449Y0.1136
X9.1048Y0.0974
X9.0646Y0.0812
X9.0563Y0.0778
X9.0646Y0.0812
X9.1048Y0.0974
X9.1449Y0.1136
X9.1851Y0.1298
X9.2152Y0.1420
X9.2155Y0.1421
X9.2152Y0.1420Z-0.0126
X9.1851Y0.1298Z-0.0185
X9.1449Y0.1136Z-0.0182
X9.1048Y0.0974Z-0.0151
X9.0646Y0.0812Z-0.0139
X9.0563Y0.0778Z-0.0125
X9.0345Y0.0690Z-0.0087
X8.9943Y0.0528Z-0.0108
X8.9842Y0.0487Z-0.0125
X8.9441Y0.0325
X8.9039Y0.0163
X8.8780Y0.0058
X8.9039Y0.0163
X8.9441Y0.0325
X8.9842Y0.0487
X8.9441Y0.0325Z-0.0194
X8.9039Y0.0163Z-0.0191
X8.8780Y0.0058Z-0.0125
X8.8738Y0.0041Z-0.0114
X8.8638Y0.0000Z-0.0104
Z0.0200
X8.8196Y0.0040
G1Z-0.0125F100.0
G1X8.8696Y0.0242Z-0.0125F200.0
X8.9097Y0.0404
X8.9597Y0.0606
X8.9862Y0.0713
X8.9597Y0.0606
X8.9097Y0.0404
X8.8696Y0.0242
X8.8196Y0.0040
Z-0.0180
X8.8696Y0.0242Z-0.0139
X8.9097Y0.0404Z-0.0198
X8.9597Y0.0606Z-0.0176
X8.9862Y0.0713Z-0.0125
X9.0098Y0.0809Z-0.0080
X9.0398Y0.0930Z-0.0076
X9.0899Y0.1132Z-0.0119
X9.0930Y0.1145Z-0.0125
X9.1199Y0.1254
X9.1700Y0.1456
X9.2000Y0.1577
X9.2109Y0.1621
X9.2000Y0.1577
X9.1700Y0.1456
X9.1199Y0.1254
X9.0930Y0.1145
X9.1199Y0.1254Z-0.0175
X9.1700Y0.1456Z-0.0182
X9.2000Y0.1577Z-0.0147
X9.2109Y0.1621Z-0.0125
X9.2401Y0.1739Z-0.0066
X9.2901Y0.1941Z-0.0088
X9.3143Y0.2039Z-0.0125
X9.3302Y0.2103
X9.3602Y0.2224
X9.3801Y0.2305
X9.3602Y0.2224
X9.3302Y0.2103
X9.3143Y0.2039
X9.3302Y0.2103Z-0.0149
X9.3602Y0.2224Z-0.0156
X9.3801Y0.2305Z-0.0125
X9.4003Y0.2386Z-0.0094
X9.4303Y0.2508Z-0.0117
X9.4503Y0.2588Z-0.0105
X9.4581Y0.2620Z-0.0125
X9.4804Y0.2710
X9.5004Y0.2791
X9.5404Y0.2953
X9.5604Y0.3033
X9.5805Y0.3114
X9.5857Y0.3136
X9.5805Y0.3114
X9.5604Y0.3033
X9.5404Y0.2953
X9.5004Y0.2791
X9.4804Y0.2710
X9.4581Y0.2620
X9.4804Y0.2710Z-0.0183
X9.5004Y0.2791Z-0.0201
X9.5404Y0.2953Z-0.0164
X9.5604Y0.3033Z-0.0178
X9.5805Y0.3114Z-0.0135
X9.5857Y0.3136Z-0.0125
X9.6105Y0.3236Z-0.0078
X9.7206Y0.3681Z-0.0017
X10.3614Y0.6269Z-0.0021
X10.4915Y0.6795Z-0.0071
X10.8219Y0.8130Z-0.0019
X10.8620Y0.8292Z-0.0016
Z0.0200
X10.8619Y0.8510
G1Z-0.0015F100.0
G1X10.6212Y0.7538Z-0.0040F200.0
X10.4908Y0.7011Z-0.0054
X10.3504Y0.6443Z-0.0020
X9.9091Y0.4660Z-0.0014
X9.6784Y0.3728Z-0.0033
X9.5981Y0.3404Z-0.0089
X9.5821Y0.3339Z-0.0125
X9.5580Y0.3242
X9.5179Y0.3080
X9.4978Y0.2999
X9.4778Y0.2918
X9.4521Y0.2814
X9.4778Y0.2918
X9.4978Y0.2999
X9.5179Y0.3080
X9.5580Y0.3242
X9.5821Y0.3339
X9.5580Y0.3242Z-0.0180
X9.5179Y0.3080Z-0.0177
X9.4978Y0.2999Z-0.0208
X9.4778Y0.2918Z-0.0202
X9.4521Y0.2814Z-0.0125
X9.4477Y0.2796Z-0.0112
X9.4176Y0.2675Z-0.0099
X9.3975Y0.2594Z-0.0072
X9.3712Y0.2487Z-0.0125
X9.3574Y0.2432
X9.3273Y0.2310
X9.3117Y0.2247
X9.3273Y0.2310
X9.3574Y0.2432
X9.3712Y0.2487
X9.3574Y0.2432Z-0.0153
X9.3273Y0.2310Z-0.0156
X9.3117Y0.2247Z-0.0125
X9.2872Y0.2148Z-0.0076
X9.2370Y0.1945Z-0.0067
X9.2075Y0.1826Z-0.0125
X9.1969Y0.1783
X9.1768Y0.1702
X9.1267Y0.1499
X9.0966Y0.1378
X9.0956Y0.1374
X9.0966Y0.1378
X9.1267Y0.1499
X9.1768Y0.1702
X9.1969Y0.1783
X9.2075Y0.1826
X9.1969Y0.1783Z-0.0146
X9.1768Y0.1702Z-0.0175
X9.1267Y0.1499Z-0.0183
X9.0966Y0.1378Z-0.0127
X9.0956Y0.1374Z-0.0125
X9.0765Y0.1297Z-0.0091
X9.0264Y0.1094Z-0.0070
X8.9863Y0.0932Z-0.0111
X8.9791Y0.0903Z-0.0125
X8.9461Y0.0770
X8.8960Y0.0567
X8.8057Y0.0203
X8.7618Y0.0025
X8.8057Y0.0203
X8.8960Y0.0567
X8.9461Y0.0770
X8.9791Y0.0903
X8.9461Y0.0770Z-0.0190
X8.8960Y0.0567Z-0.0197
X8.8057Y0.0203Z-0.0168
X8.7618Y0.0025Z-0.0125
X8.7556Y0.0000Z-0.0119
Z0.0200
X8.7016Y0.0000
G1Z-0.0125F100.0
G1X8.7329Y0.0127Z-0.0125F200.0
X8.7016Y0.0000
Z-0.0185
X8.7329Y0.0127Z-0.0125
X8.7418Y0.0163Z-0.0108
X8.7719Y0.0285Z-0.0099
X8.8011Y0.0403Z-0.0125
X8.8121Y0.0447
X8.8422Y0.0569
X8.8724Y0.0691
X8.9528Y0.1015
X8.9835Y0.1139
X8.9528Y0.1015
X8.8724Y0.0691
X8.8422Y0.0569
X8.8121Y0.0447
X8.8011Y0.0403
X8.8121Y0.0447Z-0.0135
X8.8422Y0.0569Z-0.0152
X8.8724Y0.0691Z-0.0193
X8.9528Y0.1015Z-0.0183
X8.9835Y0.1139Z-0.0125
X9.0030Y0.1218Z-0.0088
X9.0633Y0.1462Z-0.0083
X9.0934Y0.1584Z-0.0120
X9.0961Y0.1595Z-0.0125
X9.1236Y0.1705
X9.1839Y0.1949
X9.2093Y0.2052
X9.1839Y0.1949
X9.1236Y0.1705
X9.0961Y0.1595
X9.1236Y0.1705Z-0.0181
X9.1839Y0.1949Z-0.0160
X9.2093Y0.2052Z-0.0125
X9.2442Y0.2193Z-0.0077
X9.2844Y0.2355Z-0.0086
X9.3102Y0.2459Z-0.0125
X9.3245Y0.2517
X9.3547Y0.2639
X9.3647Y0.2680
X9.3547Y0.2639
X9.3245Y0.2517
X9.3102Y0.2459
X9.3245Y0.2517Z-0.0146
X9.3547Y0.2639Z-0.0150
X9.3647Y0.2680Z-0.0125
X9.3848Y0.2761Z-0.0075
X9.4049Y0.2842Z-0.0078
X9.4351Y0.2964Z-0.0112
X9.4400Y0.2984Z-0.0125
X9.4652Y0.3086
X9.4954Y0.3207
X9.5255Y0.3329
X9.5556Y0.3451
X9.5788Y0.3544
X9.5556Y0.3451
X9.5255Y0.3329
X9.4954Y0.3207
X9.4652Y0.3086
X9.4400Y0.2984
X9.4652Y0.3086Z-0.0192
X9.4954Y0.3207Z-0.0209
X9.5255Y0.3329Z-0.0177
X9.5556Y0.3451Z-0.0175
X9.5788Y0.3544Z-0.0125
X9.5958Y0.3613Z-0.0088
X9.7064Y0.4060Z-0.0027
X9.9877Y0.5197Z-0.0013
X10.4298Y0.6983Z-0.0022
X10.5705Y0.7551Z-0.0045
X10.6911Y0.8038Z-0.0019
X10.8619Y0.8729Z-0.0013
Z0.0200
X10.8620Y0.8947
G1Z-0.0011F100.0
G1X10.5914Y0.7854Z-0.0021F200.0
X10.5112Y0.7530Z-0.0029
X10.1906Y0.6235Z-0.0016
X9.8198Y0.4737Z-0.0015
X9.6494Y0.4049Z-0.0052
X9.5793Y0.3765Z-0.0105
X9.5693Y0.3725Z-0.0125
X9.5392Y0.3603
X9.4791Y0.3360
X9.4490Y0.3239
X9.4257Y0.3145
X9.4490Y0.3239
X9.4791Y0.3360
X9.5392Y0.3603
X9.5693Y0.3725
X9.5392Y0.3603Z-0.0184
X9.4791Y0.3360Z-0.0207
X9.4490Y0.3239Z-0.0178
X9.4257Y0.3145Z-0.0125
X9.3989Y0.3036Z-0.0064
X9.3789Y0.2955Z-0.0077
X9.3638Y0.2894Z-0.0125
X9.3588Y0.2874
X9.3388Y0.2793
X9.3045Y0.2655
X9.3388Y0.2793
X9.3588Y0.2874
X9.3638Y0.2894
X9.3588Y0.2874Z-0.0141
X9.3388Y0.2793Z-0.0158
X9.3045Y0.2655Z-0.0125
X9.2987Y0.2631Z-0.0119
X9.2687Y0.2510Z-0.0074
X9.2185Y0.2308Z-0.0122
X9.2142Y0.2290Z-0.0125
X9.1584Y0.2065
X9.1284Y0.1943
X9.0983Y0.1822
X9.0908Y0.1791
X9.0983Y0.1822
X9.1284Y0.1943
X9.1584Y0.2065
X9.2142Y0.2290
X9.1584Y0.2065Z-0.0162
X9.1284Y0.1943Z-0.0193
X9.0983Y0.1822Z-0.0144
X9.0908Y0.1791Z-0.0125
X9.0783Y0.1741Z-0.0093
X9.0382Y0.1579Z-0.0096
X9.0015Y0.1431Z-0.0125
X8.9881Y0.1376
X8.9480Y0.1214
X8.8879Y0.0972
X8.8578Y0.0850
X8.8376Y0.0769
X8.8578Y0.0850
X8.8879Y0.0972
X8.9480Y0.1214
X8.9881Y0.1376
X9.0015Y0.1431
X8.9881Y0.1376Z-0.0136
X8.9480Y0.1214Z-0.0188
X8.8879Y0.0972Z-0.0191
X8.8578Y0.0850Z-0.0174
X8.8376Y0.0769Z-0.0125
X8.8277Y0.0729Z-0.0101
X8.7576Y0.0445Z-0.0088
X8.7336Y0.0348Z-0.0125
X8.6874Y0.0162
X8.6574Y0.0040
X8.6874Y0.0162
X8.7336Y0.0348
X8.6874Y0.0162Z-0.0196
X8.6574Y0.0040Z-0.0205
Z-0.0125
Z0.0200
X8.5934Y0.0000
G1Z-0.0125F100.0
G1X8.6436Y0.0203Z-0.0125F200.0
X8.6837Y0.0365
X8.7232Y0.0525
X8.6837Y0.0365
X8.6436Y0.0203
X8.5934Y0.0000
Z-0.0179
X8.6436Y0.0203Z-0.0211
X8.6837Y0.0365Z-0.0192
X8.7232Y0.0525Z-0.0125
X8.7339Y0.0568Z-0.0107
X8.7841Y0.0771Z-0.0080
X8.8343Y0.0974Z-0.0117
X8.8373Y0.0986Z-0.0125
X8.8644Y0.1095
X8.9648Y0.1501
X9.0250Y0.1744
X9.0432Y0.1818
X9.0250Y0.1744
X8.9648Y0.1501
X8.8644Y0.1095
X8.8373Y0.0986
X8.8644Y0.1095Z-0.0198
X8.9648Y0.1501Z-0.0168
X9.0250Y0.1744Z-0.0152
X9.0432Y0.1818Z-0.0125
X9.0651Y0.1906Z-0.0093
X9.0852Y0.1987Z-0.0110
X9.0922Y0.2016Z-0.0125
X9.1153Y0.2109
X9.1454Y0.2231
X9.1789Y0.2366
X9.1454Y0.2231
X9.1153Y0.2109
X9.0922Y0.2016
X9.1153Y0.2109Z-0.0174
X9.1454Y0.2231Z-0.0173
X9.1789Y0.2366Z-0.0125
X9.1956Y0.2434Z-0.0101
X9.2358Y0.2596Z-0.0121
X9.2759Y0.2758Z-0.0082
X9.3020Y0.2863Z-0.0125
X9.3161Y0.2920
X9.3462Y0.3042
X9.3555Y0.3079
X9.3462Y0.3042
X9.3161Y0.2920
X9.3020Y0.2863
X9.3161Y0.2920Z-0.0148
X9.3462Y0.3042Z-0.0148
X9.3555Y0.3079Z-0.0125
X9.3763Y0.3163Z-0.0074
X9.3964Y0.3245Z-0.0064
X9.4165Y0.3326Z-0.0097
X9.4255Y0.3362Z-0.0125
X9.4466Y0.3447
X9.5068Y0.3691
X9.5470Y0.3853
X9.5703Y0.3947
X9.5470Y0.3853
X9.5068Y0.3691
X9.4466Y0.3447
X9.4255Y0.3362
X9.4466Y0.3447Z-0.0190
X9.5068Y0.3691Z-0.0217
X9.5470Y0.3853Z-0.0171
X9.5703Y0.3947Z-0.0125
X9.5871Y0.4015Z-0.0092
X9.6674Y0.4340Z-0.0045
X9.9886Y0.5637Z-0.0009
X10.4202Y0.7381Z-0.0015
X10.5808Y0.8030Z-0.0011
X10.8619Y0.9166Z-0.0008
Z0.0200
X10.8620Y0.9384
G1Z-0.0009F100.0
G1X10.1111Y0.6351Z-0.0012F200.0
X9.7206Y0.4773Z-0.0031
X9.5904Y0.4247Z-0.0085
X9.5650Y0.4144Z-0.0125
X9.5604Y0.4126
X9.5304Y0.4004
X9.4903Y0.3843
X9.4302Y0.3600
X9.4185Y0.3553
X9.4302Y0.3600
X9.4903Y0.3843
X9.5304Y0.4004
X9.5604Y0.4126
X9.5650Y0.4144
X9.5604Y0.4126Z-0.0132
X9.5304Y0.4004Z-0.0204
X9.4903Y0.3843Z-0.0224
X9.4302Y0.3600Z-0.0162
X9.4185Y0.3553Z-0.0125
X9.4002Y0.3479Z-0.0067
X9.3702Y0.3357Z-0.0084
X9.3391Y0.3231Z-0.0125
X9.3201Y0.3155
X9.2948Y0.3053
X9.3201Y0.3155
X9.3391Y0.3231
X9.3201Y0.3155Z-0.0150
X9.2948Y0.3053Z-0.0125
X9.2901Y0.3034Z-0.0120
X9.2700Y0.2953Z-0.0095
X9.2413Y0.2837Z-0.0125
X9.2400Y0.2831
X9.2388Y0.2826
X9.2400Y0.2831
X9.2413Y0.2837
X9.2400Y0.2831Z-0.0126
X9.2388Y0.2826Z-0.0125
X9.2000Y0.2669Z-0.0082
X9.1799Y0.2589Z-0.0105
X9.1716Y0.2555Z-0.0125
X9.1499Y0.2467
X9.1099Y0.2305
X9.0881Y0.2218
X9.1099Y0.2305
X9.1499Y0.2467
X9.1716Y0.2555
X9.1499Y0.2467Z-0.0177
X9.1099Y0.2305Z-0.0172
X9.0881Y0.2218Z-0.0125
X9.0798Y0.2184Z-0.0107
X9.0629Y0.2116Z-0.0125
X9.0197Y0.1941
X8.9697Y0.1739
X8.8896Y0.1415
X8.8495Y0.1254
X8.8267Y0.1161
X8.8495Y0.1254
X8.8896Y0.1415
X8.9697Y0.1739
X9.0197Y0.1941
X9.0629Y0.2116
X9.0197Y0.1941Z-0.0171
X8.9697Y0.1739Z-0.0136
X8.8896Y0.1415Z-0.0200
X8.8495Y0.1254Z-0.0182
X8.8267Y0.1161Z-0.0125
X8.8195Y0.1132Z-0.0107
X8.7795Y0.0971Z-0.0083
X8.7194Y0.0728Z-0.0116
X8.7150Y0.0710Z-0.0125
X8.6793Y0.0566
X8.5892Y0.0202
X8.5492Y0.0040
X8.5892Y0.0202
X8.6793Y0.0566
X8.7150Y0.0710
X8.6793Y0.0566Z-0.0197
X8.5892Y0.0202Z-0.0200
X8.5492Y0.0040Z-0.0171
Z-0.0125
Z0.0200
X8.4852Y0.0000
G1Z-0.0097F100.0
G1X8.5453Y0.0243Z-0.0124F200.0
X8.5461Y0.0246Z-0.0125
X8.5654Y0.0324
X8.5955Y0.0446
X8.6857Y0.0810
X8.7359Y0.1013
X8.7559Y0.1094
X8.7690Y0.1147
X8.7559Y0.1094
X8.7359Y0.1013
X8.6857Y0.0810
X8.5955Y0.0446
X8.5654Y0.0324
X8.5461Y0.0246
X8.5654Y0.0324Z-0.0138
X8.5955Y0.0446Z-0.0197
X8.6857Y0.0810Z-0.0188
X8.7359Y0.1013Z-0.0126
X8.7559Y0.1094Z-0.0137
X8.7690Y0.1147Z-0.0125
X8.7960Y0.1256Z-0.0099
X8.8261Y0.1378Z-0.0119
X8.8292Y0.1390Z-0.0125
X8.8562Y0.1499
X8.9064Y0.1702
X8.9264Y0.1783
X8.9453Y0.1859
X8.9264Y0.1783
X8.9064Y0.1702
X8.8562Y0.1499
X8.8292Y0.1390
X8.8562Y0.1499Z-0.0177
X8.9064Y0.1702Z-0.0187
X8.9264Y0.1783Z-0.0165
X8.9453Y0.1859Z-0.0125
X8.9465Y0.1864Z-0.0123
X8.9766Y0.1985Z-0.0103
X8.9907Y0.2043Z-0.0125
X9.0167Y0.2147
X9.0768Y0.2391
X9.1069Y0.2512
X9.1571Y0.2715
X9.1746Y0.2785
X9.1571Y0.2715
X9.1069Y0.2512
X9.0768Y0.2391
X9.0167Y0.2147
X8.9907Y0.2043
X9.0167Y0.2147Z-0.0166
X9.0768Y0.2391Z-0.0142
X9.1069Y0.2512Z-0.0188
X9.1571Y0.2715Z-0.0163
X9.1746Y0.2785Z-0.0125
X9.1972Y0.2877Z-0.0076
X9.2172Y0.2958Z-0.0075
X9.2473Y0.3079Z-0.0103
X9.2806Y0.3214Z-0.0125
X9.3175Y0.3363
X9.3336Y0.3428
X9.3175Y0.3363
X9.2806Y0.3214
X9.3175Y0.3363Z-0.0150
X9.3336Y0.3428Z-0.0125
X9.3476Y0.3485Z-0.0103
X9.3877Y0.3647Z-0.0075
X9.4078Y0.3728Z-0.0113
X9.4120Y0.3745Z-0.0125
X9.4278Y0.3809
X9.4680Y0.3971
X9.4880Y0.4052
X9.5281Y0.4214
X9.5622Y0.4352
X9.5281Y0.4214
X9.4880Y0.4052
X9.4680Y0.3971
X9.4278Y0.3809
X9.4120Y0.3745
X9.4278Y0.3809Z-0.0169
X9.4680Y0.3971Z-0.0188
X9.4880Y0.4052Z-0.0223
X9.5281Y0.4214Z-0.0212
X9.5622Y0.4352Z-0.0125
X9.5682Y0.4376Z-0.0110
X9.6384Y0.4660Z-0.0054
X9.8992Y0.5713Z-0.0018
X10.1700Y0.6807Z-0.0015
X10.4407Y0.7901Z-0.0013
X10.4508Y0.7942Z-0.0025
X10.6112Y0.8590Z-0.0013
X10.8619Y0.9603Z-0.0011
Z0.0200
X10.8619Y0.9821
G1Z-0.0011F100.0
G1X10.1588Y0.6980Z-0.0014F200.0
X9.6767Y0.5032Z-0.0044
X9.5863Y0.4667Z-0.0085
X9.5582Y0.4554Z-0.0125
X9.5561Y0.4545
X9.5260Y0.4424
X9.4758Y0.4221
X9.4456Y0.4099
X9.4155Y0.3977
X9.4026Y0.3925
X9.4155Y0.3977
X9.4456Y0.4099
X9.4758Y0.4221
X9.5260Y0.4424
X9.5561Y0.4545
X9.5582Y0.4554
X9.5561Y0.4545Z-0.0128
X9.5260Y0.4424Z-0.0230
X9.4758Y0.4221Z-0.0212
X9.4456Y0.4099Z-0.0158
X9.4155Y0.3977Z-0.0153
X9.4026Y0.3925Z-0.0125
X9.3854Y0.3856Z-0.0087
X9.3352Y0.3653Z-0.0100
X9.3257Y0.3614Z-0.0125
X9.3151Y0.3572
X9.2749Y0.3409
X9.2675Y0.3379
X9.2749Y0.3409
X9.3151Y0.3572
X9.3257Y0.3614
X9.3151Y0.3572Z-0.0153
X9.2749Y0.3409Z-0.0136
X9.2675Y0.3379Z-0.0125
X9.2247Y0.3206Z-0.0064
X9.1945Y0.3085Z-0.0072
X9.1744Y0.3003Z-0.0097
X9.1635Y0.2959Z-0.0125
X9.1443Y0.2882
X9.1041Y0.2719
X9.0338Y0.2435
X9.0174Y0.2369
X9.0338Y0.2435
X9.1041Y0.2719
X9.1443Y0.2882
X9.1635Y0.2959
X9.1443Y0.2882Z-0.0174
X9.1041Y0.2719Z-0.0192
X9.0338Y0.2435Z-0.0135
X9.0174Y0.2369Z-0.0125
X8.9936Y0.2273Z-0.0111
X8.9635Y0.2151Z-0.0088
X8.9434Y0.2070Z-0.0116
X8.9395Y0.2054Z-0.0125
X8.9133Y0.1948
X8.8530Y0.1705
X8.8303Y0.1613
X8.8530Y0.1705
X8.9133Y0.1948
X8.9395Y0.2054
X8.9133Y0.1948Z-0.0185
X8.8530Y0.1705Z-0.0176
X8.8303Y0.1613Z-0.0125
X8.8229Y0.1583Z-0.0109
X8.8028Y0.1502Z-0.0103
X8.7899Y0.1450Z-0.0125
X8.7526Y0.1299
X8.7124Y0.1137
X8.5919Y0.0650
X8.5718Y0.0568
X8.5589Y0.0516
X8.5718Y0.0568
X8.5919Y0.0650
X8.7124Y0.1137
X8.7526Y0.1299
X8.7899Y0.1450
X8.7526Y0.1299Z-0.0188
X8.7124Y0.1137Z-0.0186
X8.5919Y0.0650Z-0.0197
X8.5718Y0.0568Z-0.0155
X8.5589Y0.0516Z-0.0125
X8.5517Y0.0487Z-0.0108
X8.4814Y0.0203Z-0.0089
X8.4564Y0.0102Z-0.0125
X8.4312Y0.0000
X8.4564Y0.0102
X8.4312Y0.0000Z-0.0162
Z-0.0125
Z0.0200
X8.3870Y0.0040
G1Z-0.0125F100.0
G1X8.4170Y0.0162Z-0.0125F200.0
X8.4435Y0.0268
X8.4170Y0.0162
X8.3870Y0.0040
Z-0.0204
X8.4170Y0.0162Z-0.0189
X8.4435Y0.0268Z-0.0125
X8.4471Y0.0283Z-0.0116
X8.4972Y0.0486Z-0.0087
X8.5373Y0.0648Z-0.0105
X8.5497Y0.0698Z-0.0125
X8.5673Y0.0769
X8.5874Y0.0850
X8.6675Y0.1174
X8.6876Y0.1255
X8.7377Y0.1457
X8.7878Y0.1660
X8.8178Y0.1781
X8.7878Y0.1660
X8.7377Y0.1457
X8.6876Y0.1255
X8.6675Y0.1174
X8.5874Y0.0850
X8.5673Y0.0769
X8.5497Y0.0698
X8.5673Y0.0769Z-0.0154
X8.5874Y0.0850Z-0.0190
X8.6675Y0.1174Z-0.0177
X8.6876Y0.1255Z-0.0159
X8.7377Y0.1457Z-0.0196
X8.7878Y0.1660Z-0.0173
X8.8178Y0.1781Z-0.0125
X8.8179Y0.1781Z-0.0125
X8.8479Y0.1903
X8.9080Y0.2145
X8.9344Y0.2252
X8.9080Y0.2145
X8.8479Y0.1903
X8.8179Y0.1781
X8.8479Y0.1903Z-0.0192
X8.9080Y0.2145Z-0.0169
X8.9344Y0.2252Z-0.0125
X8.9682Y0.2388Z-0.0069
X9.0283Y0.2631Z-0.0093
X9.0451Y0.2699Z-0.0125
X9.0583Y0.2753
X9.0884Y0.2874
X9.1084Y0.2955
X9.1385Y0.3077
X9.1578Y0.3155
X9.1385Y0.3077
X9.1084Y0.2955
X9.0884Y0.2874
X9.0583Y0.2753
X9.0451Y0.2699
X9.0583Y0.2753Z-0.0150
X9.0884Y0.2874Z-0.0153
X9.1084Y0.2955Z-0.0187
X9.1385Y0.3077Z-0.0170
X9.1578Y0.3155Z-0.0125
X9.1786Y0.3239Z-0.0077
X9.2287Y0.3441Z-0.0052
X9.2587Y0.3562Z-0.0102
X9.2723Y0.3617Z-0.0125
X9.2888Y0.3684
X9.3189Y0.3805
X9.3209Y0.3814
X9.3189Y0.3805
X9.2888Y0.3684
X9.2723Y0.3617
X9.2888Y0.3684Z-0.0153
X9.3189Y0.3805Z-0.0130
X9.3209Y0.3814Z-0.0125
X9.3389Y0.3886Z-0.0080
X9.3790Y0.4048Z-0.0100
X9.3940Y0.4109Z-0.0125
X9.4090Y0.4170
X9.4391Y0.4291
X9.4692Y0.4413
X9.4992Y0.4534
X9.5193Y0.4615
X9.5572Y0.4768
X9.5193Y0.4615
X9.4992Y0.4534
X9.4692Y0.4413
X9.4391Y0.4291
X9.4090Y0.4170
X9.3940Y0.4109
X9.4090Y0.4170Z-0.0150
X9.4391Y0.4291Z-0.0135
X9.4692Y0.4413Z-0.0194
X9.4992Y0.4534Z-0.0241
X9.5193Y0.4615Z-0.0236
X9.5572Y0.4768Z-0.0125
X9.5593Y0.4777Z-0.0119
X9.6094Y0.4979Z-0.0065
X9.8199Y0.5830Z-0.0029
X10.2207Y0.7449Z-0.0018
X10.8620Y1.0040Z-0.0014
Z0.0200
X10.8619Y1.0258
G1Z-0.0014F100.0
G1X10.3501Y0.8190Z-0.0021F200.0
X9.9487Y0.6569Z-0.0025
X9.6978Y0.5555Z-0.0046
X9.5874Y0.5109Z-0.0075
X9.5562Y0.4983Z-0.0125
X9.5473Y0.4947
X9.5172Y0.4825
X9.4871Y0.4703
X9.4670Y0.4622
X9.4369Y0.4501
X9.3867Y0.4298
X9.3773Y0.4260
X9.3867Y0.4298
X9.4369Y0.4501
X9.4670Y0.4622
X9.4871Y0.4703
X9.5172Y0.4825
X9.5473Y0.4947
X9.5562Y0.4983
X9.5473Y0.4947Z-0.0139
X9.5172Y0.4825Z-0.0234
X9.4871Y0.4703Z-0.0239
X9.4670Y0.4622Z-0.0194
X9.4369Y0.4501Z-0.0127
X9.3867Y0.4298Z-0.0138
X9.3773Y0.4260Z-0.0125
X9.3466Y0.4136Z-0.0082
X9.3265Y0.4055Z-0.0107
X9.3170Y0.4016Z-0.0125
X9.3064Y0.3974
X9.2878Y0.3899
X9.3064Y0.3974
X9.3170Y0.4016
X9.3064Y0.3974Z-0.0145
X9.2878Y0.3899Z-0.0125
X9.2663Y0.3811Z-0.0101
X9.2362Y0.3690Z-0.0053
X9.1760Y0.3447Z-0.0063
X9.1431Y0.3314Z-0.0125
X9.1258Y0.3244
X9.1057Y0.3163
X9.0865Y0.3085
X9.1057Y0.3163
X9.1258Y0.3244
X9.1431Y0.3314
X9.1258Y0.3244Z-0.0157
X9.1057Y0.3163Z-0.0158
X9.0865Y0.3085Z-0.0125
X9.0756Y0.3041Z-0.0106
X9.0555Y0.2960Z-0.0112
X9.0254Y0.2838Z-0.0061
X8.9452Y0.2514Z-0.0074
X8.9222Y0.2421Z-0.0125
X8.8950Y0.2311
X8.8348Y0.2068
X8.8047Y0.1946
X8.7444Y0.1703
X8.7143Y0.1581
X8.6943Y0.1500
X8.6441Y0.1298
X8.6140Y0.1176
X8.5738Y0.1014
X8.5439Y0.0893
X8.5738Y0.1014
X8.6140Y0.1176
X8.6441Y0.1298
X8.6943Y0.1500
X8.7143Y0.1581
X8.7444Y0.1703
X8.8047Y0.1946
X8.8348Y0.2068
X8.8950Y0.2311
X8.9222Y0.2421
X8.8950Y0.2311Z-0.0185
X8.8348Y0.2068Z-0.0192
X8.8047Y0.1946Z-0.0178
X8.7444Y0.1703Z-0.0184
X8.7143Y0.1581Z-0.0162
X8.6943Y0.1500Z-0.0129
X8.6441Y0.1298Z-0.0171
X8.6140Y0.1176Z-0.0193
X8.5738Y0.1014Z-0.0177
X8.5439Y0.0893Z-0.0125
X8.5337Y0.0852Z-0.0107
X8.4936Y0.0689Z-0.0097
X8.4490Y0.0509Z-0.0125
X8.4434Y0.0487
X8.4133Y0.0365
X8.3230Y0.0000
X8.4133Y0.0365
X8.4434Y0.0487
X8.4490Y0.0509
X8.4434Y0.0487Z-0.0129
X8.4133Y0.0365Z-0.0195
X8.3230Y0.0000Z-0.0212
Z-0.0125
Z0.0200
X8.2788Y0.0040
G1Z-0.0117F100.0
G1X8.2827Y0.0056Z-0.0125F200.0
X8.2988Y0.0121
X8.3188Y0.0202
X8.4089Y0.0566
X8.4963Y0.0919
X8.4089Y0.0566
X8.3188Y0.0202
X8.2988Y0.0121
X8.2827Y0.0056
X8.2988Y0.0121Z-0.0157
X8.3188Y0.0202Z-0.0205
X8.4089Y0.0566Z-0.0194
X8.4963Y0.0919Z-0.0125
X8.5091Y0.0971Z-0.0115
X8.5391Y0.1092Z-0.0114
X8.5441Y0.1112Z-0.0125
X8.5691Y0.1213
X8.5992Y0.1335
X8.6392Y0.1496
X8.6737Y0.1636
X8.6392Y0.1496
X8.5992Y0.1335
X8.5691Y0.1213
X8.5441Y0.1112
X8.5691Y0.1213Z-0.0182
X8.5992Y0.1335Z-0.0191
X8.6392Y0.1496Z-0.0187
X8.6737Y0.1636Z-0.0125
X8.6793Y0.1658Z-0.0115
X8.7093Y0.1780Z-0.0110
X8.7166Y0.1809Z-0.0125
X8.7293Y0.1861
X8.8194Y0.2225
X8.8895Y0.2508
X8.9151Y0.2611
X8.8895Y0.2508
X8.8194Y0.2225
X8.7293Y0.1861
X8.7166Y0.1809
X8.7293Y0.1861Z-0.0151
X8.8194Y0.2225Z-0.0191
X8.8895Y0.2508Z-0.0183
X8.9151Y0.2611Z-0.0125
X8.9396Y0.2710Z-0.0069
X9.0297Y0.3074Z-0.0057
X9.0798Y0.3276Z-0.0075
X9.1029Y0.3370Z-0.0125
X9.1098Y0.3398
X9.1298Y0.3479
X9.1347Y0.3498
X9.1298Y0.3479
X9.1098Y0.3398
X9.1029Y0.3370
X9.1098Y0.3398Z-0.0140
X9.1298Y0.3479Z-0.0137
X9.1347Y0.3498Z-0.0125
X9.1599Y0.3600Z-0.0064
X9.2400Y0.3924Z-0.0048
X9.2950Y0.4146Z-0.0125
X9.3000Y0.4166
X9.3085Y0.4201
X9.3000Y0.4166
X9.2950Y0.4146
X9.3000Y0.4166Z-0.0132
X9.3085Y0.4201Z-0.0125
X9.3201Y0.4247Z-0.0115
X9.3401Y0.4328Z-0.0078
X9.3601Y0.4409Z-0.0109
X9.3700Y0.4449Z-0.0125
X9.3801Y0.4490
X9.4302Y0.4692
X9.4602Y0.4814
X9.4903Y0.4935
X9.5103Y0.5016
X9.5203Y0.5056
X9.5504Y0.5178
X9.5569Y0.5204
X9.5504Y0.5178
X9.5203Y0.5056
X9.5103Y0.5016
X9.4903Y0.4935
X9.4602Y0.4814
X9.4302Y0.4692
X9.3801Y0.4490
X9.3700Y0.4449
X9.3801Y0.4490Z-0.0142
X9.4302Y0.4692Z-0.0131
X9.4602Y0.4814Z-0.0177
X9.4903Y0.4935Z-0.0237
X9.5103Y0.5016Z-0.0241
X9.5203Y0.5056Z-0.0225
X9.5504Y0.5178Z-0.0134
X9.5569Y0.5204Z-0.0125
X9.5904Y0.5339Z-0.0077
X9.6905Y0.5744Z-0.0047
X9.9208Y0.6674Z-0.0026
X10.2813Y0.8131Z-0.0017
X10.8620Y1.0477Z-0.0015
Z0.0200
X10.8619Y1.0695
G1Z-0.0012F100.0
G1X10.5812Y0.9561Z-0.0009F200.0
X10.3004Y0.8427Z-0.0018
X9.7790Y0.6320Z-0.0036
X9.6085Y0.5631Z-0.0068
X9.5620Y0.5443Z-0.0125
X9.5484Y0.5388
X9.5083Y0.5226
X9.4782Y0.5105
X9.4381Y0.4942
X9.4093Y0.4826
X9.4381Y0.4942
X9.4782Y0.5105
X9.5083Y0.5226
X9.5484Y0.5388
X9.5620Y0.5443
X9.5484Y0.5388Z-0.0142
X9.5083Y0.5226Z-0.0240
X9.4782Y0.5105Z-0.0223
X9.4381Y0.4942Z-0.0136
X9.4093Y0.4826Z-0.0125
X9.3980Y0.4780Z-0.0121
X9.3905Y0.4750Z-0.0125
X9.3679Y0.4659
X9.3638Y0.4643
X9.3679Y0.4659
X9.3905Y0.4750
X9.3679Y0.4659Z-0.0138
X9.3638Y0.4643Z-0.0125
X9.3478Y0.4578Z-0.0075
X9.3278Y0.4497Z-0.0072
X9.3077Y0.4416Z-0.0099
X9.2375Y0.4132Z-0.0042
X9.1473Y0.3768Z-0.0060
X9.1172Y0.3646Z-0.0090
X9.0671Y0.3444Z-0.0058
X8.9467Y0.2957Z-0.0056
X8.9066Y0.2795Z-0.0108
X8.9001Y0.2769Z-0.0125
X8.8766Y0.2674
X8.7963Y0.2350
X8.7575Y0.2193
X8.7963Y0.2350
X8.8766Y0.2674
X8.9001Y0.2769
X8.8766Y0.2674Z-0.0187
X8.7963Y0.2350Z-0.0171
X8.7575Y0.2193Z-0.0125
X8.7462Y0.2147Z-0.0112
X8.6961Y0.1945Z-0.0092
X8.6760Y0.1864Z-0.0102
X8.6638Y0.1814Z-0.0125
X8.6359Y0.1701
X8.5757Y0.1458
X8.5557Y0.1377
X8.5361Y0.1298
X8.5557Y0.1377
X8.5757Y0.1458
X8.6359Y0.1701
X8.6638Y0.1814
X8.6359Y0.1701Z-0.0179
X8.5757Y0.1458Z-0.0197
X8.5557Y0.1377Z-0.0172
X8.5361Y0.1298Z-0.0125
X8.5356Y0.1296Z-0.0124
X8.5341Y0.1290Z-0.0125
X8.4554Y0.0972
X8.3551Y0.0567
X8.3150Y0.0405
X8.2850Y0.0284
X8.3150Y0.0405
X8.3551Y0.0567
X8.4554Y0.0972
X8.5341Y0.1290
X8.4554Y0.0972Z-0.0190
X8.3551Y0.0567Z-0.0205
X8.3150Y0.0405Z-0.0205
X8.2850Y0.0284Z-0.0125
X8.2849Y0.0284Z-0.0125
X8.2248Y0.0040Z-0.0095
Z0.0200
X8.1607Y0.0000
G1Z-0.0125F100.0
G1X8.1724Y0.0047Z-0.0125F200.0
X8.1607Y0.0000
Z-0.0132
X8.1724Y0.0047Z-0.0125
X8.2210Y0.0244Z-0.0097
X8.2712Y0.0447Z-0.0124
X8.2715Y0.0448Z-0.0125
X8.3114Y0.0609
X8.3515Y0.0771
X8.4218Y0.1055
X8.4620Y0.1217
X8.5423Y0.1542
X8.5825Y0.1704
X8.6327Y0.1907
X8.6645Y0.2035
X8.6327Y0.1907
X8.5825Y0.1704
X8.5423Y0.1542
X8.4620Y0.1217
X8.4218Y0.1055
X8.3515Y0.0771
X8.3114Y0.0609
X8.2715Y0.0448
X8.3114Y0.0609Z-0.0202
X8.3515Y0.0771Z-0.0196
X8.4218Y0.1055Z-0.0152
X8.4620Y0.1217Z-0.0193
X8.5423Y0.1542Z-0.0183
X8.5825Y0.1704Z-0.0205
X8.6327Y0.1907Z-0.0171
X8.6645Y0.2035Z-0.0125
X8.6929Y0.2150Z-0.0083
X8.7532Y0.2394Z-0.0078
X8.7852Y0.2523Z-0.0125
X8.7934Y0.2556
X8.8235Y0.2678
X8.8636Y0.2840
X8.8837Y0.2921
X8.8920Y0.2955
X8.8837Y0.2921
X8.8636Y0.2840
X8.8235Y0.2678
X8.7934Y0.2556
X8.7852Y0.2523
X8.7934Y0.2556Z-0.0137
X8.8235Y0.2678Z-0.0128
X8.8636Y0.2840Z-0.0170
X8.8837Y0.2921Z-0.0153
X8.8920Y0.2955Z-0.0125
X8.9038Y0.3002Z-0.0085
X8.9339Y0.3124Z-0.0059
X9.0846Y0.3733Z-0.0050
X9.2753Y0.4504Z-0.0049
X9.3155Y0.4666Z-0.0059
X9.3456Y0.4788Z-0.0066
X9.3758Y0.4909Z-0.0120
X9.4159Y0.5072Z-0.0122
X9.4178Y0.5079Z-0.0125
X9.4461Y0.5193
X9.4661Y0.5274
X9.5063Y0.5437
X9.5660Y0.5678
X9.5063Y0.5437
X9.4661Y0.5274
X9.4461Y0.5193
X9.4178Y0.5079
X9.4461Y0.5193Z-0.0171
X9.4661Y0.5274Z-0.0230
X9.5063Y0.5437Z-0.0240
X9.5660Y0.5678Z-0.0125
X9.5665Y0.5680Z-0.0124
X9.6268Y0.5923Z-0.0065
X9.9682Y0.7303Z-0.0023
X10.5305Y0.9575Z-0.0010
X10.8619Y1.0914Z-0.0013
Z0.0200
X10.8620Y1.1132
G1Z-0.0013F100.0
G1X10.4912Y0.9635Z-0.0019F200.0
X10.2207Y0.8542Z-0.0022
X9.8500Y0.7044Z-0.0035
X9.6195Y0.6113Z-0.0079
X9.5824Y0.5963Z-0.0125
X9.5293Y0.5748
X9.4993Y0.5627
X9.4592Y0.5465
X9.4191Y0.5303
X9.4116Y0.5272
X9.4191Y0.5303
X9.4592Y0.5465
X9.4993Y0.5627
X9.5293Y0.5748
X9.5824Y0.5963
X9.5293Y0.5748Z-0.0190
X9.4993Y0.5627Z-0.0238
X9.4592Y0.5465Z-0.0226
X9.4191Y0.5303Z-0.0138
X9.4116Y0.5272Z-0.0125
X9.3991Y0.5222Z-0.0104
X9.3690Y0.5101Z-0.0093
X9.3390Y0.4979Z-0.0051
X9.0384Y0.3765Z-0.0045
X8.9182Y0.3279Z-0.0052
X8.8881Y0.3157Z-0.0099
X8.8695Y0.3082Z-0.0125
X8.8681Y0.3076
X8.8655Y0.3066
X8.8681Y0.3076
X8.8695Y0.3082
X8.8681Y0.3076Z-0.0127
X8.8655Y0.3066Z-0.0125
X8.8079Y0.2834Z-0.0079
X8.7779Y0.2712Z-0.0085
X8.7478Y0.2591Z-0.0071
X8.7178Y0.2469Z-0.0081
X8.6977Y0.2388Z-0.0068
X8.6576Y0.2226Z-0.0108
X8.6497Y0.2194Z-0.0125
X8.6176Y0.2064
X8.5474Y0.1781
X8.4472Y0.1376
X8.4195Y0.1264
X8.4472Y0.1376
X8.5474Y0.1781
X8.6176Y0.2064
X8.6497Y0.2194
X8.6176Y0.2064Z-0.0196
X8.5474Y0.1781Z-0.0198
X8.4472Y0.1376Z-0.0172
X8.4195Y0.1264Z-0.0125
X8.4172Y0.1255Z-0.0121
X8.4122Y0.1235Z-0.0125
X8.3671Y0.1052
X8.3270Y0.0890
X8.2869Y0.0728
X8.2610Y0.0624
X8.2869Y0.0728
X8.3270Y0.0890
X8.3671Y0.1052
X8.4122Y0.1235
X8.3671Y0.1052Z-0.0161
X8.3270Y0.0890Z-0.0209
X8.2869Y0.0728Z-0.0171
X8.2610Y0.0624Z-0.0125
X8.2569Y0.0607Z-0.0117
X8.2068Y0.0405Z-0.0122
X8.1989Y0.0373Z-0.0125
X8.1667Y0.0243
X8.1266Y0.0081
X8.1166Y0.0040
X8.1266Y0.0081
X8.1667Y0.0243
X8.1989Y0.0373
X8.1667Y0.0243Z-0.0139
X8.1266Y0.0081Z-0.0209
X8.1166Y0.0040Z-0.0209
Z-0.0125
Z0.0200
X8.0526Y0.0000
G1Z-0.0125F100.0
G1X8.1529Y0.0405Z-0.0125F200.0
X8.2031Y0.0608
X8.2265Y0.0703
X8.2031Y0.0608
X8.1529Y0.0405
X8.0526Y0.0000
Z-0.0222
X8.1529Y0.0405Z-0.0197
X8.2031Y0.0608Z-0.0162
X8.2265Y0.0703Z-0.0125
X8.2332Y0.0730Z-0.0115
X8.2532Y0.0811Z-0.0111
X8.2608Y0.0841Z-0.0125
X8.3034Y0.1014
X8.3435Y0.1176
X8.3736Y0.1297
X8.3850Y0.1343
X8.3736Y0.1297
X8.3435Y0.1176
X8.3034Y0.1014
X8.2608Y0.0841
X8.3034Y0.1014Z-0.0201
X8.3435Y0.1176Z-0.0198
X8.3736Y0.1297Z-0.0150
X8.3850Y0.1343Z-0.0125
X8.3937Y0.1378Z-0.0105
X8.4238Y0.1500Z-0.0111
X8.4371Y0.1554Z-0.0125
X8.4639Y0.1662
X8.5241Y0.1905
X8.5944Y0.2189
X8.6345Y0.2351
X8.6418Y0.2381
X8.6345Y0.2351
X8.5944Y0.2189
X8.5241Y0.1905
X8.4639Y0.1662
X8.4371Y0.1554
X8.4639Y0.1662Z-0.0153
X8.5241Y0.1905Z-0.0201
X8.5944Y0.2189Z-0.0196
X8.6345Y0.2351Z-0.0139
X8.6418Y0.2381Z-0.0125
X8.6646Y0.2473Z-0.0083
X8.7649Y0.2878Z-0.0060
X8.8352Y0.3162Z-0.0063
X8.8853Y0.3365Z-0.0057
X9.0960Y0.4216Z-0.0043
X9.3469Y0.5229Z-0.0051
X9.3870Y0.5392Z-0.0098
X9.4073Y0.5474Z-0.0125
X9.4171Y0.5513
X9.4572Y0.5675
X9.5074Y0.5878
X9.5776Y0.6162
X9.5889Y0.6207
X9.5776Y0.6162
X9.5074Y0.5878
X9.4572Y0.5675
X9.4171Y0.5513
X9.4073Y0.5474
X9.4171Y0.5513Z-0.0138
X9.4572Y0.5675Z-0.0228
X9.5074Y0.5878Z-0.0234
X9.5776Y0.6162Z-0.0135
X9.5889Y0.6207Z-0.0125
X9.6378Y0.6405Z-0.0082
X9.9990Y0.7864Z-0.0022
X10.3101Y0.9121Z-0.0014
X10.8619Y1.1351Z-0.0012
Z0.0200
X10.8620Y1.1569
G1Z-0.0012F100.0
G1X10.2612Y0.9142Z-0.0023F200.0
X9.8908Y0.7645Z-0.0034
X9.7506Y0.7079Z-0.0071
X9.6104Y0.6513Z-0.0110
X9.5970Y0.6459Z-0.0125
X9.5203Y0.6149
X9.5003Y0.6068
X9.4502Y0.5865
X9.4147Y0.5722
X9.4502Y0.5865
X9.5003Y0.6068
X9.5203Y0.6149
X9.5970Y0.6459
X9.5203Y0.6149Z-0.0212
X9.5003Y0.6068Z-0.0233
X9.4502Y0.5865Z-0.0211
X9.4147Y0.5722Z-0.0125
X9.4001Y0.5663Z-0.0090
X9.3701Y0.5542Z-0.0072
X9.3200Y0.5340Z-0.0046
X8.9195Y0.3721Z-0.0046
X8.6592Y0.2670Z-0.0073
X8.6293Y0.2549Z-0.0125
X8.5891Y0.2386
X8.4990Y0.2022
X8.4717Y0.1912
X8.4990Y0.2022
X8.5891Y0.2386
X8.6293Y0.2549
X8.5891Y0.2386Z-0.0196
X8.4990Y0.2022Z-0.0179
X8.4717Y0.1912Z-0.0125
X8.4690Y0.1901Z-0.0120
X8.4089Y0.1658Z-0.0084
X8.3792Y0.1538Z-0.0125
X8.3788Y0.1537
X8.3488Y0.1416
X8.3088Y0.1254
X8.2787Y0.1132
X8.2559Y0.1040
X8.2787Y0.1132
X8.3088Y0.1254
X8.3488Y0.1416
X8.3788Y0.1537
X8.3792Y0.1538
X8.3788Y0.1537Z-0.0125
X8.3488Y0.1416Z-0.0190
X8.3088Y0.1254Z-0.0203
X8.2787Y0.1132Z-0.0178
X8.2559Y0.1040Z-0.0125
X8.2487Y0.1011Z-0.0108
X8.2350Y0.0956Z-0.0125
X8.2287Y0.0930
X8.2086Y0.0849
X8.1385Y0.0566
X8.0484Y0.0202
X8.0084Y0.0040
X8.0484Y0.0202
X8.1385Y0.0566
X8.2086Y0.0849
X8.2287Y0.0930
X8.2350Y0.0956
X8.2287Y0.0930Z-0.0133
X8.2086Y0.0849Z-0.0188
X8.1385Y0.0566Z-0.0204
X8.0484Y0.0202Z-0.0223
X8.0084Y0.0040Z-0.0183
Z-0.0125
Z0.0200
X7.9544Y0.0040
G1Z-0.0104F100.0
G1X7.9744Y0.0121Z-0.0105F200.0
X7.9810Y0.0148Z-0.0125
X8.0045Y0.0243
X8.0446Y0.0405
X8.1148Y0.0689
X8.1649Y0.0891
X8.2151Y0.1094
X8.2451Y0.1215
X8.2852Y0.1377
X8.3354Y0.1580
X8.3756Y0.1742
X8.3354Y0.1580
X8.2852Y0.1377
X8.2451Y0.1215
X8.2151Y0.1094
X8.1649Y0.0891
X8.1148Y0.0689
X8.0446Y0.0405
X8.0045Y0.0243
X7.9810Y0.0148
X8.0045Y0.0243Z-0.0196
X8.0446Y0.0405Z-0.0219
X8.1148Y0.0689Z-0.0173
X8.1649Y0.0891Z-0.0209
X8.2151Y0.1094Z-0.0195
X8.2451Y0.1215Z-0.0141
X8.2852Y0.1377Z-0.0201
X8.3354Y0.1580Z-0.0192
X8.3756Y0.1742Z-0.0125
X8.3855Y0.1782Z-0.0108
X8.4156Y0.1904Z-0.0071
X8.4757Y0.2147Z-0.0097
X8.4936Y0.2219Z-0.0125
X8.5058Y0.2268
X8.5459Y0.2430
X8.5860Y0.2592
X8.6103Y0.2691
X8.5860Y0.2592
X8.5459Y0.2430
X8.5058Y0.2268
X8.4936Y0.2219
X8.5058Y0.2268Z-0.0144
X8.5459Y0.2430Z-0.0143
X8.5860Y0.2592Z-0.0172
X8.6103Y0.2691Z-0.0125
X8.6161Y0.2714Z-0.0114
X8.6462Y0.2836Z-0.0068
X8.9971Y0.4253Z-0.0038
X9.3380Y0.5631Z-0.0051
X9.4082Y0.5914Z-0.0085
X9.4245Y0.5980Z-0.0125
X9.4483Y0.6076
X9.4984Y0.6279
X9.6197Y0.6769
X9.4984Y0.6279
X9.4483Y0.6076
X9.4245Y0.5980
X9.4483Y0.6076Z-0.0184
X9.4984Y0.6279Z-0.0216
X9.6197Y0.6769Z-0.0125
X9.6388Y0.6846Z-0.0111
X9.7490Y0.7291Z-0.0070
X9.8493Y0.7696Z-0.0043
X10.1200Y0.8790Z-0.0021
X10.8619Y1.1788Z-0.0012
Z0.0200
X10.8619Y1.2006
G1Z-0.0010F100.0
G1X10.3599Y0.9978Z-0.0019F200.0
X9.9785Y0.8437Z-0.0028
X9.9182Y0.8193Z-0.0038
X9.7476Y0.7504Z-0.0059
X9.6338Y0.7044Z-0.0125
X9.5468Y0.6693
X9.4865Y0.6449
X9.4445Y0.6280
X9.4865Y0.6449
X9.5468Y0.6693
X9.6338Y0.7044
X9.5468Y0.6693Z-0.0175
X9.4865Y0.6449Z-0.0179
X9.4445Y0.6280Z-0.0125
X9.3962Y0.6084Z-0.0063
X9.2255Y0.5395Z-0.0039
X8.7437Y0.3448Z-0.0047
X8.6332Y0.3002Z-0.0065
X8.5921Y0.2835Z-0.0125
X8.5830Y0.2799
X8.5701Y0.2747
X8.5830Y0.2799
X8.5921Y0.2835
X8.5830Y0.2799Z-0.0138
X8.5701Y0.2747Z-0.0125
X8.5328Y0.2596Z-0.0087
X8.5027Y0.2474Z-0.0094
X8.4626Y0.2312Z-0.0069
X8.4023Y0.2069Z-0.0075
X8.3622Y0.1907Z-0.0106
X8.3556Y0.1880Z-0.0125
X8.3321Y0.1785
X8.2718Y0.1542
X8.1614Y0.1095
X8.1212Y0.0933
X8.0811Y0.0771
X8.0610Y0.0690
X8.0309Y0.0568
X7.9907Y0.0406
X7.9707Y0.0325
X7.9444Y0.0219
X7.9707Y0.0325
X7.9907Y0.0406
X8.0309Y0.0568
X8.0610Y0.0690
X8.0811Y0.0771
X8.1212Y0.0933
X8.1614Y0.1095
X8.2718Y0.1542
X8.3321Y0.1785
X8.3556Y0.1880
X8.3321Y0.1785Z-0.0193
X8.2718Y0.1542Z-0.0206
X8.1614Y0.1095Z-0.0202
X8.1212Y0.0933Z-0.0138
X8.0811Y0.0771Z-0.0167
X8.0610Y0.0690Z-0.0179
X8.0309Y0.0568Z-0.0210
X7.9907Y0.0406Z-0.0186
X7.9707Y0.0325Z-0.0140
X7.9444Y0.0219Z-0.0125
X7.9405Y0.0203Z-0.0123
X7.9104Y0.0081Z-0.0086
X7.8903Y0.0000Z-0.0088
Z0.0200
X7.8462Y0.0040
G1Z-0.0102F100.0
G1X7.8662Y0.0121Z-0.0113F200.0
X7.8963Y0.0243Z-0.0088
X7.9364Y0.0405Z-0.0112
X7.9422Y0.0428Z-0.0125
X7.9664Y0.0526
X8.0365Y0.0809
X8.0566Y0.0890
X8.0766Y0.0971
X8.1262Y0.1172
X8.0766Y0.0971
X8.0566Y0.0890
X8.0365Y0.0809
X7.9664Y0.0526
X7.9422Y0.0428
X7.9664Y0.0526Z-0.0179
X8.0365Y0.0809Z-0.0199
X8.0566Y0.0890Z-0.0182
X8.0766Y0.0971Z-0.0141
X8.1262Y0.1172Z-0.0125
X8.1267Y0.1174Z-0.0125
X8.1268Y0.1174Z-0.0125
X8.1568Y0.1295
X8.2169Y0.1538
X8.2670Y0.1740
X8.3271Y0.1983
X8.3515Y0.2082
X8.3271Y0.1983
X8.2670Y0.1740
X8.2169Y0.1538
X8.1568Y0.1295
X8.1268Y0.1174
X8.1568Y0.1295Z-0.0181
X8.2169Y0.1538Z-0.0200
X8.2670Y0.1740Z-0.0205
X8.3271Y0.1983Z-0.0184
X8.3515Y0.2082Z-0.0125
X8.3672Y0.2145Z-0.0087
X8.4273Y0.2388Z-0.0065
X8.5475Y0.2874Z-0.0077
X8.5976Y0.3076Z-0.0078
X8.6978Y0.3481Z-0.0043
X9.3190Y0.5991Z-0.0042
X9.4292Y0.6436Z-0.0077
X9.4687Y0.6596Z-0.0125
X9.4993Y0.6720
X9.5595Y0.6962
X9.6496Y0.7327
X9.6533Y0.7342
X9.6496Y0.7327
X9.5595Y0.6962
X9.4993Y0.6720
X9.4687Y0.6596
X9.4993Y0.6720Z-0.0162
X9.5595Y0.6962Z-0.0174
X9.6496Y0.7327Z-0.0128
X9.6533Y0.7342Z-0.0125
X9.7498Y0.7732Z-0.0053
X10.1807Y0.9472Z-0.0018
X10.4111Y1.0403Z-0.0014
X10.8620Y1.2225Z-0.0011
Z0.0200
X10.8619Y1.2443
G1Z-0.0010F100.0
G1X9.9591Y0.8795Z-0.0031F200.0
X9.7584Y0.7985Z-0.0047
X9.6782Y0.7660Z-0.0087
X9.6409Y0.7510Z-0.0125
X9.5979Y0.7336
X9.5277Y0.7053
X9.4910Y0.6904
X9.5277Y0.7053
X9.5979Y0.7336
X9.6409Y0.7510
X9.5979Y0.7336Z-0.0169
X9.5277Y0.7053Z-0.0155
X9.4910Y0.6904Z-0.0125
X9.4775Y0.6850Z-0.0114
X9.4274Y0.6647Z-0.0064
X9.2568Y0.5958Z-0.0039
X8.8455Y0.4296Z-0.0039
X8.6349Y0.3445Z-0.0052
X8.3740Y0.2391Z-0.0067
X8.3379Y0.2246Z-0.0125
X8.3239Y0.2189
X8.2938Y0.2067
X8.2135Y0.1743
X8.1934Y0.1662
X8.1734Y0.1581
X8.1405Y0.1448
X8.1734Y0.1581
X8.1934Y0.1662
X8.2135Y0.1743
X8.2938Y0.2067
X8.3239Y0.2189
X8.3379Y0.2246
X8.3239Y0.2189Z-0.0148
X8.2938Y0.2067Z-0.0208
X8.2135Y0.1743Z-0.0189
X8.1934Y0.1662Z-0.0176
X8.1734Y0.1581Z-0.0139
X8.1405Y0.1448Z-0.0125
X8.1333Y0.1419Z-0.0122
X8.1132Y0.1338Z-0.0101
X8.0831Y0.1216Z-0.0122
X8.0814Y0.1209Z-0.0125
X8.0430Y0.1054
X7.9627Y0.0730
X7.9391Y0.0634
X7.9627Y0.0730
X8.0430Y0.1054
X8.0814Y0.1209
X8.0430Y0.1054Z-0.0197
X7.9627Y0.0730Z-0.0183
X7.9391Y0.0634Z-0.0125
X7.9326Y0.0608Z-0.0109
X7.8825Y0.0405Z-0.0102
X7.8673Y0.0344Z-0.0125
X7.8624Y0.0324
X7.8563Y0.0300
X7.8624Y0.0324
X7.8673Y0.0344
X7.8624Y0.0324Z-0.0132
X7.8563Y0.0300Z-0.0125
X7.8323Y0.0203Z-0.0096
X7.8058Y0.0096Z-0.0125
X7.8022Y0.0081
X7.7821Y0.0000
X7.8022Y0.0081
X7.8058Y0.0096
X7.8022Y0.0081Z-0.0129
X7.7821Y0.0000Z-0.0178
Z-0.0125
Z0.0200
X7.7281Y0.0000
G1Z-0.0125F100.0
G1X7.7783Y0.0203Z-0.0125F200.0
X7.8085Y0.0325
X7.8286Y0.0406
X7.8587Y0.0528
X7.8792Y0.0611
X7.8587Y0.0528
X7.8286Y0.0406
X7.8085Y0.0325
X7.7783Y0.0203
X7.7281Y0.0000
Z-0.0199
X7.7783Y0.0203Z-0.0191
X7.8085Y0.0325Z-0.0162
X7.8286Y0.0406Z-0.0127
X7.8587Y0.0528Z-0.0148
X7.8792Y0.0611Z-0.0125
X7.8989Y0.0690Z-0.0103
X7.9290Y0.0812Z-0.0102
X7.9387Y0.0851Z-0.0125
X7.9591Y0.0934
X7.9993Y0.1096
X8.0495Y0.1299
X8.0758Y0.1405
X8.0495Y0.1299
X7.9993Y0.1096
X7.9591Y0.0934
X7.9387Y0.0851
X7.9591Y0.0934Z-0.0173
X7.9993Y0.1096Z-0.0192
X8.0495Y0.1299Z-0.0177
X8.0758Y0.1405Z-0.0125
X8.0897Y0.1461Z-0.0098
X8.1198Y0.1583Z-0.0092
X8.1801Y0.1826Z-0.0116
X8.1827Y0.1837Z-0.0125
X8.1902Y0.1867
X8.2605Y0.2151
X8.2906Y0.2273
X8.3107Y0.2354
X8.3219Y0.2399
X8.3107Y0.2354
X8.2906Y0.2273
X8.2605Y0.2151
X8.1902Y0.1867
X8.1827Y0.1837
X8.1902Y0.1867Z-0.0152
X8.2605Y0.2151Z-0.0194
X8.2906Y0.2273Z-0.0206
X8.3107Y0.2354Z-0.0165
X8.3219Y0.2399Z-0.0125
X8.3308Y0.2435Z-0.0093
X8.3910Y0.2679Z-0.0055
X9.2247Y0.6047Z-0.0034
X9.4658Y0.7021Z-0.0063
X9.5155Y0.7222Z-0.0125
X9.5461Y0.7345
X9.5963Y0.7548
X9.6330Y0.7696
X9.5963Y0.7548
X9.5461Y0.7345
X9.5155Y0.7222
X9.5461Y0.7345Z-0.0163
X9.5963Y0.7548Z-0.0174
X9.6330Y0.7696Z-0.0125
X9.6566Y0.7792Z-0.0093
X9.7470Y0.8157Z-0.0047
X10.1287Y0.9699Z-0.0020
X10.8619Y1.2662Z-0.0011
Z0.0200
X10.8619Y1.2880
G1Z-0.0012F100.0
G1X9.9998Y0.9397Z-0.0029F200.0
X9.7692Y0.8465Z-0.0043
X9.6589Y0.8020Z-0.0081
X9.6289Y0.7898Z-0.0108
X9.6165Y0.7848Z-0.0125
X9.5787Y0.7696
X9.5286Y0.7493
X9.5268Y0.7486
X9.5286Y0.7493
X9.5787Y0.7696
X9.6165Y0.7848
X9.5787Y0.7696Z-0.0176
X9.5286Y0.7493Z-0.0127
X9.5268Y0.7486Z-0.0125
X9.4785Y0.7291Z-0.0058
X9.0875Y0.5711Z-0.0034
X8.6564Y0.3969Z-0.0043
X8.3456Y0.2714Z-0.0061
X8.3256Y0.2633Z-0.0080
X8.3121Y0.2578Z-0.0125
X8.2955Y0.2511
X8.2654Y0.2390
X8.2354Y0.2268
X8.1953Y0.2106
X8.1875Y0.2075
X8.1953Y0.2106
X8.2354Y0.2268
X8.2654Y0.2390
X8.2955Y0.2511
X8.3121Y0.2578
X8.2955Y0.2511Z-0.0180
X8.2654Y0.2390Z-0.0182
X8.2354Y0.2268Z-0.0143
X8.1953Y0.2106Z-0.0138
X8.1875Y0.2075Z-0.0125
X8.1652Y0.1985Z-0.0087
X8.1351Y0.1863Z-0.0100
X8.1050Y0.1742Z-0.0070
X8.0611Y0.1564Z-0.0125
X8.0349Y0.1458
X7.9948Y0.1296
X7.9647Y0.1175
X7.9346Y0.1053
X7.9329Y0.1046
X7.9346Y0.1053
X7.9647Y0.1175
X7.9948Y0.1296
X8.0349Y0.1458
X8.0611Y0.1564
X8.0349Y0.1458Z-0.0158
X7.9948Y0.1296Z-0.0194
X7.9647Y0.1175Z-0.0182
X7.9346Y0.1053Z-0.0128
X7.9329Y0.1046Z-0.0125
X7.9146Y0.0972Z-0.0093
X7.8935Y0.0887Z-0.0125
X7.8845Y0.0851
X7.8644Y0.0770
X7.8043Y0.0526
X7.7341Y0.0243
X7.6840Y0.0040
X7.7341Y0.0243
X7.8043Y0.0526
X7.8644Y0.0770
X7.8845Y0.0851
X7.8935Y0.0887
X7.8845Y0.0851Z-0.0139
X7.8644Y0.0770Z-0.0183
X7.8043Y0.0526Z-0.0189
X7.7341Y0.0243Z-0.0216
X7.6840Y0.0040Z-0.0196
Z-0.0125
Z0.0200
X7.6199Y0.0000
G1Z-0.0125F100.0
G1X7.6701Y0.0203Z-0.0125F200.0
X7.7604Y0.0568
X7.8106Y0.0771
X7.8709Y0.1014
X7.9101Y0.1172
X7.8709Y0.1014
X7.8106Y0.0771
X7.7604Y0.0568
X7.6701Y0.0203
X7.6199Y0.0000
Z-0.0194
X7.6701Y0.0203Z-0.0200
X7.7604Y0.0568Z-0.0193
X7.8106Y0.0771Z-0.0198
X7.8709Y0.1014Z-0.0187
X7.9101Y0.1172Z-0.0125
X7.9110Y0.1176Z-0.0124
X7.9121Y0.1181Z-0.0125
X7.9712Y0.1420
X8.0114Y0.1582
X8.0396Y0.1696
X8.0114Y0.1582
X7.9712Y0.1420
X7.9121Y0.1181
X7.9712Y0.1420Z-0.0201
X8.0114Y0.1582Z-0.0185
X8.0396Y0.1696Z-0.0125
X8.0415Y0.1703Z-0.0121
X8.1117Y0.1987Z-0.0069
X8.1419Y0.2109Z-0.0096
X8.1720Y0.2231Z-0.0073
X8.2222Y0.2433Z-0.0105
X8.2422Y0.2514Z-0.0112
X8.2548Y0.2565Z-0.0125
X8.2723Y0.2636
X8.2935Y0.2722
X8.2723Y0.2636
X8.2548Y0.2565
X8.2723Y0.2636Z-0.0144
X8.2935Y0.2722Z-0.0125
X8.3025Y0.2758Z-0.0117
X8.3326Y0.2879Z-0.0058
X8.6036Y0.3974Z-0.0047
X8.7039Y0.4380Z-0.0042
X8.9147Y0.5231Z-0.0035
X9.4366Y0.7340Z-0.0046
X9.5069Y0.7624Z-0.0064
X9.5409Y0.7761Z-0.0125
X9.5571Y0.7827
X9.5772Y0.7908
X9.6086Y0.8035
X9.5772Y0.7908
X9.5571Y0.7827
X9.5409Y0.7761
X9.5571Y0.7827Z-0.0154
X9.5772Y0.7908Z-0.0165
X9.6086Y0.8035Z-0.0125
X9.6374Y0.8151Z-0.0088
X9.7076Y0.8435Z-0.0051
X9.9887Y0.9571Z-0.0029
X10.3500Y1.1030Z-0.0022
X10.8619Y1.3099Z-0.0010
Z0.0200
X10.8620Y1.3317
G1Z-0.0011F100.0
G1X10.3610Y1.1293Z-0.0019F200.0
X10.1206Y1.0322Z-0.0021
X9.6898Y0.8581Z-0.0052
X9.6196Y0.8298Z-0.0096
X9.5877Y0.8169Z-0.0125
X9.5695Y0.8096
X9.5495Y0.8015
X9.5476Y0.8007
X9.5495Y0.8015
X9.5695Y0.8096
X9.5877Y0.8169
X9.5695Y0.8096Z-0.0142
X9.5495Y0.8015Z-0.0129
X9.5476Y0.8007Z-0.0125
X9.5094Y0.7853Z-0.0051
X9.1487Y0.6395Z-0.0035
X8.6779Y0.4493Z-0.0037
X8.6478Y0.4372Z-0.0063
X8.5777Y0.4088Z-0.0041
X8.3272Y0.3076Z-0.0057
X8.2671Y0.2833Z-0.0092
X8.2070Y0.2590Z-0.0074
X8.1569Y0.2388Z-0.0068
X8.1268Y0.2267Z-0.0071
X8.0567Y0.1983Z-0.0080
X8.0365Y0.1902Z-0.0125
X8.0266Y0.1862
X8.0166Y0.1821
X7.9565Y0.1578
X7.8864Y0.1295
X7.8062Y0.0971
X7.7661Y0.0809
X7.7261Y0.0647
X7.6559Y0.0364
X7.6058Y0.0162
X7.5789Y0.0053
X7.6058Y0.0162
X7.6559Y0.0364
X7.7261Y0.0647
X7.7661Y0.0809
X7.8062Y0.0971
X7.8864Y0.1295
X7.9565Y0.1578
X8.0166Y0.1821
X8.0266Y0.1862
X8.0365Y0.1902
X8.0266Y0.1862Z-0.0147
X8.0166Y0.1821Z-0.0176
X7.9565Y0.1578Z-0.0203
X7.8864Y0.1295Z-0.0186
X7.8062Y0.0971Z-0.0212
X7.7661Y0.0809Z-0.0180
X7.7261Y0.0647Z-0.0177
X7.6559Y0.0364Z-0.0205
X7.6058Y0.0162Z-0.0178
X7.5789Y0.0053Z-0.0125
X7.5758Y0.0040Z-0.0119
Z0.0200
X7.5117Y0.0000
G1Z-0.0103F100.0
G1X7.5519Y0.0162Z-0.0085F200.0
X7.5719Y0.0243Z-0.0117
X7.5755Y0.0258Z-0.0125
X7.6020Y0.0365
X7.6522Y0.0567
X7.7023Y0.0770
X7.7424Y0.0932
X7.7725Y0.1054
X7.8929Y0.1540
X8.0032Y0.1986
X8.0293Y0.2091
X8.0032Y0.1986
X7.8929Y0.1540
X7.7725Y0.1054
X7.7424Y0.0932
X7.7023Y0.0770
X7.6522Y0.0567
X7.6020Y0.0365
X7.5755Y0.0258
X7.6020Y0.0365Z-0.0184
X7.6522Y0.0567Z-0.0198
X7.7023Y0.0770Z-0.0163
X7.7424Y0.0932Z-0.0140
X7.7725Y0.1054Z-0.0174
X7.8929Y0.1540Z-0.0207
X8.0032Y0.1986Z-0.0182
X8.0293Y0.2091Z-0.0125
X8.0534Y0.2188Z-0.0072
X8.0935Y0.2351Z-0.0073
X8.1437Y0.2553Z-0.0064
X8.2741Y0.3080Z-0.0064
X8.3643Y0.3445Z-0.0047
X8.6452Y0.4579Z-0.0044
X8.8257Y0.5309Z-0.0031
X9.4476Y0.7822Z-0.0043
X9.5178Y0.8105Z-0.0049
X9.5379Y0.8186Z-0.0092
X9.5496Y0.8234Z-0.0125
X9.5580Y0.8267
X9.5780Y0.8348
X9.5943Y0.8414
X9.5780Y0.8348
X9.5580Y0.8267
X9.5496Y0.8234
X9.5580Y0.8267Z-0.0148
X9.5780Y0.8348Z-0.0145
X9.5943Y0.8414Z-0.0125
X9.6482Y0.8632Z-0.0060
X9.9492Y0.9848Z-0.0026
X10.8619Y1.3536Z-0.0012
Z0.0200
X10.8619Y1.3754
G1Z-0.0010F100.0
G1X10.6209Y1.2780Z-0.0011F200.0
X10.4401Y1.2050Z-0.0014
X9.7774Y0.9372Z-0.0037
X9.7573Y0.9291Z-0.0061
X9.7372Y0.9210Z-0.0043
X9.6368Y0.8804Z-0.0062
X9.5782Y0.8568Z-0.0125
X9.5565Y0.8480
X9.5469Y0.8441
X9.5565Y0.8480
X9.5782Y0.8568
X9.5565Y0.8480Z-0.0148
X9.5469Y0.8441Z-0.0125
X9.5364Y0.8399Z-0.0099
X9.5163Y0.8317Z-0.0047
X8.8435Y0.5599Z-0.0033
X8.8134Y0.5477Z-0.0037
X8.4016Y0.3814Z-0.0039
X8.2811Y0.3327Z-0.0051
X8.1908Y0.2962Z-0.0054
X8.0502Y0.2394Z-0.0068
X8.0134Y0.2246Z-0.0125
X7.9698Y0.2069
X7.8895Y0.1745
X7.8694Y0.1664
X7.8493Y0.1583
X7.8192Y0.1461
X7.7991Y0.1380
X7.7791Y0.1299
X7.7502Y0.1182
X7.7791Y0.1299
X7.7991Y0.1380
X7.8192Y0.1461
X7.8493Y0.1583
X7.8694Y0.1664
X7.8895Y0.1745
X7.9698Y0.2069
X8.0134Y0.2246
X7.9698Y0.2069Z-0.0193
X7.8895Y0.1745Z-0.0204
X7.8694Y0.1664Z-0.0205
X7.8493Y0.1583Z-0.0178
X7.8192Y0.1461Z-0.0183
X7.7991Y0.1380Z-0.0163
X7.7791Y0.1299Z-0.0172
X7.7502Y0.1182Z-0.0125
X7.7389Y0.1136Z-0.0107
X7.7061Y0.1004Z-0.0125
X7.6686Y0.0852
X7.6385Y0.0731
X7.5883Y0.0528
X7.5682Y0.0447
X7.5655Y0.0436
X7.5682Y0.0447
X7.5883Y0.0528
X7.6385Y0.0731
X7.6686Y0.0852
X7.7061Y0.1004
X7.6686Y0.0852Z-0.0146
X7.6385Y0.0731Z-0.0193
X7.5883Y0.0528Z-0.0179
X7.5682Y0.0447Z-0.0131
X7.5655Y0.0436Z-0.0125
X7.5481Y0.0365Z-0.0084
X7.5180Y0.0244Z-0.0103
X7.4778Y0.0081Z-0.0075
X7.4577Y0.0000Z-0.0084
Z0.0200
X7.4136Y0.0040
G1Z-0.0100F100.0
G1X7.4938Y0.0364Z-0.0077F200.0
X7.5222Y0.0479Z-0.0125
X7.5238Y0.0486
X7.5308Y0.0514
X7.5238Y0.0486
X7.5222Y0.0479
X7.5238Y0.0486Z-0.0128
X7.5308Y0.0514Z-0.0125
X7.5439Y0.0567Z-0.0120
X7.5478Y0.0583Z-0.0125
X7.5740Y0.0688
X7.5940Y0.0769
X7.6241Y0.0891
X7.6642Y0.1053
X7.6788Y0.1112
X7.6642Y0.1053
X7.6241Y0.0891
X7.5940Y0.0769
X7.5740Y0.0688
X7.5478Y0.0583
X7.5740Y0.0688Z-0.0161
X7.5940Y0.0769Z-0.0158
X7.6241Y0.0891Z-0.0188
X7.6642Y0.1053Z-0.0164
X7.6788Y0.1112Z-0.0125
X7.6842Y0.1134Z-0.0111
X7.7344Y0.1336Z-0.0089
X7.7571Y0.1428Z-0.0125
X7.7744Y0.1498
X7.8045Y0.1620
X7.8346Y0.1741
X7.8747Y0.1903
X7.9248Y0.2106
X7.9549Y0.2227
X7.9749Y0.2308
X7.9894Y0.2367
X7.9749Y0.2308
X7.9549Y0.2227
X7.9248Y0.2106
X7.8747Y0.1903
X7.8346Y0.1741
X7.8045Y0.1620
X7.7744Y0.1498
X7.7571Y0.1428
X7.7744Y0.1498Z-0.0152
X7.8045Y0.1620Z-0.0132
X7.8346Y0.1741Z-0.0176
X7.8747Y0.1903Z-0.0198
X7.9248Y0.2106Z-0.0172
X7.9549Y0.2227Z-0.0198
X7.9749Y0.2308Z-0.0160
X7.9894Y0.2367Z-0.0125
X7.9950Y0.2389Z-0.0111
X8.0652Y0.2673Z-0.0056
X8.6566Y0.5063Z-0.0030
X8.8871Y0.5994Z-0.0029
X9.5087Y0.8505Z-0.0043
X9.5187Y0.8546Z-0.0052
X9.5373Y0.8621Z-0.0125
X9.5387Y0.8627
X9.5588Y0.8708
X9.5780Y0.8785
X9.5588Y0.8708
X9.5387Y0.8627
X9.5373Y0.8621
X9.5387Y0.8627Z-0.0130
X9.5588Y0.8708Z-0.0147
X9.5780Y0.8785Z-0.0125
X9.6390Y0.9032Z-0.0054
X9.9598Y1.0328Z-0.0030
X10.5111Y1.2555Z-0.0014
X10.8619Y1.3973Z-0.0010
Z0.0200
X10.8619Y1.4191
G1Z-0.0010F100.0
G1X10.3100Y1.1961Z-0.0015F200.0
X9.6376Y0.9245Z-0.0049
X9.5874Y0.9042Z-0.0101
X9.5733Y0.8985Z-0.0125
X9.5573Y0.8920
X9.5372Y0.8839
X9.5337Y0.8825
X9.5372Y0.8839
X9.5573Y0.8920
X9.5733Y0.8985
X9.5573Y0.8920Z-0.0152
X9.5372Y0.8839Z-0.0139
X9.5337Y0.8825Z-0.0125
X9.5172Y0.8758Z-0.0058
X9.4871Y0.8636Z-0.0042
X8.5237Y0.4744Z-0.0031
X8.3230Y0.3933Z-0.0046
X8.0119Y0.2676Z-0.0058
X7.9818Y0.2555Z-0.0098
X7.9711Y0.2511Z-0.0125
X7.9516Y0.2433
X7.9316Y0.2352
X7.8513Y0.2027
X7.8312Y0.1946
X7.8146Y0.1879
X7.8312Y0.1946
X7.8513Y0.2027
X7.9316Y0.2352
X7.9516Y0.2433
X7.9711Y0.2511
X7.9516Y0.2433Z-0.0173
X7.9316Y0.2352Z-0.0169
X7.8513Y0.2027Z-0.0166
X7.8312Y0.1946Z-0.0156
X7.8146Y0.1879Z-0.0125
X7.8011Y0.1825Z-0.0100
X7.7610Y0.1663Z-0.0109
X7.7208Y0.1500Z-0.0080
X7.6807Y0.1338Z-0.0101
X7.6713Y0.1300Z-0.0125
X7.6506Y0.1217
X7.5904Y0.0973
X7.5302Y0.0730
X7.5142Y0.0666
X7.5302Y0.0730
X7.5904Y0.0973
X7.6506Y0.1217
X7.6713Y0.1300
X7.6506Y0.1217Z-0.0177
X7.5904Y0.0973Z-0.0183
X7.5302Y0.0730Z-0.0165
X7.5142Y0.0666Z-0.0125
X7.5001Y0.0608Z-0.0090
X7.4599Y0.0446Z-0.0076
X7.4198Y0.0284Z-0.0098
X7.3796Y0.0122Z-0.0110
X7.3678Y0.0074Z-0.0125
X7.3596Y0.0041
X7.3495Y0.0000
X7.3596Y0.0041
X7.3678Y0.0074
X7.3596Y0.0041Z-0.0135
X7.3495Y0.0000Z-0.0166
Z-0.0125
Z0.0200
X7.3054Y0.0040
G1Z-0.0125F100.0
G1X7.3455Y0.0202Z-0.0125F200.0
X7.3651Y0.0282
X7.3455Y0.0202
X7.3054Y0.0040
Z-0.0203
X7.3455Y0.0202Z-0.0166
X7.3651Y0.0282Z-0.0125
X7.3755Y0.0324Z-0.0103
X7.3955Y0.0405Z-0.0092
X7.4256Y0.0526Z-0.0124
X7.4557Y0.0647Z-0.0088
X7.4757Y0.0728Z-0.0107
X7.4957Y0.0809Z-0.0095
X7.5092Y0.0864Z-0.0125
X7.5358Y0.0971
X7.6160Y0.1295
X7.6560Y0.1457
X7.6664Y0.1499
X7.6560Y0.1457
X7.6160Y0.1295
X7.5358Y0.0971
X7.5092Y0.0864
X7.5358Y0.0971Z-0.0185
X7.6160Y0.1295Z-0.0185
X7.6560Y0.1457Z-0.0142
X7.6664Y0.1499Z-0.0125
X7.6961Y0.1619Z-0.0075
X7.7362Y0.1781Z-0.0081
X7.7562Y0.1862Z-0.0099
X7.7963Y0.2024Z-0.0087
X7.8336Y0.2175Z-0.0125
X7.8464Y0.2226
X7.8764Y0.2348
X7.9165Y0.2509
X7.9365Y0.2590
X7.9549Y0.2664
X7.9365Y0.2590
X7.9165Y0.2509
X7.8764Y0.2348
X7.8464Y0.2226
X7.8336Y0.2175
X7.8464Y0.2226Z-0.0138
X7.8764Y0.2348Z-0.0135
X7.9165Y0.2509Z-0.0157
X7.9365Y0.2590Z-0.0155
X7.9549Y0.2664Z-0.0125
X7.9967Y0.2833Z-0.0055
X8.5176Y0.4938Z-0.0031
X9.0787Y0.7205Z-0.0034
X9.5095Y0.8945Z-0.0048
X9.5195Y0.8986Z-0.0068
X9.5339Y0.9044Z-0.0125
X9.5395Y0.9067
X9.5680Y0.9182
X9.5395Y0.9067
X9.5339Y0.9044
X9.5395Y0.9067Z-0.0147
X9.5680Y0.9182Z-0.0125
X9.5696Y0.9188Z-0.0124
X9.6397Y0.9472Z-0.0044
X9.9603Y1.0767Z-0.0029
X10.5714Y1.3236Z-0.0012
X10.8620Y1.4410Z-0.0013
Z0.0200
X10.8619Y1.4628
G1Z-0.0011F100.0
G1X10.1097Y1.1589Z-0.0024F200.0
X9.6985Y0.9928Z-0.0040
X9.6183Y0.9604Z-0.0055
X9.5590Y0.9364Z-0.0125
X9.5481Y0.9320
X9.5285Y0.9241
X9.5481Y0.9320
X9.5590Y0.9364
X9.5481Y0.9320Z-0.0138
X9.5285Y0.9241Z-0.0125
X9.5280Y0.9239Z-0.0125
X9.5080Y0.9158Z-0.0052
X9.4478Y0.8915Z-0.0041
X8.6354Y0.5632Z-0.0030
X8.3145Y0.4336Z-0.0031
X8.2142Y0.3931Z-0.0037
X7.9735Y0.2958Z-0.0061
X7.9434Y0.2837Z-0.0106
X7.9353Y0.2804Z-0.0125
X7.9334Y0.2796
X7.9228Y0.2753
X7.9334Y0.2796
X7.9353Y0.2804
X7.9334Y0.2796Z-0.0130
X7.9228Y0.2753Z-0.0125
X7.8932Y0.2634Z-0.0112
X7.8632Y0.2512Z-0.0087
X7.8130Y0.2310Z-0.0111
X7.7829Y0.2188Z-0.0066
X7.7428Y0.2026Z-0.0082
X7.7227Y0.1945Z-0.0057
X7.6626Y0.1702Z-0.0114
X7.6568Y0.1679Z-0.0125
X7.6425Y0.1621
X7.5924Y0.1418
X7.5522Y0.1256
X7.5222Y0.1135
X7.5072Y0.1074
X7.5222Y0.1135
X7.5522Y0.1256
X7.5924Y0.1418
X7.6425Y0.1621
X7.6568Y0.1679
X7.6425Y0.1621Z-0.0153
X7.5924Y0.1418Z-0.0165
X7.5522Y0.1256Z-0.0190
X7.5222Y0.1135Z-0.0173
X7.5072Y0.1074Z-0.0125
X7.5021Y0.1054Z-0.0109
X7.4921Y0.1013Z-0.0093
X7.4419Y0.0810Z-0.0108
X7.4291Y0.0759Z-0.0125
X7.4118Y0.0689
X7.3985Y0.0635
X7.4118Y0.0689
X7.4291Y0.0759
X7.4118Y0.0689Z-0.0148
X7.3985Y0.0635Z-0.0125
X7.3918Y0.0608Z-0.0114
X7.3806Y0.0563Z-0.0125
X7.3115Y0.0284
X7.2614Y0.0081
X7.2413Y0.0000
X7.2614Y0.0081
X7.3115Y0.0284
X7.3806Y0.0563
X7.3115Y0.0284Z-0.0196
X7.2614Y0.0081Z-0.0208
X7.2413Y0.0000Z-0.0198
Z-0.0125
Z0.0200
X7.1873Y0.0000
G1Z-0.0125F100.0
G1X7.2977Y0.0446Z-0.0125F200.0
X7.3279Y0.0568
X7.3580Y0.0690
X7.4182Y0.0933
X7.4515Y0.1068
X7.4182Y0.0933
X7.3580Y0.0690
X7.3279Y0.0568
X7.2977Y0.0446
X7.1873Y0.0000
Z-0.0209
X7.2977Y0.0446Z-0.0195
X7.3279Y0.0568Z-0.0194
X7.3580Y0.0690Z-0.0173
X7.4182Y0.0933Z-0.0172
X7.4515Y0.1068Z-0.0125
X7.4785Y0.1177Z-0.0087
X7.4885Y0.1217Z-0.0090
X7.4982Y0.1256Z-0.0125
X7.5086Y0.1298
X7.5487Y0.1461
X7.5889Y0.1623
X7.6190Y0.1744
X7.6345Y0.1807
X7.6190Y0.1744
X7.5889Y0.1623
X7.5487Y0.1461
X7.5086Y0.1298
X7.4982Y0.1256
X7.5086Y0.1298Z-0.0162
X7.5487Y0.1461Z-0.0191
X7.5889Y0.1623Z-0.0181
X7.6190Y0.1744Z-0.0127
X7.6345Y0.1807Z-0.0125
X7.6391Y0.1826Z-0.0124
X7.6592Y0.1907Z-0.0088
X7.7295Y0.2191Z-0.0060
X7.7596Y0.2312Z-0.0077
X7.7897Y0.2434Z-0.0056
X7.8198Y0.2556Z-0.0081
X7.8700Y0.2759Z-0.0058
X7.9202Y0.2961Z-0.0075
X8.0106Y0.3326Z-0.0045
X8.2616Y0.4341Z-0.0038
X8.4624Y0.5152Z-0.0030
X8.6431Y0.5882Z-0.0031
X9.4965Y0.9330Z-0.0041
X9.5166Y0.9411Z-0.0077
X9.5426Y0.9516Z-0.0125
X9.5467Y0.9533
X9.5538Y0.9562
X9.5467Y0.9533
X9.5426Y0.9516
X9.5467Y0.9533Z-0.0132
X9.5538Y0.9562Z-0.0125
X9.6270Y0.9857Z-0.0049
X9.9081Y1.0993Z-0.0030
X10.5808Y1.3711Z-0.0011
X10.8619Y1.4847Z-0.0014
Z0.0200
X10.8619Y1.5065
G1Z-0.0014F100.0
G1X10.0901Y1.1947Z-0.0021F200.0
X9.9598Y1.1420Z-0.0035
X9.6992Y1.0367Z-0.0037
X9.5990Y0.9962Z-0.0071
X9.5517Y0.9771Z-0.0125
X9.5488Y0.9760
X9.5456Y0.9747
X9.5488Y0.9760
X9.5517Y0.9771
X9.5488Y0.9760Z-0.0128
X9.5456Y0.9747Z-0.0125
X9.5288Y0.9679Z-0.0108
X9.5088Y0.9598Z-0.0052
X9.4486Y0.9355Z-0.0049
X8.6567Y0.6156Z-0.0028
X8.2458Y0.4495Z-0.0031
X8.2357Y0.4455Z-0.0044
X8.1556Y0.4131Z-0.0032
X7.8348Y0.2835Z-0.0058
X7.7546Y0.2511Z-0.0062
X7.7145Y0.2349Z-0.0049
X7.6243Y0.1984Z-0.0092
X7.6123Y0.1936Z-0.0125
X7.5942Y0.1863
X7.5742Y0.1782
X7.5341Y0.1620
X7.4940Y0.1458
X7.4792Y0.1398
X7.4940Y0.1458
X7.5341Y0.1620
X7.5742Y0.1782
X7.5942Y0.1863
X7.6123Y0.1936
X7.5942Y0.1863Z-0.0175
X7.5742Y0.1782Z-0.0181
X7.5341Y0.1620Z-0.0196
X7.4940Y0.1458Z-0.0152
X7.4792Y0.1398Z-0.0125
X7.4739Y0.1377Z-0.0115
X7.4680Y0.1353Z-0.0125
X7.4339Y0.1215
X7.3737Y0.0972
X7.3436Y0.0850
X7.3035Y0.0688
X7.2534Y0.0486
X7.1632Y0.0121
X7.1432Y0.0040
X7.1632Y0.0121
X7.2534Y0.0486
X7.3035Y0.0688
X7.3436Y0.0850
X7.3737Y0.0972
X7.4339Y0.1215
X7.4680Y0.1353
X7.4339Y0.1215Z-0.0180
X7.3737Y0.0972Z-0.0186
X7.3436Y0.0850Z-0.0185
X7.3035Y0.0688Z-0.0216
X7.2534Y0.0486Z-0.0195
X7.1632Y0.0121Z-0.0185
X7.1432Y0.0040Z-0.0188
Z-0.0125
Z0.0200
X7.0791Y0.0000
G1Z-0.0125F100.0
G1X7.1092Y0.0122Z-0.0125F200.0
X7.1193Y0.0162
X7.1694Y0.0365
X7.2096Y0.0527
X7.2397Y0.0649
X7.2898Y0.0851
X7.3701Y0.1176
X7.4704Y0.1581
X7.5407Y0.1865
X7.5607Y0.1946
X7.5908Y0.2068
X7.6061Y0.2129
X7.5908Y0.2068
X7.5607Y0.1946
X7.5407Y0.1865
X7.4704Y0.1581
X7.3701Y0.1176
X7.2898Y0.0851
X7.2397Y0.0649
X7.2096Y0.0527
X7.1694Y0.0365
X7.1193Y0.0162
X7.1092Y0.0122
X7.0791Y0.0000
Z-0.0142
X7.1092Y0.0122Z-0.0148
X7.1193Y0.0162Z-0.0133
X7.1694Y0.0365Z-0.0186
X7.2096Y0.0527Z-0.0185
X7.2397Y0.0649Z-0.0203
X7.2898Y0.0851Z-0.0192
X7.3701Y0.1176Z-0.0204
X7.4704Y0.1581Z-0.0173
X7.5407Y0.1865Z-0.0196
X7.5607Y0.1946Z-0.0172
X7.5908Y0.2068Z-0.0159
X7.6061Y0.2129Z-0.0125
X7.6310Y0.2230Z-0.0069
X7.6611Y0.2351Z-0.0056
X7.6912Y0.2473Z-0.0064
X7.8016Y0.2919Z-0.0048
X8.4939Y0.5716Z-0.0024
X9.3267Y0.9081Z-0.0048
X9.3869Y0.9324Z-0.0069
X9.4973Y0.9770Z-0.0048
X9.5374Y0.9932Z-0.0119
X9.5675Y1.0054Z-0.0110
X9.6077Y1.0216Z-0.0069
X9.6679Y1.0459Z-0.0039
X9.6879Y1.0540Z-0.0065
X9.7080Y1.0622Z-0.0030
X10.0793Y1.2122Z-0.0020
X10.8619Y1.5284Z-0.0014
Z0.0200
X10.8620Y1.5502
G1Z-0.0014F100.0
G1X10.0906Y1.2386Z-0.0018F200.0
X9.6998Y1.0807Z-0.0029
X9.6798Y1.0726Z-0.0063
X9.6698Y1.0686Z-0.0028
X9.5696Y1.0281Z-0.0107
X9.5479Y1.0193Z-0.0125
X9.5395Y1.0159
X9.5350Y1.0141
X9.5395Y1.0159
X9.5479Y1.0193
X9.5395Y1.0159Z-0.0132
X9.5350Y1.0141Z-0.0125
X9.5195Y1.0078Z-0.0102
X9.5095Y1.0038Z-0.0070
X9.4895Y0.9957Z-0.0068
X9.4594Y0.9836Z-0.0101
X9.4293Y0.9714Z-0.0089
X9.4037Y0.9610Z-0.0125
X9.3993Y0.9593
X9.3692Y0.9471
X9.3657Y0.9457
X9.3692Y0.9471
X9.3993Y0.9593
X9.4037Y0.9610
X9.3993Y0.9593Z-0.0131
X9.3692Y0.9471Z-0.0131
X9.3657Y0.9457Z-0.0125
X9.3392Y0.9350Z-0.0077
X9.2991Y0.9188Z-0.0047
X8.7681Y0.7043Z-0.0029
X8.6880Y0.6719Z-0.0025
X7.9667Y0.3805Z-0.0033
X7.7363Y0.2874Z-0.0046
X7.6661Y0.2590Z-0.0054
X7.6361Y0.2469Z-0.0058
X7.5948Y0.2302Z-0.0125
X7.5659Y0.2186
X7.4257Y0.1619
X7.3155Y0.1174
X7.2854Y0.1052
X7.2454Y0.0890
X7.2153Y0.0769
X7.1552Y0.0526
X7.1254Y0.0406
X7.1552Y0.0526
X7.2153Y0.0769
X7.2454Y0.0890
X7.2854Y0.1052
X7.3155Y0.1174
X7.4257Y0.1619
X7.5659Y0.2186
X7.5948Y0.2302
X7.5659Y0.2186Z-0.0172
X7.4257Y0.1619Z-0.0199
X7.3155Y0.1174Z-0.0189
X7.2854Y0.1052Z-0.0163
X7.2454Y0.0890Z-0.0188
X7.2153Y0.0769Z-0.0221
X7.1552Y0.0526Z-0.0176
X7.1254Y0.0406Z-0.0125
X7.1151Y0.0364Z-0.0107
X7.0650Y0.0162Z-0.0110
X7.0350Y0.0040Z-0.0091
Z0.0200
X6.9810Y0.0041
G1Z-0.0125F100.0
G1X6.9920Y0.0085Z-0.0125F200.0
X6.9810Y0.0041
Z-0.0138
X6.9920Y0.0085Z-0.0125
X7.0311Y0.0243Z-0.0078
X7.1214Y0.0608Z-0.0108
X7.1290Y0.0639Z-0.0125
X7.1615Y0.0770
X7.2116Y0.0972
X7.2818Y0.1256
X7.2918Y0.1297
X7.3219Y0.1418
X7.3921Y0.1702
X7.4122Y0.1783
X7.4523Y0.1945
X7.5024Y0.2147
X7.5325Y0.2269
X7.5526Y0.2350
X7.5726Y0.2431
X7.5815Y0.2467
X7.5726Y0.2431
X7.5526Y0.2350
X7.5325Y0.2269
X7.5024Y0.2147
X7.4523Y0.1945
X7.4122Y0.1783
X7.3921Y0.1702
X7.3219Y0.1418
X7.2918Y0.1297
X7.2818Y0.1256
X7.2116Y0.0972
X7.1615Y0.0770
X7.1290Y0.0639
X7.1615Y0.0770Z-0.0199
X7.2116Y0.0972Z-0.0205
X7.2818Y0.1256Z-0.0137
X7.2918Y0.1297Z-0.0137
X7.3219Y0.1418Z-0.0177
X7.3921Y0.1702Z-0.0188
X7.4122Y0.1783Z-0.0181
X7.4523Y0.1945Z-0.0205
X7.5024Y0.2147Z-0.0175
X7.5325Y0.2269Z-0.0183
X7.5526Y0.2350Z-0.0149
X7.5726Y0.2431Z-0.0142
X7.5815Y0.2467Z-0.0125
X7.5927Y0.2512Z-0.0104
X7.6228Y0.2634Z-0.0074
X7.6629Y0.2796Z-0.0050
X7.6930Y0.2917Z-0.0058
X7.9637Y0.4011Z-0.0031
X8.7259Y0.7091Z-0.0030
X9.1471Y0.8792Z-0.0041
X9.2875Y0.9359Z-0.0073
X9.3276Y0.9522Z-0.0069
X9.3477Y0.9603Z-0.0098
X9.3615Y0.9659Z-0.0125
X9.3777Y0.9724
X9.4178Y0.9886
X9.4379Y0.9967
X9.4680Y1.0089
X9.4731Y1.0109
X9.4680Y1.0089
X9.4379Y0.9967
X9.4178Y0.9886
X9.3777Y0.9724
X9.3615Y0.9659
X9.3777Y0.9724Z-0.0157
X9.4178Y0.9886Z-0.0140
X9.4379Y0.9967Z-0.0127
X9.4680Y1.0089Z-0.0136
X9.4731Y1.0109Z-0.0125
X9.4981Y1.0210Z-0.0069
X9.5081Y1.0251Z-0.0076
X9.5261Y1.0324Z-0.0125
X9.5282Y1.0332
X9.5482Y1.0413
X9.5535Y1.0434
X9.5482Y1.0413
X9.5282Y1.0332
X9.5261Y1.0324
X9.5282Y1.0332Z-0.0131
X9.5482Y1.0413Z-0.0131
X9.5535Y1.0434Z-0.0125
X9.6084Y1.0656Z-0.0066
X9.6485Y1.0818Z-0.0028
X10.8519Y1.5680Z-0.0014
X10.8619Y1.5721Z-0.0015
Z0.0200
X10.8619Y1.5939
G1Z-0.0010F100.0
G1X9.9685Y1.2329Z-0.0027F200.0
X9.6272Y1.0951Z-0.0029
X9.5971Y1.0829Z-0.0064
X9.5569Y1.0667Z-0.0113
X9.5268Y1.0545Z-0.0115
X9.4967Y1.0423Z-0.0074
X9.4743Y1.0333Z-0.0125
X9.4666Y1.0302
X9.4164Y1.0099
X9.3809Y0.9955
X9.4164Y1.0099
X9.4666Y1.0302
X9.4743Y1.0333
X9.4666Y1.0302Z-0.0142
X9.4164Y1.0099Z-0.0164
X9.3809Y0.9955Z-0.0125
X9.3562Y0.9856Z-0.0098
X9.3261Y0.9734Z-0.0064
X9.2722Y0.9516Z-0.0125
X9.2658Y0.9491
X9.2458Y0.9409
X9.2424Y0.9396
X9.2458Y0.9409
X9.2658Y0.9491
X9.2722Y0.9516
X9.2658Y0.9491Z-0.0132
X9.2458Y0.9409Z-0.0132
X9.2424Y0.9396Z-0.0125
X9.2156Y0.9288Z-0.0072
X8.9948Y0.8395Z-0.0033
X7.9910Y0.4340Z-0.0027
X7.6296Y0.2880Z-0.0052
X7.5493Y0.2555Z-0.0107
X7.5428Y0.2529Z-0.0125
X7.5192Y0.2434
X7.4790Y0.2271
X7.4188Y0.2028
X7.3987Y0.1947
X7.3787Y0.1866
X7.3485Y0.1744
X7.3184Y0.1622
X7.2918Y0.1515
X7.3184Y0.1622
X7.3485Y0.1744
X7.3787Y0.1866
X7.3987Y0.1947
X7.4188Y0.2028
X7.4790Y0.2271
X7.5192Y0.2434
X7.5428Y0.2529
X7.5192Y0.2434Z-0.0190
X7.4790Y0.2271Z-0.0173
X7.4188Y0.2028Z-0.0188
X7.3987Y0.1947Z-0.0175
X7.3787Y0.1866Z-0.0192
X7.3485Y0.1744Z-0.0163
X7.3184Y0.1622Z-0.0174
X7.2918Y0.1515Z-0.0125
X7.2883Y0.1501Z-0.0119
X7.2780Y0.1459Z-0.0125
X7.2381Y0.1298
X7.2180Y0.1217
X7.1879Y0.1095
X7.1377Y0.0892
X7.1156Y0.0803
X7.1377Y0.0892
X7.1879Y0.1095
X7.2180Y0.1217
X7.2381Y0.1298
X7.2780Y0.1459
X7.2381Y0.1298Z-0.0149
X7.2180Y0.1217Z-0.0155
X7.1879Y0.1095Z-0.0201
X7.1377Y0.0892Z-0.0182
X7.1156Y0.0803Z-0.0125
X7.1076Y0.0771Z-0.0104
X7.0775Y0.0649Z-0.0118
X7.0474Y0.0527Z-0.0077
X7.0072Y0.0365Z-0.0090
X6.9707Y0.0218Z-0.0125
X6.9671Y0.0203
X6.9470Y0.0122
X6.9169Y0.0000
X6.9470Y0.0122
X6.9671Y0.0203
X6.9707Y0.0218
X6.9671Y0.0203Z-0.0128
X6.9470Y0.0122Z-0.0165
X6.9169Y0.0000Z-0.0175
Z-0.0125
Z0.0200
X6.8728Y0.0040
G1Z-0.0125F100.0
G1X6.9512Y0.0357Z-0.0125F200.0
X6.8728Y0.0040
Z-0.0187
X6.9512Y0.0357Z-0.0125
X7.0031Y0.0567Z-0.0084
X7.0532Y0.0769Z-0.0080
X7.0736Y0.0852Z-0.0125
X7.0833Y0.0891
X7.1233Y0.1053
X7.1634Y0.1215
X7.1835Y0.1296
X7.2035Y0.1377
X7.2236Y0.1458
X7.2250Y0.1463
X7.2236Y0.1458
X7.2035Y0.1377
X7.1835Y0.1296
X7.1634Y0.1215
X7.1233Y0.1053
X7.0833Y0.0891
X7.0736Y0.0852
X7.0833Y0.0891Z-0.0147
X7.1233Y0.1053Z-0.0178
X7.1634Y0.1215Z-0.0186
X7.1835Y0.1296Z-0.0198
X7.2035Y0.1377Z-0.0182
X7.2236Y0.1458Z-0.0125
X7.2250Y0.1463Z-0.0125
X7.2937Y0.1741Z-0.0110
X7.3149Y0.1827Z-0.0125
X7.3338Y0.1903
X7.3539Y0.1984
X7.3940Y0.2146
X7.4541Y0.2389
X7.4942Y0.2551
X7.5142Y0.2632
X7.5294Y0.2693
X7.5142Y0.2632
X7.4942Y0.2551
X7.4541Y0.2389
X7.3940Y0.2146
X7.3539Y0.1984
X7.3338Y0.1903
X7.3149Y0.1827
X7.3338Y0.1903Z-0.0138
X7.3539Y0.1984Z-0.0129
X7.3940Y0.2146Z-0.0180
X7.4541Y0.2389Z-0.0190
X7.4942Y0.2551Z-0.0156
X7.5142Y0.2632Z-0.0161
X7.5294Y0.2693Z-0.0125
X7.5543Y0.2794Z-0.0066
X7.6746Y0.3280Z-0.0045
X8.2660Y0.5669Z-0.0017
X8.6769Y0.7330Z-0.0028
X8.7070Y0.7451Z-0.0040
X8.9074Y0.8261Z-0.0034
X9.0578Y0.8868Z-0.0042
X9.0879Y0.8990Z-0.0074
X9.1079Y0.9071Z-0.0083
X9.1380Y0.9192Z-0.0110
X9.1580Y0.9273Z-0.0115
X9.1881Y0.9395Z-0.0067
X9.2081Y0.9476Z-0.0091
X9.2220Y0.9532Z-0.0125
X9.2382Y0.9597
X9.2783Y0.9759
X9.2866Y0.9793
X9.2783Y0.9759
X9.2382Y0.9597
X9.2220Y0.9532
X9.2382Y0.9597Z-0.0165
X9.2783Y0.9759Z-0.0140
X9.2866Y0.9793Z-0.0125
X9.3184Y0.9921Z-0.0067
X9.3585Y1.0083Z-0.0072
X9.3886Y1.0205Z-0.0095
X9.4023Y1.0260Z-0.0125
X9.4186Y1.0326
X9.4487Y1.0448
X9.4702Y1.0535
X9.4487Y1.0448
X9.4186Y1.0326
X9.4023Y1.0260
X9.4186Y1.0326Z-0.0161
X9.4487Y1.0448Z-0.0157
X9.4702Y1.0535Z-0.0125
X9.4788Y1.0569Z-0.0112
X9.4988Y1.0650Z-0.0069
X9.5189Y1.0731Z-0.0084
X9.5389Y1.0812Z-0.0115
X9.5690Y1.0934Z-0.0091
X9.5990Y1.1055Z-0.0037
X9.6792Y1.1379Z-0.0019
X10.8619Y1.6158Z-0.0009
Z0.0200
X10.8619Y1.6376
G1Z-0.0008F100.0
G1X10.1496Y1.3498Z-0.0021F200.0
X9.5978Y1.1269Z-0.0028
X9.5577Y1.1107Z-0.0074
X9.5376Y1.1026Z-0.0095
X9.5075Y1.0904Z-0.0058
X9.4975Y1.0863Z-0.0061
X9.4722Y1.0761Z-0.0125
X9.4674Y1.0742
X9.4172Y1.0539
X9.3974Y1.0459
X9.4172Y1.0539
X9.4674Y1.0742
X9.4722Y1.0761
X9.4674Y1.0742Z-0.0137
X9.4172Y1.0539Z-0.0161
X9.3974Y1.0459Z-0.0125
X9.3971Y1.0458Z-0.0125
X9.3771Y1.0377Z-0.0086
X9.3269Y1.0174Z-0.0058
X9.2768Y0.9972Z-0.0125
X9.2467Y0.9850
X9.2166Y0.9728
X9.2043Y0.9679
X9.2166Y0.9728
X9.2467Y0.9850
X9.2768Y0.9972
X9.2467Y0.9850Z-0.0182
X9.2166Y0.9728Z-0.0168
X9.2043Y0.9679Z-0.0125
X9.1965Y0.9647Z-0.0098
X9.1764Y0.9566Z-0.0119
X9.1732Y0.9553Z-0.0125
X9.1564Y0.9485
X9.1162Y0.9323
X9.0996Y0.9256
X9.1162Y0.9323
X9.1564Y0.9485
X9.1732Y0.9553
X9.1564Y0.9485Z-0.0155
X9.1162Y0.9323Z-0.0156
X9.0996Y0.9256Z-0.0125
X9.0560Y0.9080Z-0.0043
X8.4440Y0.6607Z-0.0022
X7.7016Y0.3608Z-0.0035
X7.5511Y0.3000Z-0.0056
X7.5131Y0.2846Z-0.0125
X7.5010Y0.2797
X7.4508Y0.2594
X7.4207Y0.2473
X7.4006Y0.2392
X7.3705Y0.2270
X7.3679Y0.2259
X7.3705Y0.2270
X7.4006Y0.2392
X7.4207Y0.2473
X7.4508Y0.2594
X7.5010Y0.2797
X7.5131Y0.2846
X7.5010Y0.2797Z-0.0147
X7.4508Y0.2594Z-0.0167
X7.4207Y0.2473Z-0.0157
X7.4006Y0.2392Z-0.0173
X7.3705Y0.2270Z-0.0130
X7.3679Y0.2259Z-0.0125
X7.3505Y0.2189Z-0.0092
X7.2903Y0.1946Z-0.0095
X7.2702Y0.1865Z-0.0086
X7.2301Y0.1703Z-0.0107
X7.2224Y0.1671Z-0.0125
X7.1900Y0.1540
X7.1298Y0.1297
X7.0997Y0.1176
X7.0708Y0.1059
X7.0997Y0.1176
X7.1298Y0.1297
X7.1900Y0.1540
X7.2224Y0.1671
X7.1900Y0.1540Z-0.0200
X7.1298Y0.1297Z-0.0194
X7.0997Y0.1176Z-0.0185
X7.0708Y0.1059Z-0.0125
X7.0595Y0.1013Z-0.0102
X7.0094Y0.0811Z-0.0078
X6.9793Y0.0689Z-0.0095
X6.9291Y0.0487Z-0.0108
X6.9205Y0.0452Z-0.0125
X6.8890Y0.0324
X6.8388Y0.0122
X6.8187Y0.0041
X6.8087Y0.0000
X6.8187Y0.0041
X6.8388Y0.0122
X6.8890Y0.0324
X6.9205Y0.0452
X6.8890Y0.0324Z-0.0185
X6.8388Y0.0122Z-0.0195
X6.8187Y0.0041Z-0.0181
X6.8087Y0.0000Z-0.0154
Z-0.0125
Z0.0200
X6.7646Y0.0040
G1Z-0.0125F100.0
G1X6.7946Y0.0162Z-0.0125F200.0
X6.8347Y0.0324
X6.8648Y0.0445
X6.9048Y0.0607
X6.9246Y0.0687
X6.9048Y0.0607
X6.8648Y0.0445
X6.8347Y0.0324
X6.7946Y0.0162
X6.7646Y0.0040
Z-0.0182
X6.7946Y0.0162Z-0.0158
X6.8347Y0.0324Z-0.0201
X6.8648Y0.0445Z-0.0182
X6.9048Y0.0607Z-0.0153
X6.9246Y0.0687Z-0.0125
X6.9449Y0.0769Z-0.0096
X6.9649Y0.0850Z-0.0097
X6.9850Y0.0931Z-0.0119
X7.0150Y0.1052Z-0.0086
X7.0451Y0.1174Z-0.0118
X7.0651Y0.1255Z-0.0107
X7.0716Y0.1281Z-0.0125
X7.0952Y0.1376
X7.1553Y0.1619
X7.1954Y0.1781
X7.2222Y0.1889
X7.1954Y0.1781
X7.1553Y0.1619
X7.0952Y0.1376
X7.0716Y0.1281
X7.0952Y0.1376Z-0.0191
X7.1553Y0.1619Z-0.0197
X7.1954Y0.1781Z-0.0186
X7.2222Y0.1889Z-0.0125
X7.2354Y0.1943Z-0.0095
X7.2755Y0.2105Z-0.0073
X7.3056Y0.2226Z-0.0086
X7.3456Y0.2388Z-0.0068
X7.3843Y0.2544Z-0.0125
X7.3957Y0.2590
X7.4138Y0.2663
X7.3957Y0.2590
X7.3843Y0.2544
X7.3957Y0.2590Z-0.0142
X7.4138Y0.2663Z-0.0125
X7.4158Y0.2671Z-0.0123
X7.4358Y0.2752Z-0.0100
X7.4616Y0.2857Z-0.0125
X7.4859Y0.2955
X7.5059Y0.3035
X7.5094Y0.3050
X7.5059Y0.3035
X7.4859Y0.2955
X7.4616Y0.2857
X7.4859Y0.2955Z-0.0149
X7.5059Y0.3035Z-0.0131
X7.5094Y0.3050Z-0.0125
X7.5560Y0.3238Z-0.0050
X7.8265Y0.4331Z-0.0027
X8.3675Y0.6516Z-0.0024
X8.9084Y0.8702Z-0.0039
X8.9585Y0.8904Z-0.0061
X9.0186Y0.9147Z-0.0068
X9.0487Y0.9269Z-0.0050
X9.0787Y0.9390Z-0.0070
X9.1000Y0.9476Z-0.0125
X9.1088Y0.9512
X9.2390Y1.0038
X9.2691Y1.0159
X9.2806Y1.0206
X9.2691Y1.0159
X9.2390Y1.0038
X9.1088Y0.9512
X9.1000Y0.9476
X9.1088Y0.9512Z-0.0147
X9.2390Y1.0038Z-0.0186
X9.2691Y1.0159Z-0.0155
X9.2806Y1.0206Z-0.0125
X9.2991Y1.0281Z-0.0076
X9.3492Y1.0483Z-0.0068
X9.3893Y1.0645Z-0.0121
X9.3912Y1.0652Z-0.0125
X9.4093Y1.0726
X9.4594Y1.0928
X9.4681Y1.0963
X9.4594Y1.0928
X9.4093Y1.0726
X9.3912Y1.0652
X9.4093Y1.0726Z-0.0166
X9.4594Y1.0928Z-0.0146
X9.4681Y1.0963Z-0.0125
X9.4995Y1.1090Z-0.0051
X9.5496Y1.1292Z-0.0051
X9.6498Y1.1697Z-0.0026
X10.8620Y1.6595Z-0.0008
Z0.0200
X10.8619Y1.6813
G1Z-0.0006F100.0
G1X9.5985Y1.1708Z-0.0035F200.0
X9.4982Y1.1303Z-0.0048
X9.4422Y1.1077Z-0.0125
X9.4280Y1.1020
X9.3979Y1.0898
X9.3918Y1.0873
X9.3979Y1.0898
X9.4280Y1.1020
X9.4422Y1.1077
X9.4280Y1.1020Z-0.0145
X9.3979Y1.0898Z-0.0136
X9.3918Y1.0873Z-0.0125
X9.3678Y1.0777Z-0.0081
X9.2976Y1.0493Z-0.0082
X9.2789Y1.0417Z-0.0125
X9.2575Y1.0331
X9.1673Y0.9966
X9.1330Y0.9828
X9.1673Y0.9966
X9.2575Y1.0331
X9.2789Y1.0417
X9.2575Y1.0331Z-0.0174
X9.1673Y0.9966Z-0.0180
X9.1330Y0.9828Z-0.0125
X9.1272Y0.9804Z-0.0116
X9.0971Y0.9683Z-0.0096
X9.0770Y0.9602Z-0.0061
X9.0269Y0.9399Z-0.0079
X9.0082Y0.9324Z-0.0125
X9.0068Y0.9318
X8.9780Y0.9202
X9.0068Y0.9318
X9.0082Y0.9324
X9.0068Y0.9318Z-0.0128
X8.9780Y0.9202Z-0.0125
X8.9768Y0.9197Z-0.0125
X8.9765Y0.9195Z-0.0125
X8.9667Y0.9156
X8.9644Y0.9147
X8.9667Y0.9156
X8.9765Y0.9195
X8.9667Y0.9156Z-0.0130
X8.9644Y0.9147Z-0.0125
X8.9367Y0.9035Z-0.0064
X8.8063Y0.8508Z-0.0035
X8.1445Y0.5834Z-0.0017
X7.5629Y0.3484Z-0.0041
X7.5128Y0.3282Z-0.0076
X7.4827Y0.3160Z-0.0114
X7.4325Y0.2957Z-0.0064
X7.3724Y0.2714Z-0.0106
X7.3423Y0.2593Z-0.0061
X7.2921Y0.2390Z-0.0090
X7.2721Y0.2309Z-0.0058
X7.2220Y0.2107Z-0.0106
X7.2119Y0.2066Z-0.0125
X7.1919Y0.1985
X7.1016Y0.1621
X7.0816Y0.1540
X7.0666Y0.1479
X7.0816Y0.1540
X7.1016Y0.1621
X7.1919Y0.1985
X7.2119Y0.2066
X7.1919Y0.1985Z-0.0162
X7.1016Y0.1621Z-0.0199
X7.0816Y0.1540Z-0.0175
X7.0666Y0.1479Z-0.0125
X7.0615Y0.1458Z-0.0108
X7.0515Y0.1418Z-0.0092
X7.0214Y0.1296Z-0.0100
X7.0014Y0.1215Z-0.0105
X6.9915Y0.1175Z-0.0125
X6.9813Y0.1134
X6.9713Y0.1094
X6.9570Y0.1036
X6.9713Y0.1094
X6.9813Y0.1134
X6.9915Y0.1175
X6.9813Y0.1134Z-0.0145
X6.9713Y0.1094Z-0.0149
X6.9570Y0.1036Z-0.0125
X6.9512Y0.1013Z-0.0115
X6.9397Y0.0966Z-0.0125
X6.8810Y0.0729
X6.8209Y0.0486
X6.7607Y0.0243
X6.7106Y0.0040
X6.7607Y0.0243
X6.8209Y0.0486
X6.8810Y0.0729
X6.9397Y0.0966
X6.8810Y0.0729Z-0.0174
X6.8209Y0.0486Z-0.0198
X6.7607Y0.0243Z-0.0195
X6.7106Y0.0040Z-0.0200
Z-0.0125
Z0.0200
X6.6465Y0.0000
G1Z-0.0125F100.0
G1X6.7669Y0.0487Z-0.0125F200.0
X6.8372Y0.0771
X6.8673Y0.0892
X6.9476Y0.1217
X6.9777Y0.1338
X7.0062Y0.1454
X6.9777Y0.1338
X6.9476Y0.1217
X6.8673Y0.0892
X6.8372Y0.0771
X6.7669Y0.0487
X6.6465Y0.0000
Z-0.0192
X6.7669Y0.0487Z-0.0213
X6.8372Y0.0771Z-0.0180
X6.8673Y0.0892Z-0.0194
X6.9476Y0.1217Z-0.0162
X6.9777Y0.1338Z-0.0172
X7.0062Y0.1454Z-0.0125
X7.0279Y0.1541Z-0.0090
X7.0480Y0.1622Z-0.0092
X7.0603Y0.1672Z-0.0125
X7.0781Y0.1744
X7.1182Y0.1906
X7.1584Y0.2068
X7.1885Y0.2190
X7.1900Y0.2196
X7.1885Y0.2190
X7.1584Y0.2068
X7.1182Y0.1906
X7.0781Y0.1744
X7.0603Y0.1672
X7.0781Y0.1744Z-0.0172
X7.1182Y0.1906Z-0.0191
X7.1584Y0.2068Z-0.0171
X7.1885Y0.2190Z-0.0127
X7.1900Y0.2196Z-0.0125
X7.2286Y0.2352Z-0.0086
X7.2688Y0.2514Z-0.0053
X7.3089Y0.2677Z-0.0073
X7.3491Y0.2839Z-0.0061
X7.3792Y0.2960Z-0.0078
X7.4294Y0.3163Z-0.0052
X7.4695Y0.3325Z-0.0077
X7.5197Y0.3528Z-0.0045
X7.7806Y0.4582Z-0.0026
X8.4330Y0.7218Z-0.0021
X8.7943Y0.8678Z-0.0041
X8.8746Y0.9002Z-0.0060
X8.8947Y0.9084Z-0.0066
X8.9148Y0.9165Z-0.0113
X8.9349Y0.9246Z-0.0113
X8.9404Y0.9268Z-0.0125
X8.9549Y0.9327
X9.0051Y0.9530
X9.0151Y0.9570
X9.0051Y0.9530
X8.9549Y0.9327
X8.9404Y0.9268
X8.9549Y0.9327Z-0.0156
X9.0051Y0.9530Z-0.0146
X9.0151Y0.9570Z-0.0125
X9.0352Y0.9651Z-0.0083
X9.0653Y0.9773Z-0.0048
X9.1356Y1.0057Z-0.0093
X9.1488Y1.0110Z-0.0125
X9.1657Y1.0178
X9.2059Y1.0341
X9.2661Y1.0584
X9.3036Y1.0736
X9.2661Y1.0584
X9.2059Y1.0341
X9.1657Y1.0178
X9.1488Y1.0110
X9.1657Y1.0178Z-0.0166
X9.2059Y1.0341Z-0.0186
X9.2661Y1.0584Z-0.0168
X9.3036Y1.0736Z-0.0125
X9.3062Y1.0746Z-0.0122
X9.3263Y1.0827Z-0.0121
X9.3464Y1.0908Z-0.0080
X9.3865Y1.1071Z-0.0082
X9.4166Y1.1192Z-0.0114
X9.4568Y1.1354Z-0.0062
X9.4869Y1.1476Z-0.0055
X9.5471Y1.1719Z-0.0037
X9.6174Y1.2003Z-0.0049
X9.7880Y1.2693Z-0.0030
X10.8619Y1.7032Z-0.0007
Z0.0200
X10.8619Y1.7250
G1Z-0.0007F100.0
G1X9.7895Y1.2917Z-0.0029F200.0
X9.6192Y1.2229Z-0.0055
X9.5690Y1.2027Z-0.0051
X9.4989Y1.1743Z-0.0039
X9.3886Y1.1298Z-0.0058
X9.3586Y1.1176Z-0.0059
X9.3197Y1.1019Z-0.0125
X9.3185Y1.1014
X9.2583Y1.0771
X9.1882Y1.0488
X9.1581Y1.0366
X9.1458Y1.0316
X9.1581Y1.0366
X9.1882Y1.0488
X9.2583Y1.0771
X9.3185Y1.1014
X9.3197Y1.1019
X9.3185Y1.1014Z-0.0127
X9.2583Y1.0771Z-0.0161
X9.1882Y1.0488Z-0.0200
X9.1581Y1.0366Z-0.0166
X9.1458Y1.0316Z-0.0125
X9.1381Y1.0285Z-0.0100
X9.0980Y1.0123Z-0.0072
X9.0679Y1.0002Z-0.0051
X9.0078Y0.9759Z-0.0102
X8.9923Y0.9696Z-0.0125
X8.9577Y0.9556
X8.9276Y0.9435
X8.9097Y0.9362
X8.9276Y0.9435
X8.9577Y0.9556
X8.9923Y0.9696
X8.9577Y0.9556Z-0.0176
X8.9276Y0.9435Z-0.0157
X8.9097Y0.9362Z-0.0125
X8.8875Y0.9273Z-0.0086
X8.8574Y0.9151Z-0.0121
X8.8274Y0.9030Z-0.0101
X8.8073Y0.8949Z-0.0110
X8.7873Y0.8868Z-0.0062
X8.6871Y0.8463Z-0.0028
X7.9554Y0.5507Z-0.0015
X7.4944Y0.3644Z-0.0038
X7.4643Y0.3523Z-0.0066
X7.4142Y0.3320Z-0.0049
X7.3641Y0.3118Z-0.0060
X7.2839Y0.2794Z-0.0057
X7.2137Y0.2510Z-0.0076
X7.1736Y0.2349Z-0.0124
X7.1733Y0.2347Z-0.0125
X7.1536Y0.2268
X7.1035Y0.2065
X7.0634Y0.1903
X7.0514Y0.1855
X7.0634Y0.1903
X7.1035Y0.2065
X7.1536Y0.2268
X7.1733Y0.2347
X7.1536Y0.2268Z-0.0177
X7.1035Y0.2065Z-0.0186
X7.0634Y0.1903Z-0.0160
X7.0514Y0.1855Z-0.0125
X7.0434Y0.1822Z-0.0102
X7.0233Y0.1741Z-0.0097
X7.0132Y0.1700Z-0.0125
X6.9932Y0.1620
X6.9632Y0.1498
X6.9131Y0.1296
X6.8830Y0.1174
X6.8529Y0.1053
X6.8128Y0.0891
X6.7427Y0.0607
X6.7026Y0.0445
X6.6725Y0.0324
X6.6224Y0.0121
X6.6024Y0.0040
X6.6224Y0.0121
X6.6725Y0.0324
X6.7026Y0.0445
X6.7427Y0.0607
X6.8128Y0.0891
X6.8529Y0.1053
X6.8830Y0.1174
X6.9131Y0.1296
X6.9632Y0.1498
X6.9932Y0.1620
X7.0132Y0.1700
X6.9932Y0.1620Z-0.0180
X6.9632Y0.1498Z-0.0185
X6.9131Y0.1296Z-0.0170
X6.8830Y0.1174Z-0.0195
X6.8529Y0.1053Z-0.0207
X6.8128Y0.0891Z-0.0191
X6.7427Y0.0607Z-0.0206
X6.7026Y0.0445Z-0.0205
X6.6725Y0.0324Z-0.0174
X6.6224Y0.0121Z-0.0185
X6.6024Y0.0040Z-0.0150
Z-0.0125
Z0.0200
X6.5383Y0.0000
G1Z-0.0125F100.0
G1X6.5784Y0.0162Z-0.0125F200.0
X6.5893Y0.0206
X6.5784Y0.0162
X6.5383Y0.0000
Z-0.0147
X6.5784Y0.0162Z-0.0132
X6.5893Y0.0206Z-0.0125
X6.5985Y0.0243Z-0.0119
X6.6035Y0.0263Z-0.0125
X6.6487Y0.0446
X6.6787Y0.0567
X6.7088Y0.0689
X6.8994Y0.1459
X6.9897Y0.1824
X7.0299Y0.1986
X7.1001Y0.2270
X7.1502Y0.2472
X7.1739Y0.2568
X7.1502Y0.2472
X7.1001Y0.2270
X7.0299Y0.1986
X6.9897Y0.1824
X6.8994Y0.1459
X6.7088Y0.0689
X6.6787Y0.0567
X6.6487Y0.0446
X6.6035Y0.0263
X6.6487Y0.0446Z-0.0180
X6.6787Y0.0567Z-0.0151
X6.7088Y0.0689Z-0.0195
X6.8994Y0.1459Z-0.0189
X6.9897Y0.1824Z-0.0189
X7.0299Y0.1986Z-0.0146
X7.1001Y0.2270Z-0.0204
X7.1502Y0.2472Z-0.0175
X7.1739Y0.2568Z-0.0125
X7.2004Y0.2675Z-0.0070
X7.3007Y0.3080Z-0.0057
X7.4311Y0.3607Z-0.0041
X7.4612Y0.3729Z-0.0057
X7.5013Y0.3891Z-0.0034
X8.2637Y0.6971Z-0.0015
X8.7352Y0.8876Z-0.0037
X8.7854Y0.9079Z-0.0113
X8.7905Y0.9099Z-0.0125
X8.8054Y0.9160
X8.8757Y0.9444
X8.9058Y0.9565
X8.9459Y0.9727
X8.9660Y0.9808
X8.9911Y0.9910
X8.9660Y0.9808
X8.9459Y0.9727
X8.9058Y0.9565
X8.8757Y0.9444
X8.8054Y0.9160
X8.7905Y0.9099
X8.8054Y0.9160Z-0.0160
X8.8757Y0.9444Z-0.0155
X8.9058Y0.9565Z-0.0162
X8.9459Y0.9727Z-0.0193
X8.9660Y0.9808Z-0.0183
X8.9911Y0.9910Z-0.0125
X9.0061Y0.9971Z-0.0090
X9.0663Y1.0214Z-0.0053
X9.0863Y1.0295Z-0.0057
X9.1164Y1.0416Z-0.0099
X9.1365Y1.0497Z-0.0111
X9.1413Y1.0517Z-0.0125
X9.1566Y1.0578
X9.1967Y1.0741
X9.2167Y1.0822
X9.2468Y1.0943
X9.2535Y1.0970
X9.2468Y1.0943
X9.2167Y1.0822
X9.1967Y1.0741
X9.1566Y1.0578
X9.1413Y1.0517
X9.1566Y1.0578Z-0.0170
X9.1967Y1.0741Z-0.0172
X9.2167Y1.0822Z-0.0142
X9.2468Y1.0943Z-0.0134
X9.2535Y1.0970Z-0.0125
X9.2769Y1.1065Z-0.0094
X9.3873Y1.1511Z-0.0050
X9.5578Y1.2200Z-0.0040
X9.6080Y1.2402Z-0.0058
X9.8387Y1.3335Z-0.0025
X10.8619Y1.7469Z-0.0006
Z0.0200
X10.8619Y1.7687
G1Z-0.0006F100.0
G1X9.7273Y1.3103Z-0.0030F200.0
X9.6068Y1.2616Z-0.0052
X9.5265Y1.2292Z-0.0036
X9.2755Y1.1278Z-0.0064
X9.2353Y1.1115Z-0.0090
X9.2052Y1.0994Z-0.0098
X9.1755Y1.0874Z-0.0125
X9.1450Y1.0750
X9.1265Y1.0676
X9.1450Y1.0750
X9.1755Y1.0874
X9.1450Y1.0750Z-0.0152
X9.1265Y1.0676Z-0.0125
X9.0948Y1.0547Z-0.0078
X9.0546Y1.0385Z-0.0065
X9.0044Y1.0182Z-0.0091
X8.9903Y1.0125Z-0.0125
X8.9643Y1.0020
X8.9141Y0.9817
X8.7936Y0.9330
X8.7789Y0.9271
X8.7936Y0.9330
X8.9141Y0.9817
X8.9643Y1.0020
X8.9903Y1.0125
X8.9643Y1.0020Z-0.0188
X8.9141Y0.9817Z-0.0194
X8.7936Y0.9330Z-0.0156
X8.7789Y0.9271Z-0.0125
X8.7735Y0.9249Z-0.0114
X8.7634Y0.9209Z-0.0072
X8.7233Y0.9046Z-0.0037
X8.0807Y0.6450Z-0.0016
X7.4682Y0.3976Z-0.0035
X7.2975Y0.3286Z-0.0052
X7.1971Y0.2880Z-0.0061
X7.1629Y0.2742Z-0.0125
X7.1369Y0.2637
X7.0767Y0.2394
X7.0164Y0.2150
X6.9361Y0.1826
X6.8859Y0.1623
X6.8357Y0.1420
X6.7754Y0.1177
X6.7252Y0.0974
X6.6756Y0.0773
X6.7252Y0.0974
X6.7754Y0.1177
X6.8357Y0.1420
X6.8859Y0.1623
X6.9361Y0.1826
X7.0164Y0.2150
X7.0767Y0.2394
X7.1369Y0.2637
X7.1629Y0.2742
X7.1369Y0.2637Z-0.0174
X7.0767Y0.2394Z-0.0206
X7.0164Y0.2150Z-0.0190
X6.9361Y0.1826Z-0.0199
X6.8859Y0.1623Z-0.0192
X6.8357Y0.1420Z-0.0177
X6.7754Y0.1177Z-0.0207
X6.7252Y0.0974Z-0.0198
X6.6756Y0.0773Z-0.0125
X6.6750Y0.0771Z-0.0124
X6.6736Y0.0765Z-0.0125
X6.6449Y0.0649
X6.6263Y0.0574
X6.6449Y0.0649
X6.6736Y0.0765
X6.6449Y0.0649Z-0.0142
X6.6263Y0.0574Z-0.0125
X6.5947Y0.0446Z-0.0096
X6.5463Y0.0251Z-0.0125
X6.5445Y0.0244
X6.5144Y0.0122
X6.4843Y0.0000
X6.5144Y0.0122
X6.5445Y0.0244
X6.5463Y0.0251
X6.5445Y0.0244Z-0.0126
X6.5144Y0.0122Z-0.0198
X6.4843Y0.0000Z-0.0214
Z-0.0125
Z0.0200
X6.4401Y0.0040
G1Z-0.0125F100.0
G1X6.4702Y0.0162Z-0.0125F200.0
X6.5103Y0.0324
X6.5507Y0.0487
X6.5103Y0.0324
X6.4702Y0.0162
X6.4401Y0.0040
Z-0.0211
X6.4702Y0.0162Z-0.0223
X6.5103Y0.0324Z-0.0196
X6.5507Y0.0487Z-0.0125
X6.5605Y0.0527Z-0.0108
X6.5906Y0.0648Z-0.0078
X6.6407Y0.0851Z-0.0106
X6.6808Y0.1013Z-0.0114
X6.6858Y0.1033Z-0.0125
X6.7209Y0.1175
X6.7510Y0.1296
X6.8312Y0.1620
X6.8512Y0.1701
X6.8713Y0.1782
X6.9315Y0.2025
X6.9916Y0.2269
X7.0217Y0.2390
X7.1320Y0.2836
X7.1561Y0.2933
X7.1320Y0.2836
X7.0217Y0.2390
X6.9916Y0.2269
X6.9315Y0.2025
X6.8713Y0.1782
X6.8512Y0.1701
X6.8312Y0.1620
X6.7510Y0.1296
X6.7209Y0.1175
X6.6858Y0.1033
X6.7209Y0.1175Z-0.0202
X6.7510Y0.1296Z-0.0216
X6.8312Y0.1620Z-0.0158
X6.8512Y0.1701Z-0.0155
X6.8713Y0.1782Z-0.0194
X6.9315Y0.2025Z-0.0193
X6.9916Y0.2269Z-0.0205
X7.0217Y0.2390Z-0.0207
X7.1320Y0.2836Z-0.0167
X7.1561Y0.2933Z-0.0125
X7.1922Y0.3079Z-0.0062
X7.3626Y0.3767Z-0.0039
X8.0444Y0.6522Z-0.0016
X8.5558Y0.8588Z-0.0030
X8.6360Y0.8912Z-0.0053
X8.6561Y0.8993Z-0.0068
X8.6761Y0.9074Z-0.0067
X8.6861Y0.9115Z-0.0089
X8.7262Y0.9277Z-0.0052
X8.7664Y0.9439Z-0.0076
X8.7850Y0.9514Z-0.0125
X8.7864Y0.9520
X8.8265Y0.9682
X8.8666Y0.9844
X8.9569Y1.0209
X8.9953Y1.0364
X8.9569Y1.0209
X8.8666Y0.9844
X8.8265Y0.9682
X8.7864Y0.9520
X8.7850Y0.9514
X8.7864Y0.9520Z-0.0129
X8.8265Y0.9682Z-0.0147
X8.8666Y0.9844Z-0.0197
X8.9569Y1.0209Z-0.0187
X8.9953Y1.0364Z-0.0125
X9.0170Y1.0452Z-0.0090
X9.0471Y1.0573Z-0.0100
X9.0672Y1.0654Z-0.0069
X9.1173Y1.0857Z-0.0084
X9.1373Y1.0938Z-0.0116
X9.1574Y1.1019Z-0.0100
X9.1875Y1.1140Z-0.0063
X9.2877Y1.1545Z-0.0050
X9.5885Y1.2761Z-0.0037
X9.6688Y1.3085Z-0.0054
X9.8392Y1.3774Z-0.0023
X10.8619Y1.7906Z-0.0011
Z0.0200
X10.8619Y1.8124
G1Z-0.0006F100.0
G1X9.7379Y1.3583Z-0.0033F200.0
X9.6276Y1.3137Z-0.0052
X9.5372Y1.2772Z-0.0031
X9.1057Y1.1029Z-0.0054
X9.0656Y1.0866Z-0.0074
X9.0401Y1.0763Z-0.0125
X9.0355Y1.0745
X9.0054Y1.0623
X8.9652Y1.0461
X8.9150Y1.0258
X8.8548Y1.0015
X8.8348Y0.9934
X8.8251Y0.9895
X8.8348Y0.9934
X8.8548Y1.0015
X8.9150Y1.0258
X8.9652Y1.0461
X9.0054Y1.0623
X9.0355Y1.0745
X9.0401Y1.0763
X9.0355Y1.0745Z-0.0134
X9.0054Y1.0623Z-0.0141
X8.9652Y1.0461Z-0.0185
X8.9150Y1.0258Z-0.0186
X8.8548Y1.0015Z-0.0184
X8.8348Y0.9934Z-0.0146
X8.8251Y0.9895Z-0.0125
X8.8147Y0.9853Z-0.0102
X8.7846Y0.9731Z-0.0080
X8.7444Y0.9569Z-0.0054
X8.7143Y0.9447Z-0.0075
X8.6974Y0.9379Z-0.0125
X8.6943Y0.9366
X8.6842Y0.9326
X8.6695Y0.9266
X8.6842Y0.9326
X8.6943Y0.9366
X8.6974Y0.9379
X8.6943Y0.9366Z-0.0134
X8.6842Y0.9326Z-0.0142
X8.6695Y0.9266Z-0.0125
X8.6642Y0.9245Z-0.0119
X8.6576Y0.9218Z-0.0125
X8.6441Y0.9163
X8.6398Y0.9146
X8.6441Y0.9163
X8.6576Y0.9218
X8.6441Y0.9163Z-0.0138
X8.6398Y0.9146Z-0.0125
X8.6240Y0.9082Z-0.0077
X8.6039Y0.9001Z-0.0073
X8.5839Y0.8920Z-0.0065
X8.5437Y0.8758Z-0.0042
X8.3430Y0.7947Z-0.0015
X7.4198Y0.4217Z-0.0030
X7.2993Y0.3730Z-0.0047
X7.1890Y0.3284Z-0.0057
X7.1386Y0.3081Z-0.0125
X7.1287Y0.3041
X7.1087Y0.2960
X7.0886Y0.2879
X7.0184Y0.2595
X6.9381Y0.2271
X6.9180Y0.2190
X6.8879Y0.2068
X6.8578Y0.1946
X6.8478Y0.1906
X6.8468Y0.1902
X6.8478Y0.1906
X6.8578Y0.1946
X6.8879Y0.2068
X6.9180Y0.2190
X6.9381Y0.2271
X7.0184Y0.2595
X7.0886Y0.2879
X7.1087Y0.2960
X7.1287Y0.3041
X7.1386Y0.3081
X7.1287Y0.3041Z-0.0138
X7.1087Y0.2960Z-0.0137
X7.0886Y0.2879Z-0.0186
X7.0184Y0.2595Z-0.0197
X6.9381Y0.2271Z-0.0189
X6.9180Y0.2190Z-0.0165
X6.8879Y0.2068Z-0.0193
X6.8578Y0.1946Z-0.0152
X6.8478Y0.1906Z-0.0125
X6.8468Y0.1902Z-0.0125
X6.8377Y0.1865Z-0.0122
X6.8348Y0.1854Z-0.0125
X6.8076Y0.1744
X6.7675Y0.1581
X6.7173Y0.1379
X6.6872Y0.1257
X6.6739Y0.1203
X6.6872Y0.1257
X6.7173Y0.1379
X6.7675Y0.1581
X6.8076Y0.1744
X6.8348Y0.1854
X6.8076Y0.1744Z-0.0156
X6.7675Y0.1581Z-0.0179
X6.7173Y0.1379Z-0.0212
X6.6872Y0.1257Z-0.0166
X6.6739Y0.1203Z-0.0125
X6.6671Y0.1176Z-0.0104
X6.5768Y0.0811Z-0.0081
X6.5406Y0.0665Z-0.0125
X6.5166Y0.0568
X6.4865Y0.0446
X6.4062Y0.0122
X6.3861Y0.0041
X6.3761Y0.0000
X6.3861Y0.0041
X6.4062Y0.0122
X6.4865Y0.0446
X6.5166Y0.0568
X6.5406Y0.0665
X6.5166Y0.0568Z-0.0154
X6.4865Y0.0446Z-0.0195
X6.4062Y0.0122Z-0.0208
X6.3861Y0.0041Z-0.0180
X6.3761Y0.0000Z-0.0147
Z-0.0125
Z0.0200
X6.3320Y0.0040
G1Z-0.0124F100.0
G1X6.3361Y0.0057Z-0.0125F200.0
X6.3620Y0.0162
X6.3821Y0.0243
X6.4021Y0.0324
X6.4522Y0.0526
X6.5023Y0.0729
X6.5208Y0.0803
X6.5023Y0.0729
X6.4522Y0.0526
X6.4021Y0.0324
X6.3821Y0.0243
X6.3620Y0.0162
X6.3361Y0.0057
X6.3620Y0.0162Z-0.0132
X6.3821Y0.0243Z-0.0200
X6.4021Y0.0324Z-0.0216
X6.4522Y0.0526Z-0.0190
X6.5023Y0.0729Z-0.0151
X6.5208Y0.0803Z-0.0125
X6.5324Y0.0850Z-0.0109
X6.5725Y0.1012Z-0.0084
X6.6126Y0.1174Z-0.0091
X6.6326Y0.1255Z-0.0123
X6.6527Y0.1336Z-0.0110
X6.6627Y0.1377Z-0.0119
X6.6651Y0.1386Z-0.0125
X6.6827Y0.1458
X6.7328Y0.1660
X6.7629Y0.1782
X6.7930Y0.1903
X6.8085Y0.1966
X6.7930Y0.1903
X6.7629Y0.1782
X6.7328Y0.1660
X6.6827Y0.1458
X6.6651Y0.1386
X6.6827Y0.1458Z-0.0171
X6.7328Y0.1660Z-0.0199
X6.7629Y0.1782Z-0.0179
X6.7930Y0.1903Z-0.0134
X6.8085Y0.1966Z-0.0125
X6.8431Y0.2105Z-0.0104
X6.8573Y0.2163Z-0.0125
X6.8832Y0.2267
X6.9129Y0.2387
X6.8832Y0.2267
X6.8573Y0.2163
X6.8832Y0.2267Z-0.0163
X6.9129Y0.2387Z-0.0125
X6.9132Y0.2389Z-0.0125
X6.9135Y0.2390Z-0.0125
X6.9433Y0.2510
X7.0335Y0.2875
X7.0536Y0.2956
X7.0736Y0.3037
X7.0936Y0.3118
X7.0994Y0.3141
X7.0936Y0.3118
X7.0736Y0.3037
X7.0536Y0.2956
X7.0335Y0.2875
X6.9433Y0.2510
X6.9135Y0.2390
X6.9433Y0.2510Z-0.0176
X7.0335Y0.2875Z-0.0178
X7.0536Y0.2956Z-0.0163
X7.0736Y0.3037Z-0.0179
X7.0936Y0.3118Z-0.0139
X7.0994Y0.3141Z-0.0125
X7.1137Y0.3199Z-0.0090
X7.1838Y0.3482Z-0.0045
X7.7751Y0.5871Z-0.0017
X8.4366Y0.8544Z-0.0024
X8.5168Y0.8868Z-0.0044
X8.5368Y0.8949Z-0.0055
X8.5669Y0.9070Z-0.0052
X8.5970Y0.9192Z-0.0124
X8.6049Y0.9224Z-0.0125
X8.6170Y0.9273
X8.6370Y0.9354
X8.6872Y0.9556
X8.6990Y0.9604
X8.6872Y0.9556
X8.6370Y0.9354
X8.6170Y0.9273
X8.6049Y0.9224
X8.6170Y0.9273Z-0.0126
X8.6370Y0.9354Z-0.0164
X8.6872Y0.9556Z-0.0152
X8.6990Y0.9604Z-0.0125
X8.7272Y0.9718Z-0.0059
X8.7673Y0.9880Z-0.0054
X8.8174Y1.0082Z-0.0084
X8.8326Y1.0144Z-0.0125
X8.8475Y1.0204
X8.8976Y1.0406
X8.9778Y1.0730
X8.9898Y1.0779
X8.9778Y1.0730
X8.8976Y1.0406
X8.8475Y1.0204
X8.8326Y1.0144
X8.8475Y1.0204Z-0.0166
X8.8976Y1.0406Z-0.0192
X8.9778Y1.0730Z-0.0145
X8.9898Y1.0779Z-0.0125
X9.0079Y1.0852Z-0.0096
X9.0379Y1.0973Z-0.0095
X9.0880Y1.1176Z-0.0041
X9.1382Y1.1378Z-0.0048
X9.4589Y1.2674Z-0.0033
X9.6192Y1.3322Z-0.0043
X9.6894Y1.3605Z-0.0052
X9.8998Y1.4455Z-0.0023
X10.8620Y1.8343Z-0.0007
Z0.0200
X10.8619Y1.8561
G1Z-0.0006F100.0
G1X9.9090Y1.4711Z-0.0027F200.0
X9.6482Y1.3657Z-0.0050
X9.5379Y1.3212Z-0.0032
X9.0464Y1.1226Z-0.0049
X8.9661Y1.0902Z-0.0088
X8.9408Y1.0799Z-0.0125
X8.9260Y1.0740
X8.8759Y1.0537
X8.8357Y1.0375
X8.8274Y1.0341
X8.8357Y1.0375
X8.8759Y1.0537
X8.9260Y1.0740
X8.9408Y1.0799
X8.9260Y1.0740Z-0.0146
X8.8759Y1.0537Z-0.0202
X8.8357Y1.0375Z-0.0159
X8.8274Y1.0341Z-0.0125
X8.8157Y1.0294Z-0.0077
X8.7354Y0.9970Z-0.0045
X8.6771Y0.9734Z-0.0125
X8.6753Y0.9726
X8.6351Y0.9564
X8.5950Y0.9402
X8.5881Y0.9374
X8.5950Y0.9402
X8.6351Y0.9564
X8.6753Y0.9726
X8.6771Y0.9734
X8.6753Y0.9726Z-0.0128
X8.6351Y0.9564Z-0.0177
X8.5950Y0.9402Z-0.0143
X8.5881Y0.9374Z-0.0125
X8.5649Y0.9281Z-0.0064
X8.5449Y0.9200Z-0.0065
X8.5248Y0.9118Z-0.0105
X8.5047Y0.9037Z-0.0066
X8.4746Y0.8916Z-0.0060
X8.4345Y0.8754Z-0.0032
X8.2138Y0.7862Z-0.0017
X7.3412Y0.4336Z-0.0027
X7.1205Y0.3445Z-0.0057
X7.0851Y0.3302Z-0.0125
X7.0704Y0.3242
X7.0202Y0.3040
X6.9901Y0.2918
X6.9600Y0.2796
X6.9307Y0.2678
X6.9600Y0.2796
X6.9901Y0.2918
X7.0202Y0.3040
X7.0704Y0.3242
X7.0851Y0.3302
X7.0704Y0.3242Z-0.0153
X7.0202Y0.3040Z-0.0172
X6.9901Y0.2918Z-0.0149
X6.9600Y0.2796Z-0.0161
X6.9307Y0.2678Z-0.0125
X6.9099Y0.2594Z-0.0100
X6.8798Y0.2472Z-0.0115
X6.8497Y0.2351Z-0.0109
X6.8296Y0.2270Z-0.0090
X6.7895Y0.2107Z-0.0118
X6.7859Y0.2093Z-0.0125
X6.7494Y0.1945
X6.7193Y0.1824
X6.6892Y0.1702
X6.6591Y0.1581
X6.6290Y0.1459
X6.6240Y0.1439
X6.6290Y0.1459
X6.6591Y0.1581
X6.6892Y0.1702
X6.7193Y0.1824
X6.7494Y0.1945
X6.7859Y0.2093
X6.7494Y0.1945Z-0.0199
X6.7193Y0.1824Z-0.0215
X6.6892Y0.1702Z-0.0181
X6.6591Y0.1581Z-0.0172
X6.6290Y0.1459Z-0.0136
X6.6240Y0.1439Z-0.0125
X6.6089Y0.1378Z-0.0093
X6.5588Y0.1175Z-0.0094
X6.5086Y0.0973Z-0.0109
X6.4897Y0.0896Z-0.0125
X6.4685Y0.0811
X6.4485Y0.0730
X6.4083Y0.0567
X6.3782Y0.0446
X6.3582Y0.0365
X6.3381Y0.0284
X6.2980Y0.0122
X6.2679Y0.0000
X6.2980Y0.0122
X6.3381Y0.0284
X6.3582Y0.0365
X6.3782Y0.0446
X6.4083Y0.0567
X6.4485Y0.0730
X6.4685Y0.0811
X6.4897Y0.0896
X6.4685Y0.0811Z-0.0142
X6.4485Y0.0730Z-0.0196
X6.4083Y0.0567Z-0.0212
X6.3782Y0.0446Z-0.0201
X6.3582Y0.0365Z-0.0140
X6.3381Y0.0284Z-0.0139
X6.2980Y0.0122Z-0.0211
X6.2679Y0.0000Z-0.0205
Z-0.0125
Z0.0200
X6.2139Y0.0000
G1Z-0.0125F100.0
G1X6.2440Y0.0122Z-0.0125F200.0
X6.2741Y0.0244
X6.3042Y0.0365
X6.3444Y0.0527
X6.3845Y0.0690
X6.4347Y0.0893
X6.4548Y0.0974
X6.4737Y0.1050
X6.4548Y0.0974
X6.4347Y0.0893
X6.3845Y0.0690
X6.3444Y0.0527
X6.3042Y0.0365
X6.2741Y0.0244
X6.2440Y0.0122
X6.2139Y0.0000
Z-0.0208
X6.2440Y0.0122Z-0.0191
X6.2741Y0.0244Z-0.0222
X6.3042Y0.0365Z-0.0213
X6.3444Y0.0527Z-0.0160
X6.3845Y0.0690Z-0.0199
X6.4347Y0.0893Z-0.0209
X6.4548Y0.0974Z-0.0175
X6.4737Y0.1050Z-0.0125
X6.4749Y0.1055Z-0.0122
X6.5251Y0.1258Z-0.0109
X6.5452Y0.1339Z-0.0119
X6.5753Y0.1460Z-0.0094
X6.6192Y0.1638Z-0.0125
X6.6255Y0.1663
X6.6455Y0.1744
X6.7158Y0.2028
X6.7660Y0.2231
X6.7843Y0.2305
X6.7660Y0.2231
X6.7158Y0.2028
X6.6455Y0.1744
X6.6255Y0.1663
X6.6192Y0.1638
X6.6255Y0.1663Z-0.0129
X6.6455Y0.1744Z-0.0181
X6.7158Y0.2028Z-0.0217
X6.7660Y0.2231Z-0.0169
X6.7843Y0.2305Z-0.0125
X6.7961Y0.2353Z-0.0096
X6.8262Y0.2474Z-0.0076
X6.8564Y0.2596Z-0.0104
X6.9166Y0.2839Z-0.0084
X6.9483Y0.2968Z-0.0125
X6.9668Y0.3042
X6.9896Y0.3134
X6.9668Y0.3042
X6.9483Y0.2968
X6.9668Y0.3042Z-0.0149
X6.9896Y0.3134Z-0.0125
X6.9969Y0.3164Z-0.0117
X7.0060Y0.3201Z-0.0125
X7.0371Y0.3326
X7.0672Y0.3448
X7.0725Y0.3469
X7.0672Y0.3448
X7.0371Y0.3326
X7.0060Y0.3201
X7.0371Y0.3326Z-0.0151
X7.0672Y0.3448Z-0.0135
X7.0725Y0.3469Z-0.0125
X7.1073Y0.3610Z-0.0061
X7.2278Y0.4097Z-0.0035
X8.1715Y0.7909Z-0.0015
X8.3120Y0.8477Z-0.0021
X8.4325Y0.8964Z-0.0040
X8.4526Y0.9045Z-0.0071
X8.4712Y0.9120Z-0.0125
X8.4726Y0.9126
X8.4887Y0.9191
X8.4726Y0.9126
X8.4712Y0.9120
X8.4726Y0.9126Z-0.0129
X8.4887Y0.9191Z-0.0125
X8.5027Y0.9248Z-0.0121
X8.5052Y0.9258Z-0.0125
X8.5228Y0.9329
X8.5473Y0.9428
X8.5228Y0.9329
X8.5052Y0.9258
X8.5228Y0.9329Z-0.0151
X8.5473Y0.9428Z-0.0125
X8.5630Y0.9491Z-0.0108
X8.5707Y0.9522Z-0.0125
X8.5931Y0.9613
X8.6433Y0.9816
X8.6640Y0.9899
X8.6433Y0.9816
X8.5931Y0.9613
X8.5707Y0.9522
X8.5931Y0.9613Z-0.0174
X8.6433Y0.9816Z-0.0180
X8.6640Y0.9899Z-0.0125
X8.6734Y0.9937Z-0.0100
X8.7136Y1.0100Z-0.0051
X8.7738Y1.0343Z-0.0061
X8.7939Y1.0424Z-0.0101
X8.8140Y1.0505Z-0.0108
X8.8191Y1.0526Z-0.0125
X8.8340Y1.0586
X8.8541Y1.0667
X8.8742Y1.0749
X8.8977Y1.0844
X8.8742Y1.0749
X8.8541Y1.0667
X8.8340Y1.0586
X8.8191Y1.0526
X8.8340Y1.0586Z-0.0174
X8.8541Y1.0667Z-0.0170
X8.8742Y1.0749Z-0.0180
X8.8977Y1.0844Z-0.0125
X8.9043Y1.0870Z-0.0110
X8.9344Y1.0992Z-0.0104
X8.9645Y1.1114Z-0.0059
X9.1252Y1.1763Z-0.0039
X9.6271Y1.3791Z-0.0036
X9.7175Y1.4156Z-0.0048
X10.1592Y1.5940Z-0.0014
X10.8619Y1.8779Z-0.0008
Z0.0200
X10.8619Y1.8998
G1Z-0.0008F100.0
G1X9.9596Y1.5352Z-0.0024F200.0
X9.6789Y1.4218Z-0.0047
X9.5586Y1.3732Z-0.0032
X9.4483Y1.3287Z-0.0037
X8.9770Y1.1383Z-0.0045
X8.8968Y1.1059Z-0.0077
X8.8694Y1.0948Z-0.0125
X8.8668Y1.0937
X8.8267Y1.0775
X8.8028Y1.0679
X8.8267Y1.0775
X8.8668Y1.0937
X8.8694Y1.0948
X8.8668Y1.0937Z-0.0130
X8.8267Y1.0775Z-0.0160
X8.8028Y1.0679Z-0.0125
X8.7966Y1.0654Z-0.0116
X8.7665Y1.0532Z-0.0070
X8.7264Y1.0370Z-0.0066
X8.6863Y1.0208Z-0.0069
X8.6639Y1.0117Z-0.0125
X8.6462Y1.0046
X8.5860Y0.9803
X8.5559Y0.9681
X8.5158Y0.9519
X8.4757Y0.9357
X8.4557Y0.9276
X8.4512Y0.9258
X8.4557Y0.9276
X8.4757Y0.9357
X8.5158Y0.9519
X8.5559Y0.9681
X8.5860Y0.9803
X8.6462Y1.0046
X8.6639Y1.0117
X8.6462Y1.0046Z-0.0169
X8.5860Y0.9803Z-0.0189
X8.5559Y0.9681Z-0.0172
X8.5158Y0.9519Z-0.0177
X8.4757Y0.9357Z-0.0152
X8.4557Y0.9276Z-0.0139
X8.4512Y0.9258Z-0.0125
X8.4356Y0.9195Z-0.0078
X8.4056Y0.9074Z-0.0065
X8.3855Y0.8993Z-0.0030
X7.7940Y0.6603Z-0.0014
X7.1322Y0.3929Z-0.0038
X7.0921Y0.3767Z-0.0061
X7.0721Y0.3686Z-0.0070
X7.0520Y0.3605Z-0.0112
X6.9819Y0.3322Z-0.0081
X6.9418Y0.3160Z-0.0114
X6.9016Y0.2998Z-0.0062
X6.8515Y0.2795Z-0.0097
X6.8214Y0.2673Z-0.0070
X6.7763Y0.2491Z-0.0125
X6.7713Y0.2471
X6.7412Y0.2349
X6.6710Y0.2066
X6.6410Y0.1944
X6.6167Y0.1846
X6.6410Y0.1944
X6.6710Y0.2066
X6.7412Y0.2349
X6.7713Y0.2471
X6.7763Y0.2491
X6.7713Y0.2471Z-0.0131
X6.7412Y0.2349Z-0.0192
X6.6710Y0.2066Z-0.0200
X6.6410Y0.1944Z-0.0188
X6.6167Y0.1846Z-0.0125
X6.6109Y0.1823Z-0.0110
X6.5908Y0.1742Z-0.0123
X6.5608Y0.1620Z-0.0107
X6.5474Y0.1566Z-0.0125
X6.5307Y0.1499
X6.5137Y0.1430
X6.5307Y0.1499
X6.5474Y0.1566
X6.5307Y0.1499Z-0.0147
X6.5137Y0.1430Z-0.0125
X6.5006Y0.1377Z-0.0108
X6.4858Y0.1317Z-0.0125
X6.4605Y0.1215
X6.4304Y0.1094
X6.3602Y0.0810
X6.2299Y0.0284
X6.1697Y0.0040
X6.2299Y0.0284
X6.3602Y0.0810
X6.4304Y0.1094
X6.4605Y0.1215
X6.4858Y0.1317
X6.4605Y0.1215Z-0.0154
X6.4304Y0.1094Z-0.0212
X6.3602Y0.0810Z-0.0212
X6.2299Y0.0284Z-0.0223
X6.1697Y0.0040Z-0.0212
Z-0.0125
Z0.0200
X6.1057Y0.0000
G1Z-0.0125F100.0
G1X6.1559Y0.0203Z-0.0125F200.0
X6.1759Y0.0284
X6.2060Y0.0406
X6.3064Y0.0811
X6.4268Y0.1297
X6.4669Y0.1460
X6.5071Y0.1622
X6.5271Y0.1703
X6.5571Y0.1824
X6.5271Y0.1703
X6.5071Y0.1622
X6.4669Y0.1460
X6.4268Y0.1297
X6.3064Y0.0811
X6.2060Y0.0406
X6.1759Y0.0284
X6.1559Y0.0203
X6.1057Y0.0000
Z-0.0220
X6.1559Y0.0203Z-0.0202
X6.1759Y0.0284Z-0.0191
X6.2060Y0.0406Z-0.0218
X6.3064Y0.0811Z-0.0225
X6.4268Y0.1297Z-0.0214
X6.4669Y0.1460Z-0.0164
X6.5071Y0.1622Z-0.0138
X6.5271Y0.1703Z-0.0156
X6.5571Y0.1824Z-0.0125
X6.5773Y0.1906Z-0.0104
X6.6074Y0.2027Z-0.0112
X6.6123Y0.2047Z-0.0125
X6.6375Y0.2149
X6.7077Y0.2433
X6.7579Y0.2635
X6.7653Y0.2665
X6.7579Y0.2635
X6.7077Y0.2433
X6.6375Y0.2149
X6.6123Y0.2047
X6.6375Y0.2149Z-0.0192
X6.7077Y0.2433Z-0.0176
X6.7579Y0.2635Z-0.0133
X6.7653Y0.2665Z-0.0125
X6.8281Y0.2919Z-0.0061
X6.8683Y0.3081Z-0.0074
X6.8984Y0.3203Z-0.0055
X6.9385Y0.3365Z-0.0090
X6.9887Y0.3568Z-0.0056
X7.0389Y0.3770Z-0.0056
X7.0790Y0.3933Z-0.0050
X7.0991Y0.4014Z-0.0062
X7.1492Y0.4216Z-0.0039
X7.6309Y0.6162Z-0.0019
X8.2931Y0.8838Z-0.0024
X8.3935Y0.9243Z-0.0044
X8.4236Y0.9365Z-0.0121
X8.4277Y0.9381Z-0.0125
X8.4838Y0.9608
X8.5540Y0.9892
X8.6443Y1.0257
X8.6678Y1.0352
X8.6443Y1.0257
X8.5540Y0.9892
X8.4838Y0.9608
X8.4277Y0.9381
X8.4838Y0.9608Z-0.0177
X8.5540Y0.9892Z-0.0192
X8.6443Y1.0257Z-0.0169
X8.6678Y1.0352Z-0.0125
X8.6845Y1.0419Z-0.0094
X8.7146Y1.0541Z-0.0103
X8.7447Y1.0662Z-0.0076
X8.7648Y1.0743Z-0.0090
X8.7848Y1.0825Z-0.0076
X8.8219Y1.0974Z-0.0125
X8.8250Y1.0987
X8.8273Y1.0996
X8.8250Y1.0987
X8.8219Y1.0974
X8.8250Y1.0987Z-0.0129
X8.8273Y1.0996Z-0.0125
X8.8551Y1.1108Z-0.0075
X8.9955Y1.1676Z-0.0038
X9.5374Y1.3865Z-0.0032
X9.6678Y1.4392Z-0.0039
X9.7280Y1.4635Z-0.0056
X9.8886Y1.5284Z-0.0028
X10.4104Y1.7392Z-0.0015
X10.8619Y1.9217Z-0.0007
Z0.0200
X10.8620Y1.9435
G1Z-0.0006F100.0
G1X10.3508Y1.7370Z-0.0013F200.0
X9.9199Y1.5629Z-0.0026
X9.7095Y1.4779Z-0.0052
X9.6493Y1.4536Z-0.0032
X9.4790Y1.3848Z-0.0036
X9.4088Y1.3564Z-0.0058
X9.3587Y1.3362Z-0.0039
X9.0280Y1.2025Z-0.0039
X8.8676Y1.1378Z-0.0053
X8.8175Y1.1175Z-0.0067
X8.7774Y1.1013Z-0.0058
X8.7374Y1.0851Z-0.0080
X8.7155Y1.0763Z-0.0125
X8.7073Y1.0730
X8.6872Y1.0649
X8.6271Y1.0406
X8.5469Y1.0082
X8.4968Y0.9879
X8.4567Y0.9718
X8.4307Y0.9612
X8.4567Y0.9718
X8.4968Y0.9879
X8.5469Y1.0082
X8.6271Y1.0406
X8.6872Y1.0649
X8.7073Y1.0730
X8.7155Y1.0763
X8.7073Y1.0730Z-0.0142
X8.6872Y1.0649Z-0.0136
X8.6271Y1.0406Z-0.0182
X8.5469Y1.0082Z-0.0183
X8.4968Y0.9879Z-0.0174
X8.4567Y0.9718Z-0.0143
X8.4307Y0.9612Z-0.0125
X8.4267Y0.9596Z-0.0122
X8.3966Y0.9475Z-0.0051
X8.1461Y0.8462Z-0.0019
X7.3544Y0.5264Z-0.0024
X7.0337Y0.3968Z-0.0047
X6.9234Y0.3523Z-0.0059
X6.8433Y0.3199Z-0.0060
X6.8132Y0.3077Z-0.0062
X6.7831Y0.2956Z-0.0088
X6.7330Y0.2753Z-0.0125
X6.6929Y0.2591Z-0.0125
X6.6228Y0.2308
X6.6053Y0.2237
X6.6228Y0.2308
X6.6929Y0.2591
X6.7330Y0.2753
X6.6929Y0.2591Z-0.0191
X6.6228Y0.2308Z-0.0178
X6.6053Y0.2237Z-0.0125
X6.6027Y0.2227Z-0.0117
X6.5827Y0.2146Z-0.0105
X6.5716Y0.2101Z-0.0125
X6.5426Y0.1984
X6.4725Y0.1700
X6.3722Y0.1296
X6.3021Y0.1012
X6.2319Y0.0729
X6.1918Y0.0567
X6.1618Y0.0445
X6.1317Y0.0324
X6.0916Y0.0162
X6.0616Y0.0040
X6.0916Y0.0162
X6.1317Y0.0324
X6.1618Y0.0445
X6.1918Y0.0567
X6.2319Y0.0729
X6.3021Y0.1012
X6.3722Y0.1296
X6.4725Y0.1700
X6.5426Y0.1984
X6.5716Y0.2101
X6.5426Y0.1984Z-0.0176
X6.4725Y0.1700Z-0.0185
X6.3722Y0.1296Z-0.0214
X6.3021Y0.1012Z-0.0213
X6.2319Y0.0729Z-0.0198
X6.1918Y0.0567Z-0.0216
X6.1618Y0.0445Z-0.0182
X6.1317Y0.0324Z-0.0214
X6.0916Y0.0162Z-0.0203
X6.0616Y0.0040Z-0.0224
Z-0.0125
Z0.0200
X5.9975Y0.0000
G1Z-0.0125F100.0
G1X6.0176Y0.0081Z-0.0125F200.0
X6.0476Y0.0203
X6.1078Y0.0446
X6.1479Y0.0608
X6.1680Y0.0689
X6.2081Y0.0851
X6.2382Y0.0973
X6.2783Y0.1135
X6.3385Y0.1378
X6.4388Y0.1783
X6.4689Y0.1905
X6.5391Y0.2188
X6.5692Y0.2310
X6.5792Y0.2350
X6.5893Y0.2391
X6.6294Y0.2553
X6.6996Y0.2837
X6.7248Y0.2939
X6.6996Y0.2837
X6.6294Y0.2553
X6.5893Y0.2391
X6.5792Y0.2350
X6.5692Y0.2310
X6.5391Y0.2188
X6.4689Y0.1905
X6.4388Y0.1783
X6.3385Y0.1378
X6.2783Y0.1135
X6.2382Y0.0973
X6.2081Y0.0851
X6.1680Y0.0689
X6.1479Y0.0608
X6.1078Y0.0446
X6.0476Y0.0203
X6.0176Y0.0081
X5.9975Y0.0000
Z-0.0153
X6.0176Y0.0081Z-0.0214
X6.0476Y0.0203Z-0.0231
X6.1078Y0.0446Z-0.0187
X6.1479Y0.0608Z-0.0169
X6.1680Y0.0689Z-0.0151
X6.2081Y0.0851Z-0.0192
X6.2382Y0.0973Z-0.0162
X6.2783Y0.1135Z-0.0216
X6.3385Y0.1378Z-0.0210
X6.4388Y0.1783Z-0.0211
X6.4689Y0.1905Z-0.0185
X6.5391Y0.2188Z-0.0202
X6.5692Y0.2310Z-0.0171
X6.5792Y0.2350Z-0.0142
X6.5893Y0.2391Z-0.0135
X6.6294Y0.2553Z-0.0186
X6.6996Y0.2837Z-0.0186
X6.7248Y0.2939Z-0.0125
X6.7397Y0.2999Z-0.0089
X6.7698Y0.3120Z-0.0071
X6.7999Y0.3242Z-0.0072
X6.8400Y0.3404Z-0.0053
X6.9704Y0.3931Z-0.0043
X7.4217Y0.5754Z-0.0023
X7.4318Y0.5795Z-0.0041
X7.4719Y0.5957Z-0.0017
X7.9533Y0.7902Z-0.0020
X8.2341Y0.9037Z-0.0030
X8.2642Y0.9158Z-0.0061
X8.2843Y0.9239Z-0.0090
X8.3043Y0.9320Z-0.0071
X8.3244Y0.9401Z-0.0102
X8.3645Y0.9563Z-0.0051
X8.4046Y0.9726Z-0.0061
X8.4347Y0.9847Z-0.0115
X8.4648Y0.9969Z-0.0106
X8.4759Y1.0013Z-0.0125
X8.5049Y1.0131
X8.5751Y1.0414
X8.6454Y1.0698
X8.6709Y1.0801
X8.6454Y1.0698
X8.5751Y1.0414
X8.5049Y1.0131
X8.4759Y1.0013
X8.5049Y1.0131Z-0.0175
X8.5751Y1.0414Z-0.0187
X8.6454Y1.0698Z-0.0163
X8.6709Y1.0801Z-0.0125
X8.6754Y1.0820Z-0.0118
X8.7055Y1.0941Z-0.0115
X8.7657Y1.1184Z-0.0045
X9.2371Y1.3089Z-0.0038
X9.3675Y1.3616Z-0.0060
X9.3976Y1.3737Z-0.0076
X9.4176Y1.3818Z-0.0102
X9.4377Y1.3899Z-0.0077
X9.4678Y1.4021Z-0.0039
X9.6884Y1.4912Z-0.0031
X9.7587Y1.5196Z-0.0049
X10.1498Y1.6776Z-0.0011
X10.6613Y1.8843Z-0.0012
X10.8619Y1.9654Z-0.0005
Z0.0200
X10.8619Y1.9872
G1Z-0.0007F100.0
G1X10.3801Y1.7925Z-0.0012F200.0
X9.8883Y1.5938Z-0.0031
X9.7377Y1.5330Z-0.0046
X9.6474Y1.4965Z-0.0030
X9.4566Y1.4194Z-0.0048
X9.4265Y1.4073Z-0.0109
X9.4064Y1.3992Z-0.0104
X9.3864Y1.3910Z-0.0077
X9.3462Y1.3748Z-0.0121
X9.3161Y1.3627Z-0.0115
X9.2960Y1.3545Z-0.0087
X9.2760Y1.3464Z-0.0085
X9.2458Y1.3343Z-0.0051
X9.0451Y1.2532Z-0.0031
X8.7540Y1.1356Z-0.0044
X8.7239Y1.1234Z-0.0062
X8.6737Y1.1031Z-0.0065
X8.6464Y1.0921Z-0.0125
X8.6436Y1.0909
X8.6135Y1.0788
X8.5934Y1.0707
X8.5432Y1.0504
X8.4930Y1.0301
X8.4789Y1.0244
X8.4930Y1.0301
X8.5432Y1.0504
X8.5934Y1.0707
X8.6135Y1.0788
X8.6436Y1.0909
X8.6464Y1.0921
X8.6436Y1.0909Z-0.0131
X8.6135Y1.0788Z-0.0144
X8.5934Y1.0707Z-0.0177
X8.5432Y1.0504Z-0.0202
X8.4930Y1.0301Z-0.0163
