; LightBurn 1.4.00
; LinuxCNC device profile, absolute coords
; Bounds: X2.29 Y2.8 to X110.51 Y110

;USER START SCRIPT
M64 P2
;USER START SCRIPT

G20
G90
; Image @ 100 in/min, 100% power
M8
M67 E0 Q0
G0 X1.3737 Y0.1102 F0
; Layer C00
G91
G1 X0.0417 F100
M67 E0 Q1
G1 X0.0039
M67 E0 Q0
G1 X0.0417
G1 X2.4291Y0.0197
G1 X-0.0416
M67 E0 Q1
G1 X-0.004
M67 E0 Q0
G1 X-0.0417
G1 X-2.4251Y0.0039
G1 X0.0416
M67 E0 Q1
G1 X0.004
M67 E0 Q0
G1 X0.0416
G1 X0.0394Y0.004
G1 X-0.0417
M67 E0 Q1
G1 X-0.0039
M67 E0 Q0
G1 X-0.0417
G1 X-0.0551Y0.0078
G1 X0.0417
M67 E0 Q1
G1 X0.0039
M67 E0 Q0
G1 X0.0197
M67 E0 Q1
G1 X0.0039
M67 E0 Q0
G1 X2.4134
M67 E0 Q1
G1 X0.004
M67 E0 Q0
G1 X0.0416
G1 X-2.4527Y0.004
G1 X-0.0417
M67 E0 Q1
G1 X-0.0039
M67 E0 Q0
G1 X-0.0197
M67 E0 Q1
G1 X-0.004
M67 E0 Q0
G1 X-0.0416
G1 X-1.0512Y0.0039
G1 X0.0417
M67 E0 Q1
G1 X0.0039
M67 E0 Q0
G1 X1.1181
M67 E0 Q1
G1 X0.0039
M67 E0 Q0
G1 X2.437
M67 E0 Q1
G1 X0.004
M67 E0 Q0
G1 X0.0417
G1 X-1.1063Y0.0039
G1 X-0.0417
M67 E0 Q1
G1 X-0.004
M67 E0 Q0
G1 X-0.0118
M67 E0 Q1
G1 X-0.0039
M67 E0 Q0
G1 X-2.4488
M67 E0 Q1
G1 X-0.004
M67 E0 Q0
G1 X-0.0416
G1 X0.0275Y0.004
G1 X0.0417
M67 E0 Q1
G1 X0.0039
M67 E0 Q0
G1 X3.5158
M67 E0 Q1
G1 X0.0039
M67 E0 Q0
G1 X0.0417
G1 X-0.0236Y0.0039
G1 X-0.0417
M67 E0 Q1
G1 X-0.0039
M67 E0 Q0
G1 X-2.3819
M67 E0 Q1
G1 X-0.004
M67 E0 Q0
G1 X-0.0708
M67 E0 Q1
G1 X-0.004
M67 E0 Q0
G1 X-0.0416
G1 X-1.0748Y0.004
G1 X0.0416
M67 E0 Q1
G1 X0.004
M67 E0 Q0
G1 X1.0905
M67 E0 Q1
G1 X0.004
M67 E0 Q0
G1 X0.0669
M67 E0 Q1
G1 X0.0039
M67 E0 Q0
G1 X0.0118
M67 E0 Q1
G1 X0.004
M67 E0 Q0
G1 X1.3149
M67 E0 Q1
G1 X0.004
M67 E0 Q0
G1 X1.0669
M67 E0 Q1
G1 X0.0039
M67 E0 Q0
G1 X0.0417
G1 X-0.0433Y0.0039
G1 X-0.0417
M67 E0 Q1
G1 X-0.0039
M67 E0 Q0
G1 X-0.0197
M67 E0 Q1
G1 X-0.0039
M67 E0 Q0
G1 X-2.3032
M67 E0 Q1
G1 X-0.0039
M67 E0 Q0
G1 X-0.0417
G1 X-1.1417Y0.0039
G1 X0.0417
M67 E0 Q1
G1 X0.0039
M67 E0 Q0
G1 X0.0417
G1 X3.5196Y0.004
G1 X-0.0416
M67 E0 Q1
G1 X-0.004
M67 E0 Q0
G1 X-1.5826
M67 E0 Q1
G1 X-0.004
M67 E0 Q0
G1 X-0.0157
M67 E0 Q1
G1 X-0.004
M67 E0 Q0
G1 X-0.0118
M67 E0 Q1
G1 X-0.0039
M67 E0 Q0
G1 X-0.0118
M67 E0 Q1
G1 X-0.004
M67 E0 Q0
G1 X-0.0157
M67 E0 Q1
G1 X-0.0039
M67 E0 Q0
G1 X-0.0709
M67 E0 Q1
G1 X-0.0039
M67 E0 Q0
G1 X-0.0158
M67 E0 Q1
G1 X-0.0039
M67 E0 Q0
G1 X-0.0158
M67 E0 Q1
G1 X-0.0039
M67 E0 Q0
G1 X-0.0158
M67 E0 Q1
G1 X-0.0039
M67 E0 Q0
G1 X-0.0157
M67 E0 Q1
G1 X-0.004
M67 E0 Q0
G1 X-0.6142
M67 E0 Q1
G1 X-0.0039
M67 E0 Q0
G1 X-0.0669
M67 E0 Q1
G1 X-0.004
M67 E0 Q0
G1 X-0.0416
G1 X-1.0906Y0.0039
G1 X0.0417
M67 E0 Q1
G1 X0.0039
M67 E0 Q0
G1 X0.1024
M67 E0 Q1
G1 X0.0039
M67 E0 Q0
G1 X1.626
M67 E0 Q1
G1 X0.0039
M67 E0 Q0
G1 X0.0158
M67 E0 Q1
G1 X0.0039
M67 E0 Q0
G1 X0.1181
M67 E0 Q1
G1 X0.004
M67 E0 Q0
G1 X0.0118
M67 E0 Q1
G1 X0.0039
M67 E0 Q0
G1 X0.0118
M67 E0 Q1
G1 X0.004
M67 E0 Q0
G1 X0.1102
M67 E0 Q1
G1 X0.0039
M67 E0 Q0
G1 X0.0119
M67 E0 Q1
G1 X0.0039
M67 E0 Q0
G1 X0.0157
M67 E0 Q1
G1 X0.004
M67 E0 Q0
G1 X0.3858
M67 E0 Q1
G1 X0.0039
M67 E0 Q0
G1 X1.0867
M67 E0 Q1
G1 X0.0039
M67 E0 Q0
G1 X0.0748
M67 E0 Q1
G1 X0.0039
M67 E0 Q0
G1 X0.0417
G1 X0.0197Y0.0039
G1 X-0.0417
M67 E0 Q1
G1 X-0.0039
M67 E0 Q0
G1 X-0.0276
M67 E0 Q1
G1 X-0.0039
M67 E0 Q0
G1 X-0.0866
M67 E0 Q1
G1 X-0.004
M67 E0 Q0
G1 X-1.3897
M67 E0 Q1
G1 X-0.004
M67 E0 Q0
G1 X-0.0157
M67 E0 Q1
G1 X-0.004
M67 E0 Q0
G1 X-0.0157
M67 E0 Q1
G1 X-0.0039
M67 E0 Q0
G1 X-0.3544
M67 E0 Q1
G1 X-0.0039
M67 E0 Q0
G1 X-0.0118
M67 E0 Q1
G1 X-0.004
M67 E0 Q0
G1 X-0.5866
M67 E0 Q1
G1 X-0.0039
M67 E0 Q0
G1 X-0.0417
G1 X-1.1299Y0.004
G1 X0.0417
M67 E0 Q1
G1 X0.0039
M67 E0 Q0
G1 X1.1536
M67 E0 Q1
G1 X0.0039
M67 E0 Q0
G1 X0.0551
M67 E0 Q1
G1 X0.0039
M67 E0 Q0
G1 X0.4489
M67 E0 Q1
G1 X0.0039
M67 E0 Q0
G1 X0.0158
M67 E0 Q1
G1 X0.0039
M67 E0 Q0
G1 X0.0157
M67 E0 Q1
G1 X0.004
M67 E0 Q0
G1 X0.4409
M67 E0 Q1
G1 X0.004
M67 E0 Q0
G1 X1.4448
M67 E0 Q1
G1 X0.004
M67 E0 Q0
G1 X0.0416
G1 X-1.0236Y0.0039
G1 X-0.0416
M67 E0 Q1
G1 X-0.004
M67 E0 Q0
G1 X-0.0394
M67 E0 Q1
G1 X-0.0039
M67 E0 Q0
G1 X-0.0827
M67 E0 Q1
G1 X-0.0039
M67 E0 Q0
G1 X-0.2717
M67 E0 Q1
G1 X-0.0039
M67 E0 Q0
G1 X-0.2323
M67 E0 Q1
G1 X-0.0039
M67 E0 Q0
G1 X-0.1496
M67 E0 Q1
G1 X-0.004
M67 E0 Q0
G1 X-0.1338
M67 E0 Q1
G1 X-0.004
M67 E0 Q0
G1 X-0.496
M67 E0 Q1
G1 X-0.004
M67 E0 Q0
G1 X-0.0354
M67 E0 Q1
G1 X-0.0039
M67 E0 Q0
G1 X-1.0236
M67 E0 Q1
G1 X-0.004
M67 E0 Q0
G1 X-0.0417
G1 X1.1221Y0.0039
G1 X0.0417
M67 E0 Q1
G1 X0.0039
M67 E0 Q0
G1 X0.3858
M67 E0 Q1
G1 X0.004
M67 E0 Q0
G1 X0.0157
M67 E0 Q1
G1 X0.0039
M67 E0 Q0
G1 X0.0158
M67 E0 Q1
G1 X0.0039
M67 E0 Q0
G1 X0.1693
M67 E0 Q1
G1 X0.004
M67 E0 Q0
G1 X0.0157
M67 E0 Q1
G1 X0.0039
M67 E0 Q0
G1 X0.0119
M67 E0 Q1
G1 X0.0039
M67 E0 Q0
G1 X0.0157
M67 E0 Q1
G1 X0.004
M67 E0 Q0
G1 X0.0157
M67 E0 Q1
G1 X0.004
M67 E0 Q0
G1 X0.0748
M67 E0 Q1
G1 X0.0039
M67 E0 Q0
G1 X0.0472
M67 E0 Q1
G1 X0.004
M67 E0 Q0
G1 X0.0157
M67 E0 Q1
G1 X0.004
M67 E0 Q0
G1 X0.1653
M67 E0 Q1
G1 X0.004
M67 E0 Q0
G1 X0.0416
G1 X1.4449Y0.004
G1 X-0.0417
M67 E0 Q1
G1 X-0.0039
M67 E0 Q0
G1 X-0.1024
M67 E0 Q1
G1 X-0.0039
M67 E0 Q0
G1 X-1.315
M67 E0 Q1
G1 X-0.0039
M67 E0 Q0
G1 X-0.1299
M67 E0 Q1
G1 X-0.0039
M67 E0 Q0
G1 X-0.0119
M67 E0 Q1
G1 X-0.0039
M67 E0 Q0
G1 X-0.0118
M67 E0 Q1
G1 X-0.0039
M67 E0 Q0
G1 X-0.0591
M67 E0 Q1
G1 X-0.0039
M67 E0 Q0
G1 X-0.0118
M67 E0 Q1
G1 X-0.004
M67 E0 Q0
G1 X-0.0433
M67 E0 Q1
G1 X-0.0039
M67 E0 Q0
G1 X-0.1575
M67 E0 Q1
G1 X-0.0039
M67 E0 Q0
G1 X-0.1811
M67 E0 Q1
G1 X-0.004
M67 E0 Q0
G1 X-0.0118
M67 E0 Q1
G1 X-0.0039
M67 E0 Q0
G1 X-1.5709
M67 E0 Q1
G1 X-0.0039
M67 E0 Q0
G1 X-0.0417
G1 X0.1535Y0.0039
G1 X0.0417
M67 E0 Q1
G1 X0.0039
M67 E0 Q0
G1 X0.9725
M67 E0 Q1
G1 X0.0039
M67 E0 Q0
G1 X0.4252
M67 E0 Q1
G1 X0.004
M67 E0 Q0
G1 X0.1102
M67 E0 Q1
G1 X0.0039
M67 E0 Q0
G1 X0.2284
M67 E0 Q1
G1 X0.0039
M67 E0 Q0
G1 X0.0079
M67 E0 Q1
G1 X0.0039
M67 E0 Q0
G1 X0.1929
M67 E0 Q1
G1 X0.004
M67 E0 Q0
G1 X0.0157
M67 E0 Q1
G1 X0.004
M67 E0 Q0
G1 X0.0157
M67 E0 Q1
G1 X0.0039
M67 E0 Q0
G1 X0.0906
M67 E0 Q1
G1 X0.0039
M67 E0 Q0
G1 X0.1969
M67 E0 Q1
G1 X0.0039
M67 E0 Q0
G1 X1.0827
M67 E0 Q1
G1 X0.0039
M67 E0 Q0
G1 X0.0315
M67 E0 Q1
G1 X0.004
M67 E0 Q0
G1 X0.0416
G1 X0.0276Y0.004
G1 X-0.0417
M67 E0 Q1
G1 X-0.0039
M67 E0 Q0
G1 X-1.3071
M67 E0 Q1
G1 X-0.0039
M67 E0 Q0
G1 X-0.0158
M67 E0 Q1
G1 X-0.0039
M67 E0 Q0
G1 X-0.0906
M67 E0 Q1
G1 X-0.0039
M67 E0 Q0
G1 X-0.4173
M67 E0 Q1
G1 X-0.004
M67 E0 Q0
G1 X-0.0118
M67 E0 Q1
G1 X-0.0039
M67 E0 Q0
G1 X-0.0236
M67 E0 Q1
G1 X-0.004
M67 E0 Q0
G1 X-0.0118
M67 E0 Q1
G1 X-0.0039
M67 E0 Q0
G1 X-0.1418
M67 E0 Q1
G1 X-0.0039
M67 E0 Q0
G1 X-0.0118
M67 E0 Q1
G1 X-0.0039
M67 E0 Q0
G1 X-0.3307
M67 E0 Q1
G1 X-0.004
M67 E0 Q0
G1 X-0.0417
G1 X-1.2086Y0.0039
G1 X0.0417
M67 E0 Q1
G1 X0.0039
M67 E0 Q0
G1 X1.1575
M67 E0 Q1
G1 X0.0039
M67 E0 Q0
G1 X0.0354
M67 E0 Q1
G1 X0.004
M67 E0 Q0
G1 X0.0866
M67 E0 Q1
G1 X0.0039
M67 E0 Q0
G1 X0.2244
M67 E0 Q1
G1 X0.004
M67 E0 Q0
G1 X0.1496
M67 E0 Q1
G1 X0.0039
M67 E0 Q0
G1 X0.0591
M67 E0 Q1
G1 X0.0039
M67 E0 Q0
G1 X0.0394
M67 E0 Q1
G1 X0.0039
M67 E0 Q0
G1 X0.0158
M67 E0 Q1
G1 X0.0039
M67 E0 Q0
G1 X0.0079
M67 E0 Q1
G1 X0.0039
M67 E0 Q0
G1 X0.0158
M67 E0 Q1
G1 X0.0039
M67 E0 Q0
G1 X0.0354
M67 E0 Q1
G1 X0.004
M67 E0 Q0
G1 X0.0157
M67 E0 Q1
G1 X0.004
M67 E0 Q0
G1 X0.0748
M67 E0 Q1
G1 X0.0039
M67 E0 Q0
G1 X0.0551
M67 E0 Q1
G1 X0.0039
M67 E0 Q0
G1 X0.0119
M67 E0 Q1
G1 X0.0039
M67 E0 Q0
G1 X0.0157
M67 E0 Q1
G1 X0.004
M67 E0 Q0
G1 X0.1378
M67 E0 Q1
G1 X0.0039
M67 E0 Q0
G1 X0.1142
M67 E0 Q1
G1 X0.0039
M67 E0 Q0
G1 X0.0158
M67 E0 Q1
G1 X0.0039
M67 E0 Q0
G1 X0.0788
M67 E0 Q1
G1 X0.0039
M67 E0 Q0
G1 X0.0197
M67 E0 Q1
G1 X0.0039
M67 E0 Q0
G1 X0.1024
M67 E0 Q1
G1 X0.0039
M67 E0 Q0
G1 X1.0394
M67 E0 Q1
G1 X0.0039
M67 E0 Q0
G1 X0.0417
G1 X0.063Y0.0039
G1 X-0.0417
M67 E0 Q1
G1 X-0.0039
M67 E0 Q0
G1 X-1.437
M67 E0 Q1
G1 X-0.004
M67 E0 Q0
G1 X-0.2008
M67 E0 Q1
G1 X-0.0039
M67 E0 Q0
G1 X-0.0276
M67 E0 Q1
G1 X-0.0039
M67 E0 Q0
G1 X-0.0354
M67 E0 Q1
G1 X-0.004
M67 E0 Q0
G1 X-0.0354
M67 E0 Q1
G1 X-0.0039
M67 E0 Q0
G1 X-0.0433
M67 E0 Q1
G1 X-0.004
M67 E0 Q0
G1 X-0.0079
M67 E0 Q1
G1 X-0.0039
M67 E0 Q0
G1 X-0.1811
M67 E0 Q1
G1 X-0.0039
M67 E0 Q0
G1 X-0.0118
M67 E0 Q1
G1 X-0.004
M67 E0 Q0
G1 X-0.0118
M67 E0 Q1
G1 X-0.0039
M67 E0 Q0
G1 X-0.126
M67 E0 Q1
G1 X-0.0039
M67 E0 Q0
G1 X-0.2363
M67 E0 Q1
G1 X-0.0039
M67 E0 Q0
G1 X-0.0417
G1 X-1.1535Y0.004
G1 X0.0417
M67 E0 Q1
G1 X0.0039
M67 E0 Q0
G1 X1.0787
M67 E0 Q1
G1 X0.004
M67 E0 Q0
G1 X0.2834
M67 E0 Q1
G1 X0.004
M67 E0 Q0
G1 X0.5197
M67 E0 Q1
G1 X0.0039
M67 E0 Q0
G1 X0.0748
M67 E0 Q1
G1 X0.0039
M67 E0 Q0
G1 X0.0118
M67 E0 Q1
G1 X0.004
M67 E0 Q0
G1 X0.0118
M67 E0 Q1
G1 X0.0039
M67 E0 Q0
G1 X0.0158
M67 E0 Q1
G1 X0.0039
M67 E0 Q0
G1 X0.0197
M67 E0 Q1
G1 X0.0039
M67 E0 Q0
G1 X0.0788
M67 E0 Q1
G1 X0.0039
M67 E0 Q0
G1 X0.1221
M67 E0 Q1
G1 X0.0039
M67 E0 Q0
G1 X0.0118
M67 E0 Q1
G1 X0.0039
M67 E0 Q0
G1 X0.0315
M67 E0 Q1
G1 X0.004
M67 E0 Q0
G1 X0.0416
G1 X1.2284Y0.0039
G1 X-0.0417
M67 E0 Q1
G1 X-0.0039
M67 E0 Q0
G1 X-0.0709
M67 E0 Q1
G1 X-0.0039
M67 E0 Q0
G1 X-0.9252
M67 E0 Q1
G1 X-0.004
M67 E0 Q0
G1 X-0.1141
M67 E0 Q1
G1 X-0.004
M67 E0 Q0
G1 X-0.0748
M67 E0 Q1
G1 X-0.0039
M67 E0 Q0
G1 X-0.0394
M67 E0 Q1
G1 X-0.0039
M67 E0 Q0
G1 X-0.1221
M67 E0 Q1
G1 X-0.0039
M67 E0 Q0
G1 X-0.0157
M67 E0 Q1
G1 X-0.004
M67 E0 Q0
G1 X-0.0787
M67 E0 Q1
G1 X-0.004
M67 E0 Q0
G1 X-0.2047
M67 E0 Q1
G1 X-0.0039
M67 E0 Q0
G1 X-0.0315
M67 E0 Q1
G1 X-0.0039
M67 E0 Q0
G1 X-0.2284
M67 E0 Q1
G1 X-0.0039
M67 E0 Q0
G1 X-0.0788
M67 E0 Q1
G1 X-0.0039
M67 E0 Q0
G1 X-0.0118
M67 E0 Q1
G1 X-0.004
M67 E0 Q0
G1 X-0.1259
M67 E0 Q1
G1 X-0.004
M67 E0 Q0
G1 X-0.1575
M67 E0 Q1
G1 X-0.0039
M67 E0 Q0
G1 X-0.0197
M67 E0 Q1
G1 X-0.0039
M67 E0 Q0
G1 X-0.0945
M67 E0 Q1
G1 X-0.0039
M67 E0 Q0
G1 X-0.0197
M67 E0 Q1
G1 X-0.004
M67 E0 Q0
G1 X-1.1653
M67 E0 Q1
G1 X-0.004
M67 E0 Q0
G1 X-0.0416
G1 X1.2598Y0.0039
G1 X0.0417
M67 E0 Q1
G1 X0.0039
M67 E0 Q0
G1 X0.1772
M67 E0 Q1
G1 X0.0039
M67 E0 Q0
G1 X0.0158
M67 E0 Q1
G1 X0.0039
M67 E0 Q0
G1 X0.0787
M67 E0 Q1
G1 X0.004
M67 E0 Q0
G1 X0.0157
M67 E0 Q1
G1 X0.004
M67 E0 Q0
G1 X0.0275
M67 E0 Q1
G1 X0.004
M67 E0 Q0
G1 X0.1181
M67 E0 Q1
G1 X0.0039
M67 E0 Q0
G1 X0.0079
M67 E0 Q1
G1 X0.0039
M67 E0 Q0
G1 X0.0118
M67 E0 Q1
G1 X0.004
M67 E0 Q0
G1 X0.0197
M67 E0 Q1
G1 X0.0039
M67 E0 Q0
G1 X0.0079
M67 E0 Q1
G1 X0.0039
M67 E0 Q0
G1 X0.0118
M67 E0 Q1
G1 X0.004
M67 E0 Q0
G1 X0.0118
M67 E0 Q1
G1 X0.0039
M67 E0 Q0
G1 X0.0158
M67 E0 Q1
G1 X0.0039
M67 E0 Q0
G1 X0.0079
M67 E0 Q1
G1 X0.0039
M67 E0 Q0
G1 X0.0433
M67 E0 Q1
G1 X0.0039
M67 E0 Q0
G1 X0.0079
M67 E0 Q1
G1 X0.004
M67 E0 Q0
G1 X0.0472
M67 E0 Q1
G1 X0.0039
M67 E0 Q0
G1 X0.0945
M67 E0 Q1
G1 X0.004
M67 E0 Q0
G1 X0.0118
M67 E0 Q1
G1 X0.0039
M67 E0 Q0
G1 X0.0827
M67 E0 Q1
G1 X0.0039
M67 E0 Q0
G1 X0.0355
M67 E0 Q1
G1 X0.0039
M67 E0 Q0
G1 X0.0079
M67 E0 Q1
G1 X0.0039
M67 E0 Q0
G1 X0.0945
M67 E0 Q1
G1 X0.0039
M67 E0 Q0
G1 X0.0118
M67 E0 Q1
G1 X0.004
M67 E0 Q0
G1 X0.1968
M67 E0 Q1
G1 X0.004
M67 E0 Q0
G1 X1.0708
M67 E0 Q1
G1 X0.004
M67 E0 Q0
G1 X0.1338
M67 E0 Q1
G1 X0.004
M67 E0 Q0
G1 X0.0416
G1 X-0.0236Y0.004
G1 X-0.0417
M67 E0 Q1
G1 X-0.0039
M67 E0 Q0
G1 X-0.063
M67 E0 Q1
G1 X-0.0039
M67 E0 Q0
G1 X-1.063
M67 E0 Q1
G1 X-0.004
M67 E0 Q0
G1 X-0.1259
M67 E0 Q1
G1 X-0.004
M67 E0 Q0
G1 X-0.1023
M67 E0 Q1
G1 X-0.004
M67 E0 Q0
G1 X-0.1141
M67 E0 Q1
G1 X-0.004
M67 E0 Q0
G1 X-0.0827
M67 E0 Q1
G1 X-0.0039
M67 E0 Q0
G1 X-0.0512
M67 E0 Q1
G1 X-0.0039
M67 E0 Q0
G1 X-0.0473
M67 E0 Q1
G1 X-0.0039
M67 E0 Q0
G1 X-0.0197
M67 E0 Q1
G1 X-0.0039
M67 E0 Q0
G1 X-0.0118
M67 E0 Q1
G1 X-0.004
M67 E0 Q0
G1 X-0.0669
M67 E0 Q1
G1 X-0.0039
M67 E0 Q0
G1 X-0.0552
M67 E0 Q1
G1 X-0.0039
M67 E0 Q0
G1 X-0.1614
M67 E0 Q1
G1 X-0.0039
M67 E0 Q0
G1 X-0.0512
M67 E0 Q1
G1 X-0.004
M67 E0 Q0
G1 X-0.0511
M67 E0 Q1
G1 X-0.004
M67 E0 Q0
G1 X-0.0551
M67 E0 Q1
G1 X-0.0039
M67 E0 Q0
G1 X-0.0906
M67 E0 Q1
G1 X-0.0039
M67 E0 Q0
G1 X-0.1221
M67 E0 Q1
G1 X-0.0039
M67 E0 Q0
G1 X-1.3071
M67 E0 Q1
G1 X-0.0039
M67 E0 Q0
G1 X-0.0417
G1 X0.2165Y0.0039
G1 X0.0417
M67 E0 Q1
G1 X0.0039
M67 E0 Q0
G1 X1.0355
M67 E0 Q1
G1 X0.0039
M67 E0 Q0
G1 X0.0788
M67 E0 Q1
G1 X0.0039
M67 E0 Q0
G1 X0.0787
M67 E0 Q1
G1 X0.004
M67 E0 Q0
G1 X0.0866
M67 E0 Q1
G1 X0.0039
M67 E0 Q0
G1 X0.1457
M67 E0 Q1
G1 X0.0039
M67 E0 Q0
G1 X0.0079
M67 E0 Q1
G1 X0.0039
M67 E0 Q0
G1 X0.0118
M67 E0 Q1
G1 X0.004
M67 E0 Q0
G1 X0.189
M67 E0 Q1
G1 X0.0039
M67 E0 Q0
G1 X0.0512
M67 E0 Q1
G1 X0.0039
M67 E0 Q0
G1 X0.1063
M67 E0 Q1
G1 X0.0039
M67 E0 Q0
G1 X0.0512
M67 E0 Q1
G1 X0.004
M67 E0 Q0
G1 X0.0118
M67 E0 Q1
G1 X0.0039
M67 E0 Q0
G1 X0.1221
M67 E0 Q1
G1 X0.0039
M67 E0 Q0
G1 X0.1142
M67 E0 Q1
G1 X0.0039
M67 E0 Q0
G1 X0.0551
M67 E0 Q1
G1 X0.004
M67 E0 Q0
G1 X0.0826
M67 E0 Q1
G1 X0.004
M67 E0 Q0
G1 X0.0416
G1 X1.126Y0.004
G1 X-0.0416
M67 E0 Q1
G1 X-0.004
M67 E0 Q0
G1 X-1.1417
M67 E0 Q1
G1 X-0.0039
M67 E0 Q0
G1 X-0.0394
M67 E0 Q1
G1 X-0.0039
M67 E0 Q0
G1 X-0.0394
M67 E0 Q1
G1 X-0.004
M67 E0 Q0
G1 X-0.0196
M67 E0 Q1
G1 X-0.004
M67 E0 Q0
G1 X-0.0748
M67 E0 Q1
G1 X-0.0039
M67 E0 Q0
G1 X-0.0158
M67 E0 Q1
G1 X-0.0039
M67 E0 Q0
G1 X-0.0158
M67 E0 Q1
G1 X-0.0039
M67 E0 Q0
G1 X-0.0709
M67 E0 Q1
G1 X-0.0039
M67 E0 Q0
G1 X-0.0079
M67 E0 Q1
G1 X-0.0039
M67 E0 Q0
G1 X-0.0394
M67 E0 Q1
G1 X-0.0039
M67 E0 Q0
G1 X-0.1024
M67 E0 Q1
G1 X-0.0039
M67 E0 Q0
G1 X-0.0354
M67 E0 Q1
G1 X-0.004
M67 E0 Q0
G1 X-0.0079
M67 E0 Q1
G1 X-0.0039
M67 E0 Q0
G1 X-0.0157
M67 E0 Q1
G1 X-0.004
M67 E0 Q0
G1 X-0.126
M67 E0 Q1
G1 X-0.0039
M67 E0 Q0
G1 X-0.0591
M67 E0 Q1
G1 X-0.0039
M67 E0 Q0
G1 X-0.3504
M67 E0 Q1
G1 X-0.0039
M67 E0 Q0
G1 X-0.1024
M67 E0 Q1
G1 X-0.0039
M67 E0 Q0
G1 X-1.1575
M67 E0 Q1
G1 X-0.0039
M67 E0 Q0
G1 X-0.1418
M67 E0 Q1
G1 X-0.0039
M67 E0 Q0
G1 X-0.0417
G1 X1.2914Y0.0039
G1 X0.0416
M67 E0 Q1
G1 X0.004
M67 E0 Q0
G1 X0.0945
M67 E0 Q1
G1 X0.0039
M67 E0 Q0
G1 X0.1693
M67 E0 Q1
G1 X0.0039
M67 E0 Q0
G1 X0.0158
M67 E0 Q1
G1 X0.0039
M67 E0 Q0
G1 X0.0512
M67 E0 Q1
G1 X0.0039
M67 E0 Q0
G1 X0.0788
M67 E0 Q1
G1 X0.0039
M67 E0 Q0
G1 X0.0158
M67 E0 Q1
G1 X0.0039
M67 E0 Q0
G1 X0.0118
M67 E0 Q1
G1 X0.0039
M67 E0 Q0
G1 X0.0197
M67 E0 Q1
G1 X0.004
M67 E0 Q0
G1 X0.0157
M67 E0 Q1
G1 X0.0039
M67 E0 Q0
G1 X0.0119
M67 E0 Q1
G1 X0.0039
M67 E0 Q0
G1 X0.0236
M67 E0 Q1
G1 X0.004
M67 E0 Q0
G1 X0.0078
M67 E0 Q1
G1 X0.004
M67 E0 Q0
G1 X0.0118
M67 E0 Q1
G1 X0.0039
M67 E0 Q0
G1 X0.0276
M67 E0 Q1
G1 X0.0039
M67 E0 Q0
G1 X0.0118
M67 E0 Q1
G1 X0.004
M67 E0 Q0
G1 X0.0905
M67 E0 Q1
G1 X0.0039
M67 E0 Q0
G1 X0.0552
M67 E0 Q1
G1 X0.0039
M67 E0 Q0
G1 X0.0118
M67 E0 Q1
G1 X0.0039
M67 E0 Q0
G1 X0.0709
M67 E0 Q1
G1 X0.0039
M67 E0 Q0
G1 X0.441
M67 E0 Q1
G1 X0.0039
M67 E0 Q0
G1 X1
M67 E0 Q1
G1 X0.004
M67 E0 Q0
G1 X0.0945
M67 E0 Q1
G1 X0.0039
M67 E0 Q0
G1 X0.0394
M67 E0 Q1
G1 X0.0039
M67 E0 Q0
G1 X0.0417
G1 X-0.0158Y0.0039
G1 X-0.0416
M67 E0 Q1
G1 X-0.004
M67 E0 Q0
G1 X-0.0984
M67 E0 Q1
G1 X-0.0039
M67 E0 Q0
G1 X-0.0079
M67 E0 Q1
G1 X-0.004
M67 E0 Q0
G1 X-1.0433
M67 E0 Q1
G1 X-0.0039
M67 E0 Q0
G1 X-0.126
M67 E0 Q1
G1 X-0.0039
M67 E0 Q0
G1 X-0.0158
M67 E0 Q1
G1 X-0.0039
M67 E0 Q0
G1 X-0.0787
M67 E0 Q1
G1 X-0.004
M67 E0 Q0
G1 X-0.0118
M67 E0 Q1
G1 X-0.0039
M67 E0 Q0
G1 X-0.0906
M67 E0 Q1
G1 X-0.0039
M67 E0 Q0
G1 X-0.0079
M67 E0 Q1
G1 X-0.0039
M67 E0 Q0
G1 X-0.0079
M67 E0 Q1
G1 X-0.0039
M67 E0 Q0
G1 X-0.0985
M67 E0 Q1
G1 X-0.0039
M67 E0 Q0
G1 X-0.1535
M67 E0 Q1
G1 X-0.004
M67 E0 Q0
G1 X-0.0157
M67 E0 Q1
G1 X-0.004
M67 E0 Q0
G1 X-0.0393
M67 E0 Q1
G1 X-0.004
M67 E0 Q0
G1 X-0.2283
M67 E0 Q1
G1 X-0.004
M67 E0 Q0
G1 X-0.0275
M67 E0 Q1
G1 X-0.004
M67 E0 Q0
G1 X-0.0669
M67 E0 Q1
G1 X-0.0039
M67 E0 Q0
G1 X-0.0118
M67 E0 Q1
G1 X-0.004
M67 E0 Q0
G1 X-0.0354
M67 E0 Q1
G1 X-0.0039
M67 E0 Q0
G1 X-0.1142
M67 E0 Q1
G1 X-0.004
M67 E0 Q0
G1 X-0.0157
M67 E0 Q1
G1 X-0.0039
M67 E0 Q0
G1 X-0.1063
M67 E0 Q1
G1 X-0.004
M67 E0 Q0
G1 X-1.2519
M67 E0 Q1
G1 X-0.004
M67 E0 Q0
G1 X-0.0416
G1 X0.1692Y0.004
G1 X0.0417
M67 E0 Q1
G1 X0.0039
M67 E0 Q0
G1 X1.2993
M67 E0 Q1
G1 X0.0039
M67 E0 Q0
G1 X0.0118
M67 E0 Q1
G1 X0.0039
M67 E0 Q0
G1 X0.0276
M67 E0 Q1
G1 X0.0039
M67 E0 Q0
G1 X0.0827
M67 E0 Q1
G1 X0.004
M67 E0 Q0
G1 X0.0669
M67 E0 Q1
G1 X0.0039
M67 E0 Q0
G1 X0.0118
M67 E0 Q1
G1 X0.004
M67 E0 Q0
G1 X0.0118
M67 E0 Q1
G1 X0.0039
M67 E0 Q0
G1 X0.2638
M67 E0 Q1
G1 X0.0039
M67 E0 Q0
G1 X0.0276
M67 E0 Q1
G1 X0.0039
M67 E0 Q0
G1 X0.0237
M67 E0 Q1
G1 X0.0039
M67 E0 Q0
G1 X0.0118
M67 E0 Q1
G1 X0.0039
M67 E0 Q0
G1 X0.0079
M67 E0 Q1
G1 X0.0039
M67 E0 Q0
G1 X0.063
M67 E0 Q1
G1 X0.004
M67 E0 Q0
G1 X0.0197
M67 E0 Q1
G1 X0.0039
M67 E0 Q0
G1 X0.0236
M67 E0 Q1
G1 X0.004
M67 E0 Q0
G1 X0.0708
M67 E0 Q1
G1 X0.004
M67 E0 Q0
G1 X0.0472
M67 E0 Q1
G1 X0.0039
M67 E0 Q0
G1 X0.0552
M67 E0 Q1
G1 X0.0039
M67 E0 Q0
G1 X0.0354
M67 E0 Q1
G1 X0.004
M67 E0 Q0
G1 X0.0826
M67 E0 Q1
G1 X0.004
M67 E0 Q0
G1 X1.2086
M67 E0 Q1
G1 X0.004
M67 E0 Q0
G1 X0.0416
G1 X-1Y0.0039
G1 X-0.0416
M67 E0 Q1
G1 X-0.004
M67 E0 Q0
G1 X-0.0748
M67 E0 Q1
G1 X-0.0039
M67 E0 Q0
G1 X-0.0551
M67 E0 Q1
G1 X-0.004
M67 E0 Q0
G1 X-0.1811
M67 E0 Q1
G1 X-0.0039
M67 E0 Q0
G1 X-0.0827
M67 E0 Q1
G1 X-0.0039
M67 E0 Q0
G1 X-0.0079
M67 E0 Q1
G1 X-0.0039
M67 E0 Q0
G1 X-0.0079
M67 E0 Q1
G1 X-0.0039
M67 E0 Q0
G1 X-0.067
M67 E0 Q1
G1 X-0.0039
M67 E0 Q0
G1 X-0.0945
M67 E0 Q1
G1 X-0.0039
M67 E0 Q0
G1 X-0.0158
M67 E0 Q1
G1 X-0.0039
M67 E0 Q0
G1 X-0.0906
M67 E0 Q1
G1 X-0.0039
M67 E0 Q0
G1 X-0.0669
M67 E0 Q1
G1 X-0.004
M67 E0 Q0
G1 X-0.0393
M67 E0 Q1
G1 X-0.004
M67 E0 Q0
G1 X-0.0354
M67 E0 Q1
G1 X-0.0039
M67 E0 Q0
G1 X-0.0118
M67 E0 Q1
G1 X-0.004
M67 E0 Q0
G1 X-0.0118
M67 E0 Q1
G1 X-0.0039
M67 E0 Q0
G1 X-0.0079
M67 E0 Q1
G1 X-0.0039
M67 E0 Q0
G1 X-0.0473
M67 E0 Q1
G1 X-0.0039
M67 E0 Q0
G1 X-0.0118
M67 E0 Q1
G1 X-0.004
M67 E0 Q0
G1 X-0.1023
M67 E0 Q1
G1 X-0.004
M67 E0 Q0
G1 X-0.3267
M67 E0 Q1
G1 X-0.004
M67 E0 Q0
G1 X-0.0393
M67 E0 Q1
G1 X-0.004
M67 E0 Q0
G1 X-0.9882
M67 E0 Q1
G1 X-0.0039
M67 E0 Q0
G1 X-0.0417
G1 X-0.1378Y0.0039
G1 X0.0417
M67 E0 Q1
G1 X0.0039
M67 E0 Q0
G1 X0.0079
M67 E0 Q1
G1 X0.0039
M67 E0 Q0
G1 X0.0079
M67 E0 Q1
G1 X0.004
M67 E0 Q0
G1 X1.1653
M67 E0 Q1
G1 X0.0039
M67 E0 Q0
G1 X0.0237
M67 E0 Q1
G1 X0.0039
M67 E0 Q0
G1 X0.0079
M67 E0 Q1
G1 X0.0039
M67 E0 Q0
G1 X0.0276
M67 E0 Q1
G1 X0.0039
M67 E0 Q0
G1 X0.0394
M67 E0 Q1
G1 X0.0039
M67 E0 Q0
G1 X0.0158
M67 E0 Q1
G1 X0.0039
M67 E0 Q0
G1 X0.0118
M67 E0 Q1
G1 X0.004
M67 E0 Q0
G1 X0.0748
M67 E0 Q1
G1 X0.0039
M67 E0 Q0
G1 X0.0394
M67 E0 Q1
G1 X0.0039
M67 E0 Q0
G1 X0.0118
M67 E0 Q1
G1 X0.0039
M67 E0 Q0
G1 X0.0473
M67 E0 Q1
G1 X0.0039
M67 E0 Q0
G1 X0.1024
M67 E0 Q1
G1 X0.0039
M67 E0 Q0
G1 X0.0079
M67 E0 Q1
G1 X0.0039
M67 E0 Q0
G1 X0.0079
M67 E0 Q1
G1 X0.0039
M67 E0 Q0
G1 X0.067
M67 E0 Q1
G1 X0.0039
M67 E0 Q0
G1 X0.0118
M67 E0 Q1
G1 X0.004
M67 E0 Q0
G1 X0.0236
M67 E0 Q1
G1 X0.0039
M67 E0 Q0
G1 X0.0118
M67 E0 Q1
G1 X0.004
M67 E0 Q0
G1 X0.0315
M67 E0 Q1
G1 X0.0039
M67 E0 Q0
G1 X0.0079
M67 E0 Q1
G1 X0.0039
M67 E0 Q0
G1 X0.063
M67 E0 Q1
G1 X0.0039
M67 E0 Q0
G1 X0.1182
M67 E0 Q1
G1 X0.0039
M67 E0 Q0
G1 X0.0197
M67 E0 Q1
G1 X0.0039
M67 E0 Q0
G1 X0.1536
M67 E0 Q1
G1 X0.0039
M67 E0 Q0
G1 X0.0945
M67 E0 Q1
G1 X0.0039
M67 E0 Q0
G1 X0.0079
M67 E0 Q1
G1 X0.0039
M67 E0 Q0
G1 X0.0158
M67 E0 Q1
G1 X0.0039
M67 E0 Q0
G1 X0.0236
M67 E0 Q1
G1 X0.004
M67 E0 Q0
G1 X0.0315
M67 E0 Q1
G1 X0.0039
M67 E0 Q0
G1 X0.0158
M67 E0 Q1
G1 X0.0039
M67 E0 Q0
G1 X0.0157
M67 E0 Q1
G1 X0.004
M67 E0 Q0
G1 X0.0197
M67 E0 Q1
G1 X0.0039
M67 E0 Q0
G1 X0.0118
M67 E0 Q1
G1 X0.0039
M67 E0 Q0
G1 X1.0945
M67 E0 Q1
G1 X0.004
M67 E0 Q0
G1 X0.0866
M67 E0 Q1
G1 X0.0039
M67 E0 Q0
G1 X0.0417
G1 X-0.0433Y0.004
G1 X-0.0417
M67 E0 Q1
G1 X-0.0039
M67 E0 Q0
G1 X-1.3819
M67 E0 Q1
G1 X-0.0039
M67 E0 Q0
G1 X-0.0119
M67 E0 Q1
G1 X-0.0039
M67 E0 Q0
G1 X-0.0905
M67 E0 Q1
G1 X-0.004
M67 E0 Q0
G1 X-0.0118
M67 E0 Q1
G1 X-0.0039
M67 E0 Q0
G1 X-0.0118
M67 E0 Q1
G1 X-0.004
M67 E0 Q0
G1 X-0.0275
M67 E0 Q1
G1 X-0.004
M67 E0 Q0
G1 X-0.0472
M67 E0 Q1
G1 X-0.004
M67 E0 Q0
G1 X-0.0118
M67 E0 Q1
G1 X-0.0039
M67 E0 Q0
G1 X-0.0433
M67 E0 Q1
G1 X-0.004
M67 E0 Q0
G1 X-0.0275
M67 E0 Q1
G1 X-0.0039
M67 E0 Q0
G1 X-0.0315
M67 E0 Q1
G1 X-0.004
M67 E0 Q0
G1 X-0.0315
M67 E0 Q1
G1 X-0.0039
M67 E0 Q0
G1 X-0.0315
M67 E0 Q1
G1 X-0.0039
M67 E0 Q0
G1 X-0.2284
M67 E0 Q1
G1 X-0.0039
M67 E0 Q0
G1 X-0.0315
M67 E0 Q1
G1 X-0.004
M67 E0 Q0
G1 X-0.0236
M67 E0 Q1
G1 X-0.0039
M67 E0 Q0
G1 X-0.3544
M67 E0 Q1
G1 X-0.0039
M67 E0 Q0
G1 X-0.0417
G1 X-1.2952Y0.0039
G1 X0.0416
M67 E0 Q1
G1 X0.004
M67 E0 Q0
G1 X0.0197
M67 E0 Q1
G1 X0.0039
M67 E0 Q0
G1 X0.0905
M67 E0 Q1
G1 X0.004
M67 E0 Q0
G1 X0.0551
M67 E0 Q1
G1 X0.0039
M67 E0 Q0
G1 X0.0197
M67 E0 Q1
G1 X0.004
M67 E0 Q0
G1 X0.0826
M67 E0 Q1
G1 X0.004
M67 E0 Q0
G1 X0.9685
M67 E0 Q1
G1 X0.0039
M67 E0 Q0
G1 X0.1654
M67 E0 Q1
G1 X0.0039
M67 E0 Q0
G1 X0.0866
M67 E0 Q1
G1 X0.004
M67 E0 Q0
G1 X0.0118
M67 E0 Q1
G1 X0.0039
M67 E0 Q0
G1 X0.0315
M67 E0 Q1
G1 X0.0039
M67 E0 Q0
G1 X0.0079
M67 E0 Q1
G1 X0.0039
M67 E0 Q0
G1 X0.1063
M67 E0 Q1
G1 X0.004
M67 E0 Q0
G1 X0.0079
M67 E0 Q1
G1 X0.0039
M67 E0 Q0
G1 X0.0236
M67 E0 Q1
G1 X0.004
M67 E0 Q0
G1 X0.0157
M67 E0 Q1
G1 X0.0039
M67 E0 Q0
G1 X0.0512
M67 E0 Q1
G1 X0.004
M67 E0 Q0
G1 X0.0196
M67 E0 Q1
G1 X0.004
M67 E0 Q0
G1 X0.0118
M67 E0 Q1
G1 X0.0039
M67 E0 Q0
G1 X0.1457
M67 E0 Q1
G1 X0.0039
M67 E0 Q0
G1 X0.067
M67 E0 Q1
G1 X0.0039
M67 E0 Q0
G1 X0.0276
M67 E0 Q1
G1 X0.0039
M67 E0 Q0
G1 X0.0079
M67 E0 Q1
G1 X0.0039
M67 E0 Q0
G1 X0.0591
M67 E0 Q1
G1 X0.0039
M67 E0 Q0
G1 X0.0354
M67 E0 Q1
G1 X0.004
M67 E0 Q0
G1 X0.063
M67 E0 Q1
G1 X0.0039
M67 E0 Q0
G1 X0.1299
M67 E0 Q1
G1 X0.004
M67 E0 Q0
G1 X0.2086
M67 E0 Q1
G1 X0.004
M67 E0 Q0
G1 X0.0275
M67 E0 Q1
G1 X0.004
M67 E0 Q0
G1 X0.0416
G1 X1.0512Y0.004
G1 X-0.0417
M67 E0 Q1
G1 X-0.0039
M67 E0 Q0
G1 X-0.0079
M67 E0 Q1
G1 X-0.0039
M67 E0 Q0
G1 X-1.0158
M67 E0 Q1
G1 X-0.0039
M67 E0 Q0
G1 X-0.0354
M67 E0 Q1
G1 X-0.004
M67 E0 Q0
G1 X-0.0708
M67 E0 Q1
G1 X-0.004
M67 E0 Q0
G1 X-0.0354
M67 E0 Q1
G1 X-0.0039
M67 E0 Q0
G1 X-0.0433
M67 E0 Q1
G1 X-0.004
M67 E0 Q0
G1 X-0.0472
M67 E0 Q1
G1 X-0.004
M67 E0 Q0
G1 X-0.0315
M67 E0 Q1
G1 X-0.0039
M67 E0 Q0
G1 X-0.0472
M67 E0 Q1
G1 X-0.004
M67 E0 Q0
G1 X-0.0118
M67 E0 Q1
G1 X-0.0039
M67 E0 Q0
G1 X-0.0237
M67 E0 Q1
G1 X-0.0039
M67 E0 Q0
G1 X-0.1024
M67 E0 Q1
G1 X-0.0039
M67 E0 Q0
G1 X-0.063
M67 E0 Q1
G1 X-0.0039
M67 E0 Q0
G1 X-0.0394
M67 E0 Q1
G1 X-0.0039
M67 E0 Q0
G1 X-0.0315
M67 E0 Q1
G1 X-0.004
M67 E0 Q0
G1 X-0.0078
M67 E0 Q1
G1 X-0.004
M67 E0 Q0
G1 X-0.0197
M67 E0 Q1
G1 X-0.0039
M67 E0 Q0
G1 X-0.0787
M67 E0 Q1
G1 X-0.004
M67 E0 Q0
G1 X-0.0157
M67 E0 Q1
G1 X-0.004
M67 E0 Q0
G1 X-0.0078
M67 E0 Q1
G1 X-0.004
M67 E0 Q0
G1 X-0.0118
M67 E0 Q1
G1 X-0.0039
M67 E0 Q0
G1 X-0.0118
M67 E0 Q1
G1 X-0.004
M67 E0 Q0
G1 X-0.2165
M67 E0 Q1
G1 X-0.0039
M67 E0 Q0
G1 X-0.0118
M67 E0 Q1
G1 X-0.004
M67 E0 Q0
G1 X-0.1142
M67 E0 Q1
G1 X-0.0039
M67 E0 Q0
G1 X-0.0118
M67 E0 Q1
G1 X-0.0039
M67 E0 Q0
G1 X-0.0827
M67 E0 Q1
G1 X-0.004
M67 E0 Q0
G1 X-0.0236
M67 E0 Q1
G1 X-0.0039
M67 E0 Q0
G1 X-0.0417
G1 X-1.2716Y0.0039
G1 X0.0416
M67 E0 Q1
G1 X0.004
M67 E0 Q0
G1 X0.1023
M67 E0 Q1
G1 X0.004
M67 E0 Q0
G1 X1.0708
M67 E0 Q1
G1 X0.004
M67 E0 Q0
G1 X0.0393
M67 E0 Q1
G1 X0.004
M67 E0 Q0
G1 X0.0197
M67 E0 Q1
G1 X0.0039
M67 E0 Q0
G1 X0.0984
M67 E0 Q1
G1 X0.004
M67 E0 Q0
G1 X0.0905
M67 E0 Q1
G1 X0.004
M67 E0 Q0
G1 X0.0433
M67 E0 Q1
G1 X0.0039
M67 E0 Q0
G1 X0.0118
M67 E0 Q1
G1 X0.0039
M67 E0 Q0
G1 X0.0512
M67 E0 Q1
G1 X0.004
M67 E0 Q0
G1 X0.0708
M67 E0 Q1
G1 X0.004
M67 E0 Q0
G1 X0.0157
M67 E0 Q1
G1 X0.004
M67 E0 Q0
G1 X0.0078
M67 E0 Q1
G1 X0.004
M67 E0 Q0
G1 X0.0078
M67 E0 Q1
G1 X0.004
M67 E0 Q0
G1 X0.0275
M67 E0 Q1
G1 X0.004
M67 E0 Q0
G1 X0.1141
M67 E0 Q1
G1 X0.004
M67 E0 Q0
G1 X0.0118
M67 E0 Q1
G1 X0.0039
M67 E0 Q0
G1 X0.0079
M67 E0 Q1
G1 X0.0039
M67 E0 Q0
G1 X0.0119
M67 E0 Q1
G1 X0.0039
M67 E0 Q0
G1 X0.1535
M67 E0 Q1
G1 X0.004
M67 E0 Q0
G1 X0.0118
M67 E0 Q1
G1 X0.0039
M67 E0 Q0
G1 X0.0669
M67 E0 Q1
G1 X0.004
M67 E0 Q0
G1 X0.0118
M67 E0 Q1
G1 X0.0039
M67 E0 Q0
G1 X0.0118
M67 E0 Q1
G1 X0.004
M67 E0 Q0
G1 X0.0512
M67 E0 Q1
G1 X0.0039
M67 E0 Q0
G1 X0.0866
M67 E0 Q1
G1 X0.0039
M67 E0 Q0
G1 X0.0473
M67 E0 Q1
G1 X0.0039
M67 E0 Q0
G1 X0.0355
M67 E0 Q1
G1 X0.0039
M67 E0 Q0
G1 X0.0551
M67 E0 Q1
G1 X0.004
M67 E0 Q0
G1 X0.1889
M67 E0 Q1
G1 X0.004
M67 E0 Q0
G1 X1.0393
M67 E0 Q1
G1 X0.004
M67 E0 Q0
G1 X0.0416
G1 X0.0355Y0.0039
G1 X-0.0417
M67 E0 Q1
G1 X-0.0039
M67 E0 Q0
G1 X-0.067
M67 E0 Q1
G1 X-0.0039
M67 E0 Q0
G1 X-0.0157
M67 E0 Q1
G1 X-0.004
M67 E0 Q0
G1 X-1.059
M67 E0 Q1
G1 X-0.004
M67 E0 Q0
G1 X-0.0157
M67 E0 Q1
G1 X-0.004
M67 E0 Q0
G1 X-0.1378
M67 E0 Q1
G1 X-0.0039
M67 E0 Q0
G1 X-0.0669
M67 E0 Q1
G1 X-0.004
M67 E0 Q0
G1 X-0.0551
M67 E0 Q1
G1 X-0.0039
M67 E0 Q0
G1 X-0.0118
M67 E0 Q1
G1 X-0.004
M67 E0 Q0
G1 X-0.0078
M67 E0 Q1
G1 X-0.004
M67 E0 Q0
G1 X-0.0748
M67 E0 Q1
G1 X-0.0039
M67 E0 Q0
G1 X-0.063
M67 E0 Q1
G1 X-0.0039
M67 E0 Q0
G1 X-0.0355
M67 E0 Q1
G1 X-0.0039
M67 E0 Q0
G1 X-0.0669
M67 E0 Q1
G1 X-0.004
M67 E0 Q0
G1 X-0.0354
M67 E0 Q1
G1 X-0.0039
M67 E0 Q0
G1 X-0.0315
M67 E0 Q1
G1 X-0.004
M67 E0 Q0
G1 X-0.0984
M67 E0 Q1
G1 X-0.0039
M67 E0 Q0
G1 X-0.063
M67 E0 Q1
G1 X-0.004
M67 E0 Q0
G1 X-0.0118
M67 E0 Q1
G1 X-0.0039
M67 E0 Q0
G1 X-0.0315
M67 E0 Q1
G1 X-0.004
M67 E0 Q0
G1 X-0.0669
M67 E0 Q1
G1 X-0.0039
M67 E0 Q0
G1 X-0.0079
M67 E0 Q1
G1 X-0.0039
M67 E0 Q0
G1 X-0.0276
M67 E0 Q1
G1 X-0.0039
M67 E0 Q0
G1 X-0.0236
M67 E0 Q1
G1 X-0.004
M67 E0 Q0
G1 X-0.1771
M67 E0 Q1
G1 X-0.004
M67 E0 Q0
G1 X-0.059
M67 E0 Q1
G1 X-0.004
M67 E0 Q0
G1 X-0.0197
M67 E0 Q1
G1 X-0.0039
M67 E0 Q0
G1 X-0.0417
G1 X-0.1181Y0.004
G1 X0.0417
M67 E0 Q1
G1 X0.0039
M67 E0 Q0
G1 X0.0236
M67 E0 Q1
G1 X0.004
M67 E0 Q0
G1 X0.0945
M67 E0 Q1
G1 X0.0039
M67 E0 Q0
G1 X0.0236
M67 E0 Q1
G1 X0.004
M67 E0 Q0
G1 X0.0157
M67 E0 Q1
G1 X0.004
M67 E0 Q0
G1 X0.0787
M67 E0 Q1
G1 X0.0039
M67 E0 Q0
G1 X0.0079
M67 E0 Q1
G1 X0.0039
M67 E0 Q0
G1 X0.0197
M67 E0 Q1
G1 X0.004
M67 E0 Q0
G1 X0.0118
M67 E0 Q1
G1 X0.0039
M67 E0 Q0
G1 X0.063
M67 E0 Q1
G1 X0.0039
M67 E0 Q0
G1 X0.0512
M67 E0 Q1
G1 X0.004
M67 E0 Q0
G1 X0.1063
M67 E0 Q1
G1 X0.0039
M67 E0 Q0
G1 X0.0512
M67 E0 Q1
G1 X0.0039
M67 E0 Q0
G1 X0.0118
M67 E0 Q1
G1 X0.004
M67 E0 Q0
G1 X0.0196
M67 E0 Q1
G1 X0.004
M67 E0 Q0
G1 X0.0827
M67 E0 Q1
G1 X0.0039
M67 E0 Q0
G1 X0.0079
M67 E0 Q1
G1 X0.0039
M67 E0 Q0
G1 X0.0276
M67 E0 Q1
G1 X0.0039
M67 E0 Q0
G1 X0.0276
M67 E0 Q1
G1 X0.0039
M67 E0 Q0
G1 X0.0118
M67 E0 Q1
G1 X0.0039
M67 E0 Q0
G1 X0.0237
M67 E0 Q1
G1 X0.0039
M67 E0 Q0
G1 X0.0118
M67 E0 Q1
G1 X0.004
M67 E0 Q0
G1 X0.0472
M67 E0 Q1
G1 X0.0039
M67 E0 Q0
G1 X0.0118
M67 E0 Q1
G1 X0.004
M67 E0 Q0
G1 X0.0866
M67 E0 Q1
G1 X0.0039
M67 E0 Q0
G1 X0.1733
M67 E0 Q1
G1 X0.0039
M67 E0 Q0
G1 X0.0158
M67 E0 Q1
G1 X0.0039
M67 E0 Q0
G1 X0.0551
M67 E0 Q1
G1 X0.0039
M67 E0 Q0
G1 X0.0394
M67 E0 Q1
G1 X0.0039
M67 E0 Q0
G1 X0.0417
G1 X1.1024Y0.0039
G1 X-0.0417
M67 E0 Q1
G1 X-0.0039
M67 E0 Q0
G1 X-1.2677
M67 E0 Q1
G1 X-0.004
M67 E0 Q0
G1 X-0.0708
M67 E0 Q1
G1 X-0.004
M67 E0 Q0
G1 X-0.0079
M67 E0 Q1
G1 X-0.0039
M67 E0 Q0
G1 X-0.0157
M67 E0 Q1
G1 X-0.004
M67 E0 Q0
G1 X-0.0079
M67 E0 Q1
G1 X-0.0039
M67 E0 Q0
G1 X-0.0433
M67 E0 Q1
G1 X-0.0039
M67 E0 Q0
G1 X-0.0118
M67 E0 Q1
G1 X-0.004
M67 E0 Q0
G1 X-0.0118
M67 E0 Q1
G1 X-0.0039
M67 E0 Q0
G1 X-0.0709
M67 E0 Q1
G1 X-0.0039
M67 E0 Q0
G1 X-0.1693
M67 E0 Q1
G1 X-0.004
M67 E0 Q0
G1 X-0.0196
M67 E0 Q1
G1 X-0.004
M67 E0 Q0
G1 X-0.0079
M67 E0 Q1
G1 X-0.0039
M67 E0 Q0
G1 X-0.0354
M67 E0 Q1
G1 X-0.004
M67 E0 Q0
G1 X-0.1023
M67 E0 Q1
G1 X-0.004
M67 E0 Q0
G1 X-0.0275
M67 E0 Q1
G1 X-0.004
M67 E0 Q0
G1 X-0.0078
M67 E0 Q1
G1 X-0.004
M67 E0 Q0
G1 X-0.1102
M67 E0 Q1
G1 X-0.0039
M67 E0 Q0
G1 X-0.0158
M67 E0 Q1
G1 X-0.0039
M67 E0 Q0
G1 X-0.0158
M67 E0 Q1
G1 X-0.0039
M67 E0 Q0
G1 X-0.0709
M67 E0 Q1
G1 X-0.0039
M67 E0 Q0
G1 X-0.0197
M67 E0 Q1
G1 X-0.0039
M67 E0 Q0
G1 X-0.126
M67 E0 Q1
G1 X-0.004
M67 E0 Q0
G1 X-0.0196
M67 E0 Q1
G1 X-0.004
M67 E0 Q0
G1 X-0.0236
M67 E0 Q1
G1 X-0.0039
M67 E0 Q0
G1 X-0.0709
M67 E0 Q1
G1 X-0.0039
M67 E0 Q0
G1 X-0.9292
M67 E0 Q1
G1 X-0.0039
M67 E0 Q0
G1 X-0.2717
M67 E0 Q1
G1 X-0.0039
M67 E0 Q0
G1 X-0.0417
G1 X-0.0197Y0.0039
G1 X0.0417
M67 E0 Q1
G1 X0.0039
M67 E0 Q0
G1 X0.0827
M67 E0 Q1
G1 X0.004
M67 E0 Q0
G1 X0.1299
M67 E0 Q1
G1 X0.0039
M67 E0 Q0
G1 X1.1496
M67 E0 Q1
G1 X0.004
M67 E0 Q0
G1 X0.0157
M67 E0 Q1
G1 X0.0039
M67 E0 Q0
G1 X0.0591
M67 E0 Q1
G1 X0.0039
M67 E0 Q0
G1 X0.2048
M67 E0 Q1
G1 X0.0039
M67 E0 Q0
G1 X0.0118
M67 E0 Q1
G1 X0.0039
M67 E0 Q0
G1 X0.0197
M67 E0 Q1
G1 X0.004
M67 E0 Q0
G1 X0.0157
M67 E0 Q1
G1 X0.004
M67 E0 Q0
G1 X0.0315
M67 E0 Q1
G1 X0.0039
M67 E0 Q0
G1 X0.0512
M67 E0 Q1
G1 X0.0039
M67 E0 Q0
G1 X0.0079
M67 E0 Q1
G1 X0.0039
M67 E0 Q0
G1 X0.0079
M67 E0 Q1
G1 X0.0039
M67 E0 Q0
G1 X0.1063
M67 E0 Q1
G1 X0.004
M67 E0 Q0
G1 X0.0197
M67 E0 Q1
G1 X0.0039
M67 E0 Q0
G1 X0.0315
M67 E0 Q1
G1 X0.0039
M67 E0 Q0
G1 X0.0276
M67 E0 Q1
G1 X0.0039
M67 E0 Q0
G1 X0.1024
M67 E0 Q1
G1 X0.0039
M67 E0 Q0
G1 X0.1024
M67 E0 Q1
G1 X0.0039
M67 E0 Q0
G1 X0.1103
M67 E0 Q1
G1 X0.0039
M67 E0 Q0
G1 X0.0118
M67 E0 Q1
G1 X0.0039
M67 E0 Q0
G1 X0.0079
M67 E0 Q1
G1 X0.0039
M67 E0 Q0
G1 X0.0197
M67 E0 Q1
G1 X0.004
M67 E0 Q0
G1 X0.0157
M67 E0 Q1
G1 X0.004
M67 E0 Q0
G1 X0.0748
M67 E0 Q1
G1 X0.0039
M67 E0 Q0
G1 X0.0748
M67 E0 Q1
G1 X0.0039
M67 E0 Q0
G1 X0.0945
M67 E0 Q1
G1 X0.004
M67 E0 Q0
G1 X0.0551
M67 E0 Q1
G1 X0.0039
M67 E0 Q0
G1 X1.0433
M67 E0 Q1
G1 X0.004
M67 E0 Q0
G1 X0.0416
G1 X0.0276Y0.004
G1 X-0.0417
M67 E0 Q1
G1 X-0.0039
M67 E0 Q0
G1 X-0.0473
M67 E0 Q1
G1 X-0.0039
M67 E0 Q0
G1 X-1.0591
M67 E0 Q1
G1 X-0.0039
M67 E0 Q0
G1 X-0.0394
M67 E0 Q1
G1 X-0.0039
M67 E0 Q0
G1 X-0.0197
M67 E0 Q1
G1 X-0.0039
M67 E0 Q0
G1 X-0.0276
M67 E0 Q1
G1 X-0.0039
M67 E0 Q0
G1 X-0.0591
M67 E0 Q1
G1 X-0.0039
M67 E0 Q0
G1 X-0.0118
M67 E0 Q1
G1 X-0.004
M67 E0 Q0
G1 X-0.0472
M67 E0 Q1
G1 X-0.0039
M67 E0 Q0
G1 X-0.0118
M67 E0 Q1
G1 X-0.004
M67 E0 Q0
G1 X-0.0157
M67 E0 Q1
G1 X-0.004
M67 E0 Q0
G1 X-0.0984
M67 E0 Q1
G1 X-0.0039
M67 E0 Q0
G1 X-0.0788
M67 E0 Q1
G1 X-0.0039
M67 E0 Q0
G1 X-0.063
M67 E0 Q1
G1 X-0.0039
M67 E0 Q0
G1 X-0.0119
M67 E0 Q1
G1 X-0.0039
M67 E0 Q0
G1 X-0.0079
M67 E0 Q1
G1 X-0.0039
M67 E0 Q0
G1 X-0.0079
M67 E0 Q1
G1 X-0.0039
M67 E0 Q0
G1 X-0.0394
M67 E0 Q1
G1 X-0.0039
M67 E0 Q0
G1 X-0.0079
M67 E0 Q1
G1 X-0.0039
M67 E0 Q0
G1 X-0.0079
M67 E0 Q1
G1 X-0.0039
M67 E0 Q0
G1 X-0.0079
M67 E0 Q1
G1 X-0.004
M67 E0 Q0
G1 X-0.0118
M67 E0 Q1
G1 X-0.0039
M67 E0 Q0
G1 X-0.0079
M67 E0 Q1
G1 X-0.0039
M67 E0 Q0
G1 X-0.0276
M67 E0 Q1
G1 X-0.0039
M67 E0 Q0
G1 X-0.0315
M67 E0 Q1
G1 X-0.0039
M67 E0 Q0
G1 X-0.063
M67 E0 Q1
G1 X-0.004
M67 E0 Q0
G1 X-0.0078
M67 E0 Q1
G1 X-0.004
M67 E0 Q0
G1 X-0.0275
M67 E0 Q1
G1 X-0.004
M67 E0 Q0
G1 X-0.0078
M67 E0 Q1
G1 X-0.004
M67 E0 Q0
G1 X-0.0079
M67 E0 Q1
G1 X-0.0039
M67 E0 Q0
G1 X-0.0433
M67 E0 Q1
G1 X-0.0039
M67 E0 Q0
G1 X-0.0079
M67 E0 Q1
G1 X-0.004
M67 E0 Q0
G1 X-0.0157
M67 E0 Q1
G1 X-0.0039
M67 E0 Q0
G1 X-0.126
M67 E0 Q1
G1 X-0.004
M67 E0 Q0
G1 X-0.0748
M67 E0 Q1
G1 X-0.0039
M67 E0 Q0
G1 X-0.0157
M67 E0 Q1
G1 X-0.004
M67 E0 Q0
G1 X-0.0433
M67 E0 Q1
G1 X-0.0039
M67 E0 Q0
G1 X-0.0197
M67 E0 Q1
G1 X-0.0039
M67 E0 Q0
G1 X-0.0473
M67 E0 Q1
G1 X-0.0039
M67 E0 Q0
G1 X-0.0985
M67 E0 Q1
G1 X-0.0039
M67 E0 Q0
G1 X-0.0354
M67 E0 Q1
G1 X-0.004
M67 E0 Q0
G1 X-0.0708
M67 E0 Q1
G1 X-0.004
M67 E0 Q0
G1 X-0.0416
G1 X-1.0079Y0.0039
G1 X0.0417
M67 E0 Q1
G1 X0.0039
M67 E0 Q0
G1 X0.9921
M67 E0 Q1
G1 X0.004
M67 E0 Q0
G1 X0.0511
M67 E0 Q1
G1 X0.004
M67 E0 Q0
G1 X0.059
M67 E0 Q1
G1 X0.004
M67 E0 Q0
G1 X0.0472
M67 E0 Q1
G1 X0.004
M67 E0 Q0
G1 X0.0629
M67 E0 Q1
G1 X0.004
M67 E0 Q0
G1 X0.0118
M67 E0 Q1
G1 X0.0039
M67 E0 Q0
G1 X0.0827
M67 E0 Q1
G1 X0.0039
M67 E0 Q0
G1 X0.0512
M67 E0 Q1
G1 X0.004
M67 E0 Q0
G1 X0.0078
M67 E0 Q1
G1 X0.004
M67 E0 Q0
G1 X0.0118
M67 E0 Q1
G1 X0.0039
M67 E0 Q0
G1 X0.0118
M67 E0 Q1
G1 X0.004
M67 E0 Q0
G1 X0.0197
M67 E0 Q1
G1 X0.0039
M67 E0 Q0
G1 X0.0354
M67 E0 Q1
G1 X0.004
M67 E0 Q0
G1 X0.0196
M67 E0 Q1
G1 X0.004
M67 E0 Q0
G1 X0.1693
M67 E0 Q1
G1 X0.0039
M67 E0 Q0
G1 X0.1024
M67 E0 Q1
G1 X0.0039
M67 E0 Q0
G1 X0.0315
M67 E0 Q1
G1 X0.0039
M67 E0 Q0
G1 X0.0906
M67 E0 Q1
G1 X0.0039
M67 E0 Q0
G1 X0.0827
M67 E0 Q1
G1 X0.0039
M67 E0 Q0
G1 X0.0079
M67 E0 Q1
G1 X0.004
M67 E0 Q0
G1 X0.0078
M67 E0 Q1
G1 X0.004
M67 E0 Q0
G1 X0.0354
M67 E0 Q1
G1 X0.0039
M67 E0 Q0
G1 X0.0237
M67 E0 Q1
G1 X0.0039
M67 E0 Q0
G1 X0.0079
M67 E0 Q1
G1 X0.0039
M67 E0 Q0
G1 X0.1811
M67 E0 Q1
G1 X0.0039
M67 E0 Q0
G1 X0.063
M67 E0 Q1
G1 X0.004
M67 E0 Q0
G1 X0.1102
M67 E0 Q1
G1 X0.0039
M67 E0 Q0
G1 X1.0197
M67 E0 Q1
G1 X0.004
M67 E0 Q0
G1 X0.0416
G1 X0.1103Y0.0039
G1 X-0.0417
M67 E0 Q1
G1 X-0.0039
M67 E0 Q0
G1 X-0.0591
M67 E0 Q1
G1 X-0.0039
M67 E0 Q0
G1 X-0.0276
M67 E0 Q1
G1 X-0.0039
M67 E0 Q0
G1 X-0.0236
M67 E0 Q1
G1 X-0.004
M67 E0 Q0
G1 X-0.9252
M67 E0 Q1
G1 X-0.0039
M67 E0 Q0
G1 X-0.2284
M67 E0 Q1
G1 X-0.0039
M67 E0 Q0
G1 X-0.0551
M67 E0 Q1
G1 X-0.0039
M67 E0 Q0
G1 X-0.0473
M67 E0 Q1
G1 X-0.0039
M67 E0 Q0
G1 X-0.0433
M67 E0 Q1
G1 X-0.004
M67 E0 Q0
G1 X-0.0118
M67 E0 Q1
G1 X-0.0039
M67 E0 Q0
G1 X-0.0236
M67 E0 Q1
G1 X-0.004
M67 E0 Q0
G1 X-0.0394
M67 E0 Q1
G1 X-0.0039
M67 E0 Q0
G1 X-0.0315
M67 E0 Q1
G1 X-0.0039
M67 E0 Q0
G1 X-0.1103
M67 E0 Q1
G1 X-0.0039
M67 E0 Q0
G1 X-0.126
M67 E0 Q1
G1 X-0.0039
M67 E0 Q0
G1 X-0.0394
M67 E0 Q1
G1 X-0.0039
M67 E0 Q0
G1 X-0.0079
M67 E0 Q1
G1 X-0.0039
M67 E0 Q0
G1 X-0.0079
M67 E0 Q1
G1 X-0.0039
M67 E0 Q0
G1 X-0.0079
M67 E0 Q1
G1 X-0.004
M67 E0 Q0
G1 X-0.1023
M67 E0 Q1
G1 X-0.004
M67 E0 Q0
G1 X-0.059
M67 E0 Q1
G1 X-0.0039
M67 E0 Q0
G1 X-0.0079
M67 E0 Q1
G1 X-0.004
M67 E0 Q0
G1 X-0.0078
M67 E0 Q1
G1 X-0.004
M67 E0 Q0
G1 X-0.0512
M67 E0 Q1
G1 X-0.0039
M67 E0 Q0
G1 X-0.0079
M67 E0 Q1
G1 X-0.0039
M67 E0 Q0
G1 X-0.0906
M67 E0 Q1
G1 X-0.0039
M67 E0 Q0
G1 X-0.0551
M67 E0 Q1
G1 X-0.0039
M67 E0 Q0
G1 X-0.1024
M67 E0 Q1
G1 X-0.0039
M67 E0 Q0
G1 X-0.0079
M67 E0 Q1
G1 X-0.004
M67 E0 Q0
G1 X-0.059
M67 E0 Q1
G1 X-0.0039
M67 E0 Q0
G1 X-0.0434
M67 E0 Q1
G1 X-0.0039
M67 E0 Q0
G1 X-0.0417
G1 X-1.2086Y0.004
G1 X0.0416
M67 E0 Q1
G1 X0.004
M67 E0 Q0
G1 X0.1496
M67 E0 Q1
G1 X0.0039
M67 E0 Q0
G1 X1.0315
M67 E0 Q1
G1 X0.004
M67 E0 Q0
G1 X0.1693
M67 E0 Q1
G1 X0.0039
M67 E0 Q0
G1 X0.0197
M67 E0 Q1
G1 X0.0039
M67 E0 Q0
G1 X0.0158
M67 E0 Q1
G1 X0.0039
M67 E0 Q0
G1 X0.0157
M67 E0 Q1
G1 X0.004
M67 E0 Q0
G1 X0.0433
M67 E0 Q1
G1 X0.0039
M67 E0 Q0
G1 X0.1496
M67 E0 Q1
G1 X0.004
M67 E0 Q0
G1 X0.0669
M67 E0 Q1
G1 X0.0039
M67 E0 Q0
G1 X0.0079
M67 E0 Q1
G1 X0.0039
M67 E0 Q0
G1 X0.0158
M67 E0 Q1
G1 X0.0039
M67 E0 Q0
G1 X0.0237
M67 E0 Q1
G1 X0.0039
M67 E0 Q0
G1 X0.0079
M67 E0 Q1
G1 X0.0039
M67 E0 Q0
G1 X0.0118
M67 E0 Q1
G1 X0.004
M67 E0 Q0
G1 X0.0118
M67 E0 Q1
G1 X0.0039
M67 E0 Q0
G1 X0.0197
M67 E0 Q1
G1 X0.0039
M67 E0 Q0
G1 X0.0118
M67 E0 Q1
G1 X0.004
M67 E0 Q0
G1 X0.0551
M67 E0 Q1
G1 X0.0039
M67 E0 Q0
G1 X0.0394
M67 E0 Q1
G1 X0.0039
M67 E0 Q0
G1 X0.0197
M67 E0 Q1
G1 X0.004
M67 E0 Q0
G1 X0.0118
M67 E0 Q1
G1 X0.0039
M67 E0 Q0
G1 X0.0079
M67 E0 Q1
G1 X0.0039
M67 E0 Q0
G1 X0.0079
M67 E0 Q1
G1 X0.0039
M67 E0 Q0
G1 X0.0118
M67 E0 Q1
G1 X0.004
M67 E0 Q0
G1 X0.0118
M67 E0 Q1
G1 X0.0039
M67 E0 Q0
G1 X0.0315
M67 E0 Q1
G1 X0.004
M67 E0 Q0
G1 X0.0078
M67 E0 Q1
G1 X0.004
M67 E0 Q0
G1 X0.0118
M67 E0 Q1
G1 X0.0039
M67 E0 Q0
G1 X0.0079
M67 E0 Q1
G1 X0.0039
M67 E0 Q0
G1 X0.0079
M67 E0 Q1
G1 X0.0039
M67 E0 Q0
G1 X0.1378
M67 E0 Q1
G1 X0.004
M67 E0 Q0
G1 X0.0433
M67 E0 Q1
G1 X0.0039
M67 E0 Q0
G1 X0.0079
M67 E0 Q1
G1 X0.0039
M67 E0 Q0
G1 X0.0276
M67 E0 Q1
G1 X0.0039
M67 E0 Q0
G1 X0.0079
M67 E0 Q1
G1 X0.0039
M67 E0 Q0
G1 X0.067
M67 E0 Q1
G1 X0.0039
M67 E0 Q0
G1 X0.1142
M67 E0 Q1
G1 X0.0039
M67 E0 Q0
G1 X0.0158
M67 E0 Q1
G1 X0.0039
M67 E0 Q0
G1 X1.185
M67 E0 Q1
G1 X0.004
M67 E0 Q0
G1 X0.0416
G1 X-1.0984Y0.0039
G1 X-0.0417
M67 E0 Q1
G1 X-0.0039
M67 E0 Q0
G1 X-0.0079
M67 E0 Q1
G1 X-0.0039
M67 E0 Q0
G1 X-0.0354
M67 E0 Q1
G1 X-0.004
M67 E0 Q0
G1 X-0.0866
M67 E0 Q1
G1 X-0.0039
M67 E0 Q0
G1 X-0.0158
M67 E0 Q1
G1 X-0.0039
M67 E0 Q0
G1 X-0.0866
M67 E0 Q1
G1 X-0.004
M67 E0 Q0
G1 X-0.0275
M67 E0 Q1
G1 X-0.004
M67 E0 Q0
G1 X-0.1378
M67 E0 Q1
G1 X-0.0039
M67 E0 Q0
G1 X-0.0157
M67 E0 Q1
G1 X-0.004
M67 E0 Q0
G1 X-0.0315
M67 E0 Q1
G1 X-0.0039
M67 E0 Q0
G1 X-0.0236
M67 E0 Q1
G1 X-0.004
M67 E0 Q0
G1 X-0.2008
M67 E0 Q1
G1 X-0.0039
M67 E0 Q0
G1 X-0.0394
M67 E0 Q1
G1 X-0.0039
M67 E0 Q0
G1 X-0.0945
M67 E0 Q1
G1 X-0.0039
M67 E0 Q0
G1 X-0.1654
M67 E0 Q1
G1 X-0.0039
M67 E0 Q0
G1 X-0.0551
M67 E0 Q1
G1 X-0.004
M67 E0 Q0
G1 X-0.0118
M67 E0 Q1
G1 X-0.0039
M67 E0 Q0
G1 X-0.0079
M67 E0 Q1
G1 X-0.0039
M67 E0 Q0
G1 X-0.0118
M67 E0 Q1
G1 X-0.004
M67 E0 Q0
G1 X-0.0118
M67 E0 Q1
G1 X-0.0039
M67 E0 Q0
G1 X-0.0355
M67 E0 Q1
G1 X-0.0039
M67 E0 Q0
G1 X-0.0197
M67 E0 Q1
G1 X-0.0039
M67 E0 Q0
G1 X-0.1496
M67 E0 Q1
G1 X-0.004
M67 E0 Q0
G1 X-0.0275
M67 E0 Q1
G1 X-0.004
M67 E0 Q0
G1 X-0.0275
M67 E0 Q1
G1 X-0.004
M67 E0 Q0
G1 X-0.0905
M67 E0 Q1
G1 X-0.0039
M67 E0 Q0
G1 X-0.9056
M67 E0 Q1
G1 X-0.0039
M67 E0 Q0
G1 X-0.0709
M67 E0 Q1
G1 X-0.0039
M67 E0 Q0
G1 X-0.0417
G1 X-0.2559Y0.004
G1 X0.0417
M67 E0 Q1
G1 X0.0039
M67 E0 Q0
G1 X0.0237
M67 E0 Q1
G1 X0.0039
M67 E0 Q0
G1 X0.2362
M67 E0 Q1
G1 X0.004
M67 E0 Q0
G1 X0.0078
M67 E0 Q1
G1 X0.004
M67 E0 Q0
G1 X0.0078
M67 E0 Q1
G1 X0.004
M67 E0 Q0
G1 X0.8897
M67 E0 Q1
G1 X0.004
M67 E0 Q0
G1 X0.1181
M67 E0 Q1
G1 X0.0039
M67 E0 Q0
G1 X0.0748
M67 E0 Q1
G1 X0.004
M67 E0 Q0
G1 X0.0354
M67 E0 Q1
G1 X0.0039
M67 E0 Q0
G1 X0.1063
M67 E0 Q1
G1 X0.004
M67 E0 Q0
G1 X0.0551
M67 E0 Q1
G1 X0.0039
M67 E0 Q0
G1 X0.0984
M67 E0 Q1
G1 X0.004
M67 E0 Q0
G1 X0.0079
M67 E0 Q1
G1 X0.0039
M67 E0 Q0
G1 X0.0315
M67 E0 Q1
G1 X0.0039
M67 E0 Q0
G1 X0.0158
M67 E0 Q1
G1 X0.0039
M67 E0 Q0
G1 X0.0118
M67 E0 Q1
G1 X0.004
M67 E0 Q0
G1 X0.0236
M67 E0 Q1
G1 X0.0039
M67 E0 Q0
G1 X0.0197
M67 E0 Q1
G1 X0.0039
M67 E0 Q0
G1 X0.1063
M67 E0 Q1
G1 X0.004
M67 E0 Q0
G1 X0.0118
M67 E0 Q1
G1 X0.0039
M67 E0 Q0
G1 X0.0118
M67 E0 Q1
G1 X0.004
M67 E0 Q0
G1 X0.0354
M67 E0 Q1
G1 X0.0039
M67 E0 Q0
G1 X0.1221
M67 E0 Q1
G1 X0.0039
M67 E0 Q0
G1 X0.0079
M67 E0 Q1
G1 X0.0039
M67 E0 Q0
G1 X0.0709
M67 E0 Q1
G1 X0.0039
M67 E0 Q0
G1 X0.0079
M67 E0 Q1
G1 X0.004
M67 E0 Q0
G1 X0.0196
M67 E0 Q1
G1 X0.004
M67 E0 Q0
G1 X0.0236
M67 E0 Q1
G1 X0.0039
M67 E0 Q0
G1 X0.0079
M67 E0 Q1
G1 X0.0039
M67 E0 Q0
G1 X0.067
M67 E0 Q1
G1 X0.0039
M67 E0 Q0
G1 X0.0118
M67 E0 Q1
G1 X0.004
M67 E0 Q0
G1 X0.0354
M67 E0 Q1
G1 X0.0039
M67 E0 Q0
G1 X0.0552
M67 E0 Q1
G1 X0.0039
M67 E0 Q0
G1 X0.0512
M67 E0 Q1
G1 X0.0039
M67 E0 Q0
G1 X0.1732
M67 E0 Q1
G1 X0.004
M67 E0 Q0
G1 X0.0078
M67 E0 Q1
G1 X0.004
M67 E0 Q0
G1 X0.0551
M67 E0 Q1
G1 X0.0039
M67 E0 Q0
G1 X0.0417
G1 X1.0512Y0.0039
G1 X-0.0417
M67 E0 Q1
G1 X-0.0039
M67 E0 Q0
G1 X-0.0355
M67 E0 Q1
G1 X-0.0039
M67 E0 Q0
G1 X-1.1063
M67 E0 Q1
G1 X-0.0039
M67 E0 Q0
G1 X-0.0158
M67 E0 Q1
G1 X-0.0039
M67 E0 Q0
G1 X-0.0906
M67 E0 Q1
G1 X-0.0039
M67 E0 Q0
G1 X-0.0118
M67 E0 Q1
G1 X-0.0039
M67 E0 Q0
G1 X-0.0394
M67 E0 Q1
G1 X-0.004
M67 E0 Q0
G1 X-0.0393
M67 E0 Q1
G1 X-0.004
M67 E0 Q0
G1 X-0.0196
M67 E0 Q1
G1 X-0.004
M67 E0 Q0
G1 X-0.0079
M67 E0 Q1
G1 X-0.0039
M67 E0 Q0
G1 X-0.0315
M67 E0 Q1
G1 X-0.0039
M67 E0 Q0
G1 X-0.0394
M67 E0 Q1
G1 X-0.0039
M67 E0 Q0
G1 X-0.0118
M67 E0 Q1
G1 X-0.004
M67 E0 Q0
G1 X-0.0157
M67 E0 Q1
G1 X-0.004
M67 E0 Q0
G1 X-0.1181
M67 E0 Q1
G1 X-0.0039
M67 E0 Q0
G1 X-0.0118
M67 E0 Q1
G1 X-0.004
M67 E0 Q0
G1 X-0.0078
M67 E0 Q1
G1 X-0.004
M67 E0 Q0
G1 X-0.0078
M67 E0 Q1
G1 X-0.004
M67 E0 Q0
G1 X-0.0394
M67 E0 Q1
G1 X-0.0039
M67 E0 Q0
G1 X-0.0079
M67 E0 Q1
G1 X-0.0039
M67 E0 Q0
G1 X-0.0079
M67 E0 Q1
G1 X-0.0039
M67 E0 Q0
G1 X-0.0118
M67 E0 Q1
G1 X-0.004
M67 E0 Q0
G1 X-0.0078
M67 E0 Q1
G1 X-0.004
M67 E0 Q0
G1 X-0.0078
M67 E0 Q1
G1 X-0.004
M67 E0 Q0
G1 X-0.0275
M67 E0 Q1
G1 X-0.004
M67 E0 Q0
G1 X-0.0354
M67 E0 Q1
G1 X-0.0039
M67 E0 Q0
G1 X-0.0552
M67 E0 Q1
G1 X-0.0039
M67 E0 Q0
G1 X-0.0079
M67 E0 Q1
G1 X-0.0039
M67 E0 Q0
G1 X-0.0197
M67 E0 Q1
G1 X-0.0039
M67 E0 Q0
G1 X-0.0079
M67 E0 Q1
G1 X-0.0039
M67 E0 Q0
G1 X-0.0079
M67 E0 Q1
G1 X-0.004
M67 E0 Q0
G1 X-0.0078
M67 E0 Q1
G1 X-0.004
M67 E0 Q0
G1 X-0.0078
M67 E0 Q1
G1 X-0.004
M67 E0 Q0
G1 X-0.0197
M67 E0 Q1
G1 X-0.0039
M67 E0 Q0
G1 X-0.0197
M67 E0 Q1
G1 X-0.0039
M67 E0 Q0
G1 X-0.0709
M67 E0 Q1
G1 X-0.0039
M67 E0 Q0
G1 X-0.0315
M67 E0 Q1
G1 X-0.004
M67 E0 Q0
G1 X-0.0748
M67 E0 Q1
G1 X-0.0039
M67 E0 Q0
G1 X-0.0787
M67 E0 Q1
G1 X-0.004
M67 E0 Q0
G1 X-0.0157
M67 E0 Q1
G1 X-0.004
M67 E0 Q0
G1 X-0.0118
M67 E0 Q1
G1 X-0.0039
M67 E0 Q0
G1 X-0.0158
M67 E0 Q1
G1 X-0.0039
M67 E0 Q0
G1 X-0.0079
M67 E0 Q1
G1 X-0.0039
M67 E0 Q0
G1 X-0.0417
G1 X-1.2401Y0.0039
G1 X0.0416
M67 E0 Q1
G1 X0.004
M67 E0 Q0
G1 X0.0905
M67 E0 Q1
G1 X0.004
M67 E0 Q0
G1 X0.8543
M67 E0 Q1
G1 X0.0039
M67 E0 Q0
G1 X0.0551
M67 E0 Q1
G1 X0.004
M67 E0 Q0
G1 X0.0275
M67 E0 Q1
G1 X0.004
M67 E0 Q0
G1 X0.0551
M67 E0 Q1
G1 X0.0039
M67 E0 Q0
G1 X0.0315
M67 E0 Q1
G1 X0.004
M67 E0 Q0
G1 X0.0078
M67 E0 Q1
G1 X0.004
M67 E0 Q0
G1 X0.0197
M67 E0 Q1
G1 X0.0039
M67 E0 Q0
G1 X0.0079
M67 E0 Q1
G1 X0.0039
M67 E0 Q0
G1 X0.0276
M67 E0 Q1
G1 X0.0039
M67 E0 Q0
G1 X0.0079
M67 E0 Q1
G1 X0.0039
M67 E0 Q0
G1 X0.1024
M67 E0 Q1
G1 X0.0039
M67 E0 Q0
G1 X0.0118
M67 E0 Q1
G1 X0.004
M67 E0 Q0
G1 X0.0078
M67 E0 Q1
G1 X0.004
M67 E0 Q0
G1 X0.0393
M67 E0 Q1
G1 X0.004
M67 E0 Q0
G1 X0.0079
M67 E0 Q1
G1 X0.0039
M67 E0 Q0
G1 X0.0118
M67 E0 Q1
G1 X0.0039
M67 E0 Q0
G1 X0.0119
M67 E0 Q1
G1 X0.0039
M67 E0 Q0
G1 X0.063
M67 E0 Q1
G1 X0.0039
M67 E0 Q0
G1 X0.0158
M67 E0 Q1
G1 X0.0039
M67 E0 Q0
G1 X0.1457
M67 E0 Q1
G1 X0.0039
M67 E0 Q0
G1 X0.0473
M67 E0 Q1
G1 X0.0039
M67 E0 Q0
G1 X0.0394
M67 E0 Q1
G1 X0.0039
M67 E0 Q0
G1 X0.0079
M67 E0 Q1
G1 X0.0039
M67 E0 Q0
G1 X0.0236
M67 E0 Q1
G1 X0.004
M67 E0 Q0
G1 X0.0905
M67 E0 Q1
G1 X0.004
M67 E0 Q0
G1 X0.0787
M67 E0 Q1
G1 X0.0039
M67 E0 Q0
G1 X0.0552
M67 E0 Q1
G1 X0.0039
M67 E0 Q0
G1 X0.2244
M67 E0 Q1
G1 X0.0039
M67 E0 Q0
G1 X0.13
M67 E0 Q1
G1 X0.0039
M67 E0 Q0
G1 X0.1614
M67 E0 Q1
G1 X0.0039
M67 E0 Q0
G1 X0.9213
M67 E0 Q1
G1 X0.0039
M67 E0 Q0
G1 X0.0276
M67 E0 Q1
G1 X0.0039
M67 E0 Q0
G1 X0.1103
M67 E0 Q1
G1 X0.0039
M67 E0 Q0
G1 X0.0417
G1 X-0.0984Y0.004
G1 X-0.0417
M67 E0 Q1
G1 X-0.0039
M67 E0 Q0
G1 X-1
M67 E0 Q1
G1 X-0.004
M67 E0 Q0
G1 X-0.0945
M67 E0 Q1
G1 X-0.0039
M67 E0 Q0
G1 X-0.126
M67 E0 Q1
G1 X-0.0039
M67 E0 Q0
G1 X-0.0079
M67 E0 Q1
G1 X-0.0039
M67 E0 Q0
G1 X-0.0552
M67 E0 Q1
G1 X-0.0039
M67 E0 Q0
G1 X-0.0118
M67 E0 Q1
G1 X-0.0039
M67 E0 Q0
G1 X-0.0237
M67 E0 Q1
G1 X-0.0039
M67 E0 Q0
G1 X-0.0079
M67 E0 Q1
G1 X-0.0039
M67 E0 Q0
G1 X-0.0197
M67 E0 Q1
G1 X-0.0039
M67 E0 Q0
G1 X-0.0118
M67 E0 Q1
G1 X-0.004
M67 E0 Q0
G1 X-0.059
M67 E0 Q1
G1 X-0.004
M67 E0 Q0
G1 X-0.0079
M67 E0 Q1
G1 X-0.0039
M67 E0 Q0
G1 X-0.0118
M67 E0 Q1
G1 X-0.0039
M67 E0 Q0
G1 X-0.0197
M67 E0 Q1
G1 X-0.004
M67 E0 Q0
G1 X-0.0078
M67 E0 Q1
G1 X-0.004
M67 E0 Q0
G1 X-0.0078
M67 E0 Q1
G1 X-0.004
M67 E0 Q0
G1 X-0.0079
M67 E0 Q1
G1 X-0.0039
M67 E0 Q0
G1 X-0.0787
M67 E0 Q1
G1 X-0.004
M67 E0 Q0
G1 X-0.0945
M67 E0 Q1
G1 X-0.0039
M67 E0 Q0
G1 X-0.063
M67 E0 Q1
G1 X-0.0039
M67 E0 Q0
G1 X-0.0079
M67 E0 Q1
G1 X-0.0039
M67 E0 Q0
G1 X-0.0158
M67 E0 Q1
G1 X-0.0039
M67 E0 Q0
G1 X-0.0079
M67 E0 Q1
G1 X-0.0039
M67 E0 Q0
G1 X-0.0985
M67 E0 Q1
G1 X-0.0039
M67 E0 Q0
G1 X-0.0197
M67 E0 Q1
G1 X-0.0039
M67 E0 Q0
G1 X-0.0158
M67 E0 Q1
G1 X-0.0039
M67 E0 Q0
G1 X-0.0079
M67 E0 Q1
G1 X-0.0039
M67 E0 Q0
G1 X-0.0079
M67 E0 Q1
G1 X-0.0039
M67 E0 Q0
G1 X-0.0591
M67 E0 Q1
G1 X-0.0039
M67 E0 Q0
G1 X-0.0197
M67 E0 Q1
G1 X-0.0039
M67 E0 Q0
G1 X-0.0827
M67 E0 Q1
G1 X-0.004
M67 E0 Q0
G1 X-0.0708
M67 E0 Q1
G1 X-0.004
M67 E0 Q0
G1 X-0.0984
M67 E0 Q1
G1 X-0.0039
M67 E0 Q0
G1 X-0.0315
M67 E0 Q1
G1 X-0.0039
M67 E0 Q0
G1 X-0.0827
M67 E0 Q1
G1 X-0.004
M67 E0 Q0
G1 X-0.0118
M67 E0 Q1
G1 X-0.0039
M67 E0 Q0
G1 X-0.063
M67 E0 Q1
G1 X-0.0039
M67 E0 Q0
G1 X-0.8583
M67 E0 Q1
G1 X-0.0039
M67 E0 Q0
G1 X-0.3229
M67 E0 Q1
G1 X-0.0039
M67 E0 Q0
G1 X-0.0417
G1 X0.0669Y0.0039
G1 X0.0417
M67 E0 Q1
G1 X0.0039
M67 E0 Q0
G1 X1.0591
M67 E0 Q1
G1 X0.0039
M67 E0 Q0
G1 X0.1733
M67 E0 Q1
G1 X0.0039
M67 E0 Q0
G1 X0.0079
M67 E0 Q1
G1 X0.0039
M67 E0 Q0
G1 X0.0079
M67 E0 Q1
G1 X0.0039
M67 E0 Q0
G1 X0.1103
M67 E0 Q1
G1 X0.0039
M67 E0 Q0
G1 X0.0079
M67 E0 Q1
G1 X0.0039
M67 E0 Q0
G1 X0.0118
M67 E0 Q1
G1 X0.004
M67 E0 Q0
G1 X0.0393
M67 E0 Q1
G1 X0.004
M67 E0 Q0
G1 X0.0669
M67 E0 Q1
G1 X0.0039
M67 E0 Q0
G1 X0.0788
M67 E0 Q1
G1 X0.0039
M67 E0 Q0
G1 X0.0197
M67 E0 Q1
G1 X0.0039
M67 E0 Q0
G1 X0.0276
M67 E0 Q1
G1 X0.0039
M67 E0 Q0
G1 X0.0709
M67 E0 Q1
G1 X0.0039
M67 E0 Q0
G1 X0.0197
M67 E0 Q1
G1 X0.004
M67 E0 Q0
G1 X0.0118
M67 E0 Q1
G1 X0.0039
M67 E0 Q0
G1 X0.0079
M67 E0 Q1
G1 X0.0039
M67 E0 Q0
G1 X0.0079
M67 E0 Q1
G1 X0.0039
M67 E0 Q0
G1 X0.0079
M67 E0 Q1
G1 X0.0039
M67 E0 Q0
G1 X0.0158
M67 E0 Q1
G1 X0.0039
M67 E0 Q0
G1 X0.0709
M67 E0 Q1
G1 X0.0039
M67 E0 Q0
G1 X0.0236
M67 E0 Q1
G1 X0.004
M67 E0 Q0
G1 X0.0079
M67 E0 Q1
G1 X0.0039
M67 E0 Q0
G1 X0.0236
M67 E0 Q1
G1 X0.004
M67 E0 Q0
G1 X0.0078
M67 E0 Q1
G1 X0.004
M67 E0 Q0
G1 X0.0078
M67 E0 Q1
G1 X0.004
M67 E0 Q0
G1 X0.0078
M67 E0 Q1
G1 X0.004
M67 E0 Q0
G1 X0.0079
M67 E0 Q1
G1 X0.0039
M67 E0 Q0
G1 X0.0079
M67 E0 Q1
G1 X0.0039
M67 E0 Q0
G1 X0.0354
M67 E0 Q1
G1 X0.004
M67 E0 Q0
G1 X0.0079
M67 E0 Q1
G1 X0.0039
M67 E0 Q0
G1 X0.0079
M67 E0 Q1
G1 X0.0039
M67 E0 Q0
G1 X0.0079
M67 E0 Q1
G1 X0.0039
M67 E0 Q0
G1 X0.0079
M67 E0 Q1
G1 X0.0039
M67 E0 Q0
G1 X0.1221
M67 E0 Q1
G1 X0.0039
M67 E0 Q0
G1 X0.0079
M67 E0 Q1
G1 X0.0039
M67 E0 Q0
G1 X0.0079
M67 E0 Q1
G1 X0.0039
M67 E0 Q0
G1 X0.1339
M67 E0 Q1
G1 X0.0039
M67 E0 Q0
G1 X0.1024
M67 E0 Q1
G1 X0.0039
M67 E0 Q0
G1 X0.0118
M67 E0 Q1
G1 X0.004
M67 E0 Q0
G1 X0.0433
M67 E0 Q1
G1 X0.0039
M67 E0 Q0
G1 X0.0827
M67 E0 Q1
G1 X0.0039
M67 E0 Q0
G1 X0.0748
M67 E0 Q1
G1 X0.004
M67 E0 Q0
G1 X0.9724
M67 E0 Q1
G1 X0.0039
M67 E0 Q0
G1 X0.0417
G1 X0.0512Y0.0039
G1 X-0.0417
M67 E0 Q1
G1 X-0.0039
M67 E0 Q0
G1 X-1.0669
M67 E0 Q1
G1 X-0.004
M67 E0 Q0
G1 X-0.0669
M67 E0 Q1
G1 X-0.0039
M67 E0 Q0
G1 X-0.1221
M67 E0 Q1
G1 X-0.0039
M67 E0 Q0
G1 X-0.0236
M67 E0 Q1
G1 X-0.004
M67 E0 Q0
G1 X-0.0394
M67 E0 Q1
G1 X-0.0039
M67 E0 Q0
G1 X-0.059
M67 E0 Q1
G1 X-0.004
M67 E0 Q0
G1 X-0.0079
M67 E0 Q1
G1 X-0.0039
M67 E0 Q0
G1 X-0.0315
M67 E0 Q1
G1 X-0.0039
M67 E0 Q0
G1 X-0.0355
M67 E0 Q1
G1 X-0.0039
M67 E0 Q0
G1 X-0.0866
M67 E0 Q1
G1 X-0.0039
M67 E0 Q0
G1 X-0.0552
M67 E0 Q1
G1 X-0.0039
M67 E0 Q0
G1 X-0.0827
M67 E0 Q1
G1 X-0.0039
M67 E0 Q0
G1 X-0.1221
M67 E0 Q1
G1 X-0.0039
M67 E0 Q0
G1 X-0.0709
M67 E0 Q1
G1 X-0.0039
M67 E0 Q0
G1 X-0.126
M67 E0 Q1
G1 X-0.0039
M67 E0 Q0
G1 X-0.067
M67 E0 Q1
G1 X-0.0039
M67 E0 Q0
G1 X-0.0512
M67 E0 Q1
G1 X-0.0039
M67 E0 Q0
G1 X-0.0079
M67 E0 Q1
G1 X-0.0039
M67 E0 Q0
G1 X-0.0079
M67 E0 Q1
G1 X-0.0039
M67 E0 Q0
G1 X-0.0079
M67 E0 Q1
G1 X-0.0039
M67 E0 Q0
G1 X-0.0119
M67 E0 Q1
G1 X-0.0039
M67 E0 Q0
G1 X-0.0354
M67 E0 Q1
G1 X-0.004
M67 E0 Q0
G1 X-0.0157
M67 E0 Q1
G1 X-0.0039
M67 E0 Q0
G1 X-0.0079
M67 E0 Q1
G1 X-0.004
M67 E0 Q0
G1 X-0.0393
M67 E0 Q1
G1 X-0.004
M67 E0 Q0
G1 X-0.063
M67 E0 Q1
G1 X-0.0039
M67 E0 Q0
G1 X-0.0079
M67 E0 Q1
G1 X-0.0039
M67 E0 Q0
G1 X-0.1142
M67 E0 Q1
G1 X-0.0039
M67 E0 Q0
G1 X-0.0551
M67 E0 Q1
G1 X-0.004
M67 E0 Q0
G1 X-0.1063
M67 E0 Q1
G1 X-0.0039
M67 E0 Q0
G1 X-0.0417
G1 X-1.1417Y0.004
G1 X0.0417
M67 E0 Q1
G1 X0.0039
M67 E0 Q0
G1 X1.1929
M67 E0 Q1
G1 X0.0039
M67 E0 Q0
G1 X0.1615
M67 E0 Q1
G1 X0.0039
M67 E0 Q0
G1 X0.0079
M67 E0 Q1
G1 X0.0039
M67 E0 Q0
G1 X0.0079
M67 E0 Q1
G1 X0.0039
M67 E0 Q0
G1 X0.0197
M67 E0 Q1
G1 X0.0039
M67 E0 Q0
G1 X0.0079
M67 E0 Q1
G1 X0.004
M67 E0 Q0
G1 X0.0393
M67 E0 Q1
G1 X0.004
M67 E0 Q0
G1 X0.0551
M67 E0 Q1
G1 X0.0039
M67 E0 Q0
G1 X0.0709
M67 E0 Q1
G1 X0.0039
M67 E0 Q0
G1 X0.1378
M67 E0 Q1
G1 X0.004
M67 E0 Q0
G1 X0.0157
M67 E0 Q1
G1 X0.0039
M67 E0 Q0
G1 X0.0079
M67 E0 Q1
G1 X0.004
M67 E0 Q0
G1 X0.0078
M67 E0 Q1
G1 X0.004
M67 E0 Q0
G1 X0.0236
M67 E0 Q1
G1 X0.0039
M67 E0 Q0
G1 X0.0197
M67 E0 Q1
G1 X0.0039
M67 E0 Q0
G1 X0.0197
M67 E0 Q1
G1 X0.004
M67 E0 Q0
G1 X0.0433
M67 E0 Q1
G1 X0.0039
M67 E0 Q0
G1 X0.0315
M67 E0 Q1
G1 X0.0039
M67 E0 Q0
G1 X0.0079
M67 E0 Q1
G1 X0.004
M67 E0 Q0
G1 X0.0078
M67 E0 Q1
G1 X0.004
M67 E0 Q0
G1 X0.0078
M67 E0 Q1
G1 X0.004
M67 E0 Q0
G1 X0.059
M67 E0 Q1
G1 X0.004
M67 E0 Q0
G1 X0.0078
M67 E0 Q1
G1 X0.004
M67 E0 Q0
G1 X0.0827
M67 E0 Q1
G1 X0.0039
M67 E0 Q0
G1 X0.0079
M67 E0 Q1
G1 X0.0039
M67 E0 Q0
G1 X0.0748
M67 E0 Q1
G1 X0.0039
M67 E0 Q0
G1 X0.0119
M67 E0 Q1
G1 X0.0039
M67 E0 Q0
G1 X0.0079
M67 E0 Q1
G1 X0.0039
M67 E0 Q0
G1 X0.0276
M67 E0 Q1
G1 X0.0039
M67 E0 Q0
G1 X0.0079
M67 E0 Q1
G1 X0.0039
M67 E0 Q0
G1 X0.0118
M67 E0 Q1
G1 X0.004
M67 E0 Q0
G1 X0.059
M67 E0 Q1
G1 X0.004
M67 E0 Q0
G1 X0.0078
M67 E0 Q1
G1 X0.004
M67 E0 Q0
G1 X0.0275
M67 E0 Q1
G1 X0.004
M67 E0 Q0
G1 X0.0472
M67 E0 Q1
G1 X0.0039
M67 E0 Q0
G1 X0.0079
M67 E0 Q1
G1 X0.004
M67 E0 Q0
G1 X0.0157
M67 E0 Q1
G1 X0.0039
M67 E0 Q0
G1 X0.0355
M67 E0 Q1
G1 X0.0039
M67 E0 Q0
G1 X0.0276
M67 E0 Q1
G1 X0.0039
M67 E0 Q0
G1 X0.0512
M67 E0 Q1
G1 X0.0039
M67 E0 Q0
G1 X0.0591
M67 E0 Q1
G1 X0.0039
M67 E0 Q0
G1 X0.0394
M67 E0 Q1
G1 X0.0039
M67 E0 Q0
G1 X0.0669
M67 E0 Q1
G1 X0.004
M67 E0 Q0
G1 X0.0354
M67 E0 Q1
G1 X0.004
M67 E0 Q0
G1 X0.8937
M67 E0 Q1
G1 X0.0039
M67 E0 Q0
G1 X0.0787
M67 E0 Q1
G1 X0.004
M67 E0 Q0
G1 X0.059
M67 E0 Q1
G1 X0.004
M67 E0 Q0
G1 X0.0416
G1 X-1.2204Y0.0039
G1 X-0.0417
M67 E0 Q1
G1 X-0.0039
M67 E0 Q0
G1 X-0.0119
M67 E0 Q1
G1 X-0.0039
M67 E0 Q0
G1 X-0.122
M67 E0 Q1
G1 X-0.004
M67 E0 Q0
G1 X-0.1693
M67 E0 Q1
G1 X-0.0039
M67 E0 Q0
G1 X-0.0118
M67 E0 Q1
G1 X-0.004
M67 E0 Q0
G1 X-0.0078
M67 E0 Q1
G1 X-0.004
M67 E0 Q0
G1 X-0.0551
M67 E0 Q1
G1 X-0.0039
M67 E0 Q0
G1 X-0.0551
M67 E0 Q1
G1 X-0.004
M67 E0 Q0
G1 X-0.0079
M67 E0 Q1
G1 X-0.0039
M67 E0 Q0
G1 X-0.0079
M67 E0 Q1
G1 X-0.0039
M67 E0 Q0
G1 X-0.0079
M67 E0 Q1
G1 X-0.0039
M67 E0 Q0
G1 X-0.0079
M67 E0 Q1
G1 X-0.0039
M67 E0 Q0
G1 X-0.0355
M67 E0 Q1
G1 X-0.0039
M67 E0 Q0
G1 X-0.0079
M67 E0 Q1
G1 X-0.0039
M67 E0 Q0
G1 X-0.0079
M67 E0 Q1
G1 X-0.0039
M67 E0 Q0
G1 X-0.0079
M67 E0 Q1
G1 X-0.0039
M67 E0 Q0
G1 X-0.0079
M67 E0 Q1
G1 X-0.0039
M67 E0 Q0
G1 X-0.0079
M67 E0 Q1
G1 X-0.0039
M67 E0 Q0
G1 X-0.0355
M67 E0 Q1
G1 X-0.0039
M67 E0 Q0
G1 X-0.0079
M67 E0 Q1
G1 X-0.0039
M67 E0 Q0
G1 X-0.0197
M67 E0 Q1
G1 X-0.0039
M67 E0 Q0
G1 X-0.067
M67 E0 Q1
G1 X-0.0039
M67 E0 Q0
G1 X-0.0197
M67 E0 Q1
G1 X-0.0039
M67 E0 Q0
G1 X-0.0079
M67 E0 Q1
G1 X-0.0039
M67 E0 Q0
G1 X-0.0079
M67 E0 Q1
G1 X-0.004
M67 E0 Q0
G1 X-0.0196
M67 E0 Q1
G1 X-0.004
M67 E0 Q0
G1 X-0.0197
M67 E0 Q1
G1 X-0.0039
M67 E0 Q0
G1 X-0.0984
M67 E0 Q1
G1 X-0.004
M67 E0 Q0
G1 X-0.0078
M67 E0 Q1
G1 X-0.004
M67 E0 Q0
G1 X-0.0079
M67 E0 Q1
G1 X-0.0039
M67 E0 Q0
G1 X-0.0079
M67 E0 Q1
G1 X-0.0039
M67 E0 Q0
G1 X-0.0709
M67 E0 Q1
G1 X-0.0039
M67 E0 Q0
G1 X-0.0354
M67 E0 Q1
G1 X-0.004
M67 E0 Q0
G1 X-0.0315
M67 E0 Q1
G1 X-0.0039
M67 E0 Q0
G1 X-0.0433
M67 E0 Q1
G1 X-0.0039
M67 E0 Q0
G1 X-0.0079
M67 E0 Q1
G1 X-0.004
M67 E0 Q0
G1 X-0.0748
M67 E0 Q1
G1 X-0.0039
M67 E0 Q0
G1 X-0.0433
M67 E0 Q1
G1 X-0.0039
M67 E0 Q0
G1 X-0.0512
M67 E0 Q1
G1 X-0.004
M67 E0 Q0
G1 X-0.0196
M67 E0 Q1
G1 X-0.004
M67 E0 Q0
G1 X-0.0354
M67 E0 Q1
G1 X-0.004
M67 E0 Q0
G1 X-0.1102
M67 E0 Q1
G1 X-0.0039
M67 E0 Q0
G1 X-0.7796
M67 E0 Q1
G1 X-0.0039
M67 E0 Q0
G1 X-0.1142
M67 E0 Q1
G1 X-0.0039
M67 E0 Q0
G1 X-0.0417
G1 X0.9646Y0.004
G1 X0.0417
M67 E0 Q1
G1 X0.0039
M67 E0 Q0
G1 X0.0315
M67 E0 Q1
G1 X0.0039
M67 E0 Q0
G1 X0.1024
M67 E0 Q1
G1 X0.0039
M67 E0 Q0
G1 X0.0118
M67 E0 Q1
G1 X0.004
M67 E0 Q0
G1 X0.1102
M67 E0 Q1
G1 X0.004
M67 E0 Q0
G1 X0.0393
M67 E0 Q1
G1 X0.004
M67 E0 Q0
G1 X0.0118
M67 E0 Q1
G1 X0.0039
M67 E0 Q0
G1 X0.0315
M67 E0 Q1
G1 X0.0039
M67 E0 Q0
G1 X0.0315
M67 E0 Q1
G1 X0.004
M67 E0 Q0
G1 X0.0393
M67 E0 Q1
G1 X0.004
M67 E0 Q0
G1 X0.0079
M67 E0 Q1
G1 X0.0039
M67 E0 Q0
G1 X0.0079
M67 E0 Q1
G1 X0.0039
M67 E0 Q0
G1 X0.0079
M67 E0 Q1
G1 X0.0039
M67 E0 Q0
G1 X0.0079
M67 E0 Q1
G1 X0.0039
M67 E0 Q0
G1 X0.0709
M67 E0 Q1
G1 X0.0039
M67 E0 Q0
G1 X0.0394
M67 E0 Q1
G1 X0.0039
M67 E0 Q0
G1 X0.0079
M67 E0 Q1
G1 X0.0039
M67 E0 Q0
G1 X0.1221
M67 E0 Q1
G1 X0.0039
M67 E0 Q0
G1 X0.063
M67 E0 Q1
G1 X0.004
M67 E0 Q0
G1 X0.0354
M67 E0 Q1
G1 X0.0039
M67 E0 Q0
G1 X0.2008
M67 E0 Q1
G1 X0.004
M67 E0 Q0
G1 X0.0669
M67 E0 Q1
G1 X0.0039
M67 E0 Q0
G1 X0.0512
M67 E0 Q1
G1 X0.0039
M67 E0 Q0
G1 X0.0315
M67 E0 Q1
G1 X0.004
M67 E0 Q0
G1 X0.0078
M67 E0 Q1
G1 X0.004
M67 E0 Q0
G1 X0.0157
M67 E0 Q1
G1 X0.004
M67 E0 Q0
G1 X0.0118
M67 E0 Q1
G1 X0.0039
M67 E0 Q0
G1 X0.004
M67 E0 Q1
G1 X0.0039
M67 E0 Q0
G1 X0.0157
M67 E0 Q1
G1 X0.004
M67 E0 Q0
G1 X0.0669
M67 E0 Q1
G1 X0.0039
M67 E0 Q0
G1 X0.1733
M67 E0 Q1
G1 X0.0039
M67 E0 Q0
G1 X0.0354
M67 E0 Q1
G1 X0.004
M67 E0 Q0
G1 X0.1023
M67 E0 Q1
G1 X0.004
M67 E0 Q0
G1 X0.9173
M67 E0 Q1
G1 X0.0039
M67 E0 Q0
G1 X0.0417
G1 X0.0787Y0.0039
G1 X-0.0416
M67 E0 Q1
G1 X-0.004
M67 E0 Q0
G1 X-0.1102
M67 E0 Q1
G1 X-0.0039
M67 E0 Q0
G1 X-0.9685
M67 E0 Q1
G1 X-0.004
M67 E0 Q0
G1 X-0.0708
M67 E0 Q1
G1 X-0.004
M67 E0 Q0
G1 X-0.0236
M67 E0 Q1
G1 X-0.0039
M67 E0 Q0
G1 X-0.067
M67 E0 Q1
G1 X-0.0039
M67 E0 Q0
G1 X-0.0866
M67 E0 Q1
G1 X-0.004
M67 E0 Q0
G1 X-0.0118
M67 E0 Q1
G1 X-0.0039
M67 E0 Q0
G1 X-0.0118
M67 E0 Q1
G1 X-0.0039
M67 E0 Q0
G1 X-0.1024
M67 E0 Q1
G1 X-0.0039
M67 E0 Q0
G1 X-0.0867
M67 E0 Q1
G1 X-0.0039
M67 E0 Q0
G1 X-0.0079
M67 E0 Q1
G1 X-0.0039
M67 E0 Q0
G1 X-0.0197
M67 E0 Q1
G1 X-0.0039
M67 E0 Q0
G1 X-0.0237
M67 E0 Q1
G1 X-0.0039
M67 E0 Q0
G1 X-0.0079
M67 E0 Q1
G1 X-0.0039
M67 E0 Q0
G1 X-0.0591
M67 E0 Q1
G1 X-0.0039
M67 E0 Q0
G1 X-0.0079
M67 E0 Q1
G1 X-0.0039
M67 E0 Q0
G1 X-0.0079
M67 E0 Q1
G1 X-0.0039
M67 E0 Q0
G1 X-0.0788
M67 E0 Q1
G1 X-0.0039
M67 E0 Q0
G1 X-0.0354
M67 E0 Q1
G1 X-0.004
M67 E0 Q0
G1 X-0.0275
M67 E0 Q1
G1 X-0.004
M67 E0 Q0
G1 X-0.0078
M67 E0 Q1
G1 X-0.004
M67 E0 Q0
G1 X-0.0078
M67 E0 Q1
G1 X-0.004
M67 E0 Q0
G1 X-0.0079
M67 E0 Q1
G1 X-0.0039
M67 E0 Q0
G1 X-0.0354
M67 E0 Q1
G1 X-0.004
M67 E0 Q0
G1 X-0.0433
M67 E0 Q1
G1 X-0.0039
M67 E0 Q0
G1 X-0.0158
M67 E0 Q1
G1 X-0.0039
M67 E0 Q0
G1 X-0.059
M67 E0 Q1
G1 X-0.004
M67 E0 Q0
G1 X-0.0079
M67 E0 Q1
G1 X-0.0039
M67 E0 Q0
G1 X-0.0157
M67 E0 Q1
G1 X-0.004
M67 E0 Q0
G1 X-0.0079
M67 E0 Q1
G1 X-0.0039
M67 E0 Q0
G1 X-0.1299
M67 E0 Q1
G1 X-0.004
M67 E0 Q0
G1 X-0.0314
M67 E0 Q1
G1 X-0.004
M67 E0 Q0
G1 X-0.0827
M67 E0 Q1
G1 X-0.0039
M67 E0 Q0
G1 X-0.0079
M67 E0 Q1
G1 X-0.0039
M67 E0 Q0
G1 X-0.0197
M67 E0 Q1
G1 X-0.0039
M67 E0 Q0
G1 X-0.0591
M67 E0 Q1
G1 X-0.0039
M67 E0 Q0
G1 X-0.1142
M67 E0 Q1
G1 X-0.0039
M67 E0 Q0
G1 X-0.1496
M67 E0 Q1
G1 X-0.004
M67 E0 Q0
G1 X-1.0708
M67 E0 Q1
G1 X-0.004
M67 E0 Q0
G1 X-0.0416
G1 X0.0708Y0.0039
G1 X0.0417
M67 E0 Q1
G1 X0.0039
M67 E0 Q0
G1 X1.067
M67 E0 Q1
G1 X0.0039
M67 E0 Q0
G1 X0.0709
M67 E0 Q1
G1 X0.0039
M67 E0 Q0
G1 X0.0354
M67 E0 Q1
G1 X0.004
M67 E0 Q0
G1 X0.0196
M67 E0 Q1
G1 X0.004
M67 E0 Q0
G1 X0.0394
M67 E0 Q1
G1 X0.0039
M67 E0 Q0
G1 X0.0276
M67 E0 Q1
G1 X0.0039
M67 E0 Q0
G1 X0.0118
M67 E0 Q1
G1 X0.0039
M67 E0 Q0
G1 X0.0237
M67 E0 Q1
G1 X0.0039
M67 E0 Q0
G1 X0.0709
M67 E0 Q1
G1 X0.0039
M67 E0 Q0
G1 X0.0197
M67 E0 Q1
G1 X0.0039
M67 E0 Q0
G1 X0.0079
M67 E0 Q1
G1 X0.0039
M67 E0 Q0
G1 X0.0315
M67 E0 Q1
G1 X0.004
M67 E0 Q0
G1 X0.0315
M67 E0 Q1
G1 X0.0039
M67 E0 Q0
G1 X0.0079
M67 E0 Q1
G1 X0.0039
M67 E0 Q0
G1 X0.063
M67 E0 Q1
G1 X0.0039
M67 E0 Q0
G1 X0.0079
M67 E0 Q1
G1 X0.0039
M67 E0 Q0
G1 X0.0079
M67 E0 Q1
G1 X0.004
M67 E0 Q0
G1 X0.0669
M67 E0 Q1
G1 X0.0039
M67 E0 Q0
G1 X0.0276
M67 E0 Q1
G1 X0.0039
M67 E0 Q0
G1 X0.0079
M67 E0 Q1
G1 X0.0039
M67 E0 Q0
G1 X0.0394
M67 E0 Q1
G1 X0.0039
M67 E0 Q0
G1 X0.0079
M67 E0 Q1
G1 X0.004
M67 E0 Q0
G1 X0.0078
M67 E0 Q1
G1 X0.004
M67 E0 Q0
G1 X0.0196
M67 E0 Q1
G1 X0.004
M67 E0 Q0
G1 X0.0079
M67 E0 Q1
G1 X0.0039
M67 E0 Q0
G1 X0.0591
M67 E0 Q1
G1 X0.0039
M67 E0 Q0
G1 X0.0275
M67 E0 Q1
G1 X0.004
M67 E0 Q0
G1 X0.0354
M67 E0 Q1
G1 X0.004
M67 E0 Q0
G1 X0.0078
M67 E0 Q1
G1 X0.004
M67 E0 Q0
G1 X0.0078
M67 E0 Q1
G1 X0.004
M67 E0 Q0
G1 X0.0078
M67 E0 Q1
G1 X0.004
M67 E0 Q0
G1 X0.0079
M67 E0 Q1
G1 X0.0039
M67 E0 Q0
G1 X0.0079
M67 E0 Q1
G1 X0.0039
M67 E0 Q0
G1 X0.0433
M67 E0 Q1
G1 X0.004
M67 E0 Q0
G1 X0.0078
M67 E0 Q1
G1 X0.004
M67 E0 Q0
G1 X0.0078
M67 E0 Q1
G1 X0.004
M67 E0 Q0
G1 X0.0078
M67 E0 Q1
G1 X0.004
M67 E0 Q0
G1 X0.063
M67 E0 Q1
G1 X0.0039
M67 E0 Q0
G1 X0.0315
M67 E0 Q1
G1 X0.0039
M67 E0 Q0
G1 X0.0158
M67 E0 Q1
G1 X0.0039
M67 E0 Q0
G1 X0.0079
M67 E0 Q1
G1 X0.0039
M67 E0 Q0
G1 X0.0079
M67 E0 Q1
G1 X0.004
M67 E0 Q0
G1 X0.0078
M67 E0 Q1
G1 X0.004
M67 E0 Q0
G1 X0.0315
M67 E0 Q1
G1 X0.0039
M67 E0 Q0
G1 X0.0276
M67 E0 Q1
G1 X0.0039
M67 E0 Q0
G1 X0.0315
M67 E0 Q1
G1 X0.0039
M67 E0 Q0
G1 X0.0709
M67 E0 Q1
G1 X0.0039
M67 E0 Q0
G1 X0.0158
M67 E0 Q1
G1 X0.0039
M67 E0 Q0
G1 X0.0354
M67 E0 Q1
G1 X0.004
M67 E0 Q0
G1 X0.0275
M67 E0 Q1
G1 X0.004
M67 E0 Q0
G1 X0.0118
M67 E0 Q1
G1 X0.0039
M67 E0 Q0
G1 X0.0197
M67 E0 Q1
G1 X0.004
M67 E0 Q0
G1 X0.0826
M67 E0 Q1
G1 X0.004
M67 E0 Q0
G1 X0.0511
M67 E0 Q1
G1 X0.004
M67 E0 Q0
G1 X0.0197
M67 E0 Q1
G1 X0.0039
M67 E0 Q0
G1 X0.0591
M67 E0 Q1
G1 X0.0039
M67 E0 Q0
G1 X0.878
M67 E0 Q1
G1 X0.0039
M67 E0 Q0
G1 X0.0354
M67 E0 Q1
G1 X0.004
M67 E0 Q0
G1 X0.0416
G1 X0.0315Y0.004
G1 X-0.0416
M67 E0 Q1
G1 X-0.004
M67 E0 Q0
G1 X-1.1457
M67 E0 Q1
G1 X-0.0039
M67 E0 Q0
G1 X-0.1142
M67 E0 Q1
G1 X-0.0039
M67 E0 Q0
G1 X-0.0079
M67 E0 Q1
G1 X-0.0039
M67 E0 Q0
G1 X-0.0787
M67 E0 Q1
G1 X-0.004
M67 E0 Q0
G1 X-0.0433
M67 E0 Q1
G1 X-0.0039
M67 E0 Q0
G1 X-0.0237
M67 E0 Q1
G1 X-0.0039
M67 E0 Q0
G1 X-0.0354
M67 E0 Q1
G1 X-0.004
M67 E0 Q0
G1 X-0.1181
M67 E0 Q1
G1 X-0.0039
M67 E0 Q0
G1 X-0.0079
M67 E0 Q1
G1 X-0.0039
M67 E0 Q0
G1 X-0.1929
M67 E0 Q1
G1 X-0.004
M67 E0 Q0
G1 X-0.0078
M67 E0 Q1
G1 X-0.004
M67 E0 Q0
G1 X-0.0236
M67 E0 Q1
G1 X-0.0039
M67 E0 Q0
G1 X-0.1536
M67 E0 Q1
G1 X-0.0039
M67 E0 Q0
G1 X-0.0473
M67 E0 Q1
G1 X-0.0039
M67 E0 Q0
G1 X-0.0354
M67 E0 Q1
G1 X-0.004
M67 E0 Q0
G1 X-0.0275
M67 E0 Q1
G1 X-0.004
M67 E0 Q0
G1 X-0.0511
M67 E0 Q1
G1 X-0.004
M67 E0 Q0
G1 X-0.0079
M67 E0 Q1
G1 X-0.0039
M67 E0 Q0
G1 X-0.0079
M67 E0 Q1
G1 X-0.0039
M67 E0 Q0
G1 X-0.0079
M67 E0 Q1
G1 X-0.0039
M67 E0 Q0
G1 X-0.0433
M67 E0 Q1
G1 X-0.004
M67 E0 Q0
G1 X-0.0669
M67 E0 Q1
G1 X-0.0039
M67 E0 Q0
G1 X-0.0197
M67 E0 Q1
G1 X-0.0039
M67 E0 Q0
G1 X-0.0355
M67 E0 Q1
G1 X-0.0039
M67 E0 Q0
G1 X-0.0394
M67 E0 Q1
G1 X-0.0039
M67 E0 Q0
G1 X-0.0433
M67 E0 Q1
G1 X-0.004
M67 E0 Q0
G1 X-0.0275
M67 E0 Q1
G1 X-0.004
M67 E0 Q0
G1 X-0.1181
M67 E0 Q1
G1 X-0.0039
M67 E0 Q0
G1 X-0.8465
M67 E0 Q1
G1 X-0.0039
M67 E0 Q0
G1 X-0.1378
M67 E0 Q1
G1 X-0.0039
M67 E0 Q0
G1 X-0.2008
M67 E0 Q1
G1 X-0.004
M67 E0 Q0
G1 X-0.0416
G1 X1.0669Y0.0039
G1 X0.0417
M67 E0 Q1
G1 X0.0039
M67 E0 Q0
G1 X0.0551
M67 E0 Q1
G1 X0.004
M67 E0 Q0
G1 X0.0118
M67 E0 Q1
G1 X0.0039
M67 E0 Q0
G1 X0.1181
M67 E0 Q1
G1 X0.004
M67 E0 Q0
G1 X0.0196
M67 E0 Q1
G1 X0.004
M67 E0 Q0
G1 X0.0905
M67 E0 Q1
G1 X0.004
M67 E0 Q0
G1 X0.0472
M67 E0 Q1
G1 X0.0039
M67 E0 Q0
G1 X0.0158
M67 E0 Q1
G1 X0.0039
M67 E0 Q0
G1 X0.0827
M67 E0 Q1
G1 X0.0039
M67 E0 Q0
G1 X0.0079
M67 E0 Q1
G1 X0.004
M67 E0 Q0
G1 X0.0314
M67 E0 Q1
G1 X0.004
M67 E0 Q0
G1 X0.0787
M67 E0 Q1
G1 X0.004
M67 E0 Q0
G1 X0.0511
M67 E0 Q1
G1 X0.004
M67 E0 Q0
G1 X0.0275
M67 E0 Q1
G1 X0.004
M67 E0 Q0
G1 X0.0315
M67 E0 Q1
G1 X0.0039
M67 E0 Q0
G1 X0.0276
M67 E0 Q1
G1 X0.0039
M67 E0 Q0
G1 X0.0158
M67 E0 Q1
G1 X0.0039
M67 E0 Q0
G1 X0.0079
M67 E0 Q1
G1 X0.0039
M67 E0 Q0
G1 X0.0354
M67 E0 Q1
G1 X0.004
M67 E0 Q0
G1 X0.0236
M67 E0 Q1
G1 X0.0039
M67 E0 Q0
G1 X0.0079
M67 E0 Q1
G1 X0.0039
M67 E0 Q0
G1 X0.0079
M67 E0 Q1
G1 X0.004
M67 E0 Q0
G1 X0.0078
M67 E0 Q1
G1 X0.004
M67 E0 Q0
G1 X0.0078
M67 E0 Q1
G1 X0.004
M67 E0 Q0
G1 X0.0315
M67 E0 Q1
G1 X0.0039
M67 E0 Q0
G1 X0.0354
M67 E0 Q1
G1 X0.004
M67 E0 Q0
G1 X0.0708
M67 E0 Q1
G1 X0.004
M67 E0 Q0
G1 X0.0079
M67 E0 Q1
G1 X0.0039
M67 E0 Q0
G1 X0.0079
M67 E0 Q1
G1 X0.0039
M67 E0 Q0
G1 X0.0551
M67 E0 Q1
G1 X0.004
M67 E0 Q0
G1 X0.0078
M67 E0 Q1
G1 X0.004
M67 E0 Q0
G1 X0.0551
M67 E0 Q1
G1 X0.0039
M67 E0 Q0
G1 X0.0079
M67 E0 Q1
G1 X0.0039
M67 E0 Q0
G1 X0.0158
M67 E0 Q1
G1 X0.0039
M67 E0 Q0
G1 X0.067
M67 E0 Q1
G1 X0.0039
M67 E0 Q0
G1 X0.063
M67 E0 Q1
G1 X0.0039
M67 E0 Q0
G1 X0.0118
M67 E0 Q1
G1 X0.004
M67 E0 Q0
G1 X0.0236
M67 E0 Q1
G1 X0.0039
M67 E0 Q0
G1 X0.0079
M67 E0 Q1
G1 X0.0039
M67 E0 Q0
G1 X0.0079
M67 E0 Q1
G1 X0.0039
M67 E0 Q0
G1 X0.0276
M67 E0 Q1
G1 X0.0039
M67 E0 Q0
G1 X0.1063
M67 E0 Q1
G1 X0.004
M67 E0 Q0
G1 X0.0787
M67 E0 Q1
G1 X0.004
M67 E0 Q0
G1 X0.0315
M67 E0 Q1
G1 X0.0039
M67 E0 Q0
G1 X0.1417
M67 E0 Q1
G1 X0.004
M67 E0 Q0
G1 X0.9685
M67 E0 Q1
G1 X0.0039
M67 E0 Q0
G1 X0.0118
M67 E0 Q1
G1 X0.0039
M67 E0 Q0
G1 X0.0417
G1 X-0.1102Y0.0039
G1 X-0.0417
M67 E0 Q1
G1 X-0.0039
M67 E0 Q0
G1 X-0.941
M67 E0 Q1
G1 X-0.0039
M67 E0 Q0
G1 X-0.0512
M67 E0 Q1
G1 X-0.0039
M67 E0 Q0
G1 X-0.0748
M67 E0 Q1
G1 X-0.004
M67 E0 Q0
G1 X-0.0315
M67 E0 Q1
G1 X-0.0039
M67 E0 Q0
G1 X-0.122
M67 E0 Q1
G1 X-0.004
M67 E0 Q0
G1 X-0.0275
M67 E0 Q1
G1 X-0.004
M67 E0 Q0
G1 X-0.0551
M67 E0 Q1
G1 X-0.0039
M67 E0 Q0
G1 X-0.0473
M67 E0 Q1
G1 X-0.0039
M67 E0 Q0
G1 X-0.0197
M67 E0 Q1
G1 X-0.0039
M67 E0 Q0
G1 X-0.0315
M67 E0 Q1
G1 X-0.004
M67 E0 Q0
G1 X-0.0078
M67 E0 Q1
G1 X-0.004
M67 E0 Q0
G1 X-0.0079
M67 E0 Q1
G1 X-0.0039
M67 E0 Q0
G1 X-0.0079
M67 E0 Q1
G1 X-0.0039
M67 E0 Q0
G1 X-0.0158
M67 E0 Q1
G1 X-0.0039
M67 E0 Q0
G1 X-0.0315
M67 E0 Q1
G1 X-0.0039
M67 E0 Q0
G1 X-0.0079
M67 E0 Q1
G1 X-0.0039
M67 E0 Q0
G1 X-0.0197
M67 E0 Q1
G1 X-0.004
M67 E0 Q0
G1 X-0.0315
M67 E0 Q1
G1 X-0.0039
M67 E0 Q0
G1 X-0.0079
M67 E0 Q1
G1 X-0.0039
M67 E0 Q0
G1 X-0.0079
M67 E0 Q1
G1 X-0.0039
M67 E0 Q0
G1 X-0.0079
M67 E0 Q1
G1 X-0.0039
M67 E0 Q0
G1 X-0.0473
M67 E0 Q1
G1 X-0.0039
M67 E0 Q0
G1 X-0.0079
M67 E0 Q1
G1 X-0.0039
M67 E0 Q0
G1 X-0.0079
M67 E0 Q1
G1 X-0.0039
M67 E0 Q0
G1 X-0.0079
M67 E0 Q1
G1 X-0.0039
M67 E0 Q0
G1 X-0.0079
M67 E0 Q1
G1 X-0.0039
M67 E0 Q0
G1 X-0.063
M67 E0 Q1
G1 X-0.004
M67 E0 Q0
G1 X-0.0078
M67 E0 Q1
G1 X-0.004
M67 E0 Q0
G1 X-0.0669
M67 E0 Q1
G1 X-0.004
M67 E0 Q0
G1 X-0.0236
M67 E0 Q1
G1 X-0.0039
M67 E0 Q0
G1 X-0.0079
M67 E0 Q1
G1 X-0.0039
M67 E0 Q0
G1 X-0.0473
M67 E0 Q1
G1 X-0.0039
M67 E0 Q0
G1 X-0.0079
M67 E0 Q1
G1 X-0.0039
M67 E0 Q0
G1 X-0.0197
M67 E0 Q1
G1 X-0.0039
M67 E0 Q0
G1 X-0.0079
M67 E0 Q1
G1 X-0.0039
M67 E0 Q0
G1 X-0.0315
M67 E0 Q1
G1 X-0.004
M67 E0 Q0
G1 X-0.0236
M67 E0 Q1
G1 X-0.0039
M67 E0 Q0
G1 X-0.0079
M67 E0 Q1
G1 X-0.004
M67 E0 Q0
G1 X-0.0078
M67 E0 Q1
G1 X-0.004
M67 E0 Q0
G1 X-0.0669
M67 E0 Q1
G1 X-0.0039
M67 E0 Q0
G1 X-0.0079
M67 E0 Q1
G1 X-0.0039
M67 E0 Q0
G1 X-0.0315
M67 E0 Q1
G1 X-0.004
M67 E0 Q0
G1 X-0.0315
M67 E0 Q1
G1 X-0.0039
M67 E0 Q0
G1 X-0.0079
M67 E0 Q1
G1 X-0.0039
M67 E0 Q0
G1 X-0.0158
M67 E0 Q1
G1 X-0.0039
M67 E0 Q0
G1 X-0.0079
M67 E0 Q1
G1 X-0.0039
M67 E0 Q0
G1 X-0.0158
M67 E0 Q1
G1 X-0.0039
M67 E0 Q0
G1 X-0.0354
M67 E0 Q1
G1 X-0.004
M67 E0 Q0
G1 X-0.0197
M67 E0 Q1
G1 X-0.0039
M67 E0 Q0
G1 X-0.0394
M67 E0 Q1
G1 X-0.0039
M67 E0 Q0
G1 X-0.0236
M67 E0 Q1
G1 X-0.004
M67 E0 Q0
G1 X-0.0196
M67 E0 Q1
G1 X-0.004
M67 E0 Q0
G1 X-0.0866
M67 E0 Q1
G1 X-0.0039
M67 E0 Q0
G1 X-0.0276
M67 E0 Q1
G1 X-0.0039
M67 E0 Q0
G1 X-0.126
M67 E0 Q1
G1 X-0.0039
M67 E0 Q0
G1 X-0.7363
M67 E0 Q1
G1 X-0.0039
M67 E0 Q0
G1 X-0.0417
G1 X-0.2126Y0.004
G1 X0.0417
M67 E0 Q1
G1 X0.0039
M67 E0 Q0
G1 X0.0866
M67 E0 Q1
G1 X0.004
M67 E0 Q0
G1 X1.0354
M67 E0 Q1
G1 X0.004
M67 E0 Q0
G1 X0.0157
M67 E0 Q1
G1 X0.0039
M67 E0 Q0
G1 X0.0906
M67 E0 Q1
G1 X0.0039
M67 E0 Q0
G1 X0.0394
M67 E0 Q1
G1 X0.0039
M67 E0 Q0
G1 X0.0197
M67 E0 Q1
G1 X0.004
M67 E0 Q0
G1 X0.0275
M67 E0 Q1
G1 X0.004
M67 E0 Q0
G1 X0.0275
M67 E0 Q1
G1 X0.004
M67 E0 Q0
G1 X0.0984
M67 E0 Q1
G1 X0.0039
M67 E0 Q0
G1 X0.0394
M67 E0 Q1
G1 X0.0039
M67 E0 Q0
G1 X0.0079
M67 E0 Q1
G1 X0.0039
M67 E0 Q0
G1 X0.0079
M67 E0 Q1
G1 X0.0039
M67 E0 Q0
G1 X0.0079
M67 E0 Q1
G1 X0.004
M67 E0 Q0
G1 X0.0551
M67 E0 Q1
G1 X0.0039
M67 E0 Q0
G1 X0.0236
M67 E0 Q1
G1 X0.004
M67 E0 Q0
G1 X0.0866
M67 E0 Q1
G1 X0.0039
M67 E0 Q0
G1 X0.0512
M67 E0 Q1
G1 X0.0039
M67 E0 Q0
G1 X0.0197
M67 E0 Q1
G1 X0.004
M67 E0 Q0
G1 X0.0196
M67 E0 Q1
G1 X0.004
M67 E0 Q0
G1 X0.0118
M67 E0 Q1
G1 X0.0039
M67 E0 Q0
G1 X0.0551
M67 E0 Q1
G1 X0.004
M67 E0 Q0
G1 X0.0079
M67 E0 Q1
G1 X0.0039
M67 E0 Q0
G1 X0.0079
M67 E0 Q1
G1 X0.0039
M67 E0 Q0
G1 X0.0709
M67 E0 Q1
G1 X0.0039
M67 E0 Q0
G1 X0.1221
M67 E0 Q1
G1 X0.0039
M67 E0 Q0
G1 X0.126
M67 E0 Q1
G1 X0.0039
M67 E0 Q0
G1 X0.0276
M67 E0 Q1
G1 X0.0039
M67 E0 Q0
G1 X0.0197
M67 E0 Q1
G1 X0.0039
M67 E0 Q0
G1 X0.0079
M67 E0 Q1
G1 X0.0039
M67 E0 Q0
G1 X0.0552
M67 E0 Q1
G1 X0.0039
M67 E0 Q0
G1 X0.0866
M67 E0 Q1
G1 X0.0039
M67 E0 Q0
G1 X0.0119
M67 E0 Q1
G1 X0.0039
M67 E0 Q0
G1 X0.0118
M67 E0 Q1
G1 X0.0039
M67 E0 Q0
G1 X0.0237
M67 E0 Q1
G1 X0.0039
M67 E0 Q0
G1 X0.0551
M67 E0 Q1
G1 X0.004
M67 E0 Q0
G1 X0.0551
M67 E0 Q1
G1 X0.0039
M67 E0 Q0
G1 X0.0473
M67 E0 Q1
G1 X0.0039
M67 E0 Q0
G1 X0.126
M67 E0 Q1
G1 X0.0039
M67 E0 Q0
G1 X0.9725
M67 E0 Q1
G1 X0.0039
M67 E0 Q0
G1 X0.0417
G1 X-1.0433Y0.0039
G1 X-0.0417
M67 E0 Q1
G1 X-0.0039
M67 E0 Q0
G1 X-0.0355
M67 E0 Q1
G1 X-0.0039
M67 E0 Q0
G1 X-0.0473
M67 E0 Q1
G1 X-0.0039
M67 E0 Q0
G1 X-0.122
M67 E0 Q1
G1 X-0.004
M67 E0 Q0
G1 X-0.0236
M67 E0 Q1
G1 X-0.0039
M67 E0 Q0
G1 X-0.067
M67 E0 Q1
G1 X-0.0039
M67 E0 Q0
G1 X-0.0158
M67 E0 Q1
G1 X-0.0039
M67 E0 Q0
G1 X-0.0079
M67 E0 Q1
G1 X-0.0039
M67 E0 Q0
G1 X-0.0197
M67 E0 Q1
G1 X-0.0039
M67 E0 Q0
G1 X-0.0236
M67 E0 Q1
G1 X-0.004
M67 E0 Q0
G1 X-0.0079
M67 E0 Q1
G1 X-0.0039
M67 E0 Q0
G1 X-0.0157
M67 E0 Q1
G1 X-0.004
M67 E0 Q0
G1 X-0.1338
M67 E0 Q1
G1 X-0.004
M67 E0 Q0
G1 X-0.0236
M67 E0 Q1
G1 X-0.0039
M67 E0 Q0
G1 X-0.0079
M67 E0 Q1
G1 X-0.0039
M67 E0 Q0
G1 X-0.0434
M67 E0 Q1
G1 X-0.0039
M67 E0 Q0
G1 X-0.0079
M67 E0 Q1
G1 X-0.0039
M67 E0 Q0
G1 X-0.0079
M67 E0 Q1
G1 X-0.0039
M67 E0 Q0
G1 X-0.0473
M67 E0 Q1
G1 X-0.0039
M67 E0 Q0
G1 X-0.0079
M67 E0 Q1
G1 X-0.0039
M67 E0 Q0
G1 X-0.0079
M67 E0 Q1
G1 X-0.0039
M67 E0 Q0
G1 X-0.0236
M67 E0 Q1
G1 X-0.004
M67 E0 Q0
G1 X-0.0197
M67 E0 Q1
G1 X-0.0039
M67 E0 Q0
G1 X-0.0197
M67 E0 Q1
G1 X-0.0039
M67 E0 Q0
G1 X-0.0433
M67 E0 Q1
G1 X-0.004
M67 E0 Q0
G1 X-0.0315
M67 E0 Q1
G1 X-0.0039
M67 E0 Q0
G1 X-0.0354
M67 E0 Q1
G1 X-0.004
M67 E0 Q0
G1 X-0.0197
M67 E0 Q1
G1 X-0.0039
M67 E0 Q0
G1 X-0.0394
M67 E0 Q1
G1 X-0.0039
M67 E0 Q0
G1 X-0.0079
M67 E0 Q1
G1 X-0.0039
M67 E0 Q0
G1 X-0.0197
M67 E0 Q1
G1 X-0.0039
M67 E0 Q0
G1 X-0.0276
M67 E0 Q1
G1 X-0.0039
M67 E0 Q0
G1 X-0.0236
M67 E0 Q1
G1 X-0.004
M67 E0 Q0
G1 X-0.0079
M67 E0 Q1
G1 X-0.0039
M67 E0 Q0
G1 X-0.0787
M67 E0 Q1
G1 X-0.004
M67 E0 Q0
G1 X-0.1141
M67 E0 Q1
G1 X-0.004
M67 E0 Q0
G1 X-0.0079
M67 E0 Q1
G1 X-0.0039
M67 E0 Q0
G1 X-0.1575
M67 E0 Q1
G1 X-0.0039
M67 E0 Q0
G1 X-0.0118
M67 E0 Q1
G1 X-0.004
M67 E0 Q0
G1 X-0.0826
M67 E0 Q1
G1 X-0.004
M67 E0 Q0
G1 X-0.0984
M67 E0 Q1
G1 X-0.0039
M67 E0 Q0
G1 X-0.0118
M67 E0 Q1
G1 X-0.004
M67 E0 Q0
G1 X-0.0433
M67 E0 Q1
G1 X-0.0039
M67 E0 Q0
G1 X-0.0197
M67 E0 Q1
G1 X-0.004
M67 E0 Q0
G1 X-0.0472
M67 E0 Q1
G1 X-0.0039
M67 E0 Q0
G1 X-0.6969
M67 E0 Q1
G1 X-0.0039
M67 E0 Q0
G1 X-0.0417
G1 X-0.3149Y0.004
G1 X0.0416
M67 E0 Q1
G1 X0.004
M67 E0 Q0
G1 X0.0236
M67 E0 Q1
G1 X0.0039
M67 E0 Q0
G1 X0.1299
M67 E0 Q1
G1 X0.004
M67 E0 Q0
G1 X1.0197
M67 E0 Q1
G1 X0.0039
M67 E0 Q0
G1 X0.0827
M67 E0 Q1
G1 X0.0039
M67 E0 Q0
G1 X0.0158
M67 E0 Q1
G1 X0.0039
M67 E0 Q0
G1 X0.0079
M67 E0 Q1
G1 X0.0039
M67 E0 Q0
G1 X0.0945
M67 E0 Q1
G1 X0.0039
M67 E0 Q0
G1 X0.0079
M67 E0 Q1
G1 X0.0039
M67 E0 Q0
G1 X0.0276
M67 E0 Q1
G1 X0.0039
M67 E0 Q0
G1 X0.0197
M67 E0 Q1
G1 X0.004
M67 E0 Q0
G1 X0.0118
M67 E0 Q1
G1 X0.0039
M67 E0 Q0
G1 X0.0039
M67 E0 Q1
G1 X0.004
M67 E0 Q0
G1 X0.0079
M67 E0 Q1
G1 X0.0039
M67 E0 Q0
G1 X0.0354
M67 E0 Q1
G1 X0.004
M67 E0 Q0
G1 X0.0196
M67 E0 Q1
G1 X0.004
M67 E0 Q0
G1 X0.0079
M67 E0 Q1
G1 X0.0039
M67 E0 Q0
G1 X0.0079
M67 E0 Q1
G1 X0.0039
M67 E0 Q0
G1 X0.0669
M67 E0 Q1
G1 X0.004
M67 E0 Q0
G1 X0.0078
M67 E0 Q1
G1 X0.004
M67 E0 Q0
G1 X0.0079
M67 E0 Q1
G1 X0.0039
M67 E0 Q0
G1 X0.0197
M67 E0 Q1
G1 X0.0039
M67 E0 Q0
G1 X0.0079
M67 E0 Q1
G1 X0.0039
M67 E0 Q0
G1 X0.0315
M67 E0 Q1
G1 X0.004
M67 E0 Q0
G1 X0.0196
M67 E0 Q1
G1 X0.004
M67 E0 Q0
G1 X0.0079
M67 E0 Q1
G1 X0.0039
M67 E0 Q0
G1 X0.0591
M67 E0 Q1
G1 X0.0039
M67 E0 Q0
G1 X0.2047
M67 E0 Q1
G1 X0.0039
M67 E0 Q0
G1 X0.0709
M67 E0 Q1
G1 X0.004
M67 E0 Q0
G1 X0.0078
M67 E0 Q1
G1 X0.004
M67 E0 Q0
G1 X0.0078
M67 E0 Q1
G1 X0.004
M67 E0 Q0
G1 X0.059
M67 E0 Q1
G1 X0.004
M67 E0 Q0
G1 X0.0078
M67 E0 Q1
G1 X0.004
M67 E0 Q0
G1 X0.0315
M67 E0 Q1
G1 X0.0039
M67 E0 Q0
G1 X0.0236
M67 E0 Q1
G1 X0.004
M67 E0 Q0
G1 X0.0078
M67 E0 Q1
G1 X0.004
M67 E0 Q0
G1 X0.0079
M67 E0 Q1
G1 X0.0039
M67 E0 Q0
G1 X0.0079
M67 E0 Q1
G1 X0.0039
M67 E0 Q0
G1 X0.0158
M67 E0 Q1
G1 X0.0039
M67 E0 Q0
G1 X0.0079
M67 E0 Q1
G1 X0.0039
M67 E0 Q0
G1 X0.0197
M67 E0 Q1
G1 X0.0039
M67 E0 Q0
G1 X0.1536
M67 E0 Q1
G1 X0.0039
M67 E0 Q0
G1 X0.0984
M67 E0 Q1
G1 X0.004
M67 E0 Q0
G1 X0.0157
M67 E0 Q1
G1 X0.0039
M67 E0 Q0
G1 X0.0315
M67 E0 Q1
G1 X0.004
M67 E0 Q0
G1 X0.0118
M67 E0 Q1
G1 X0.0039
M67 E0 Q0
G1 X0.0079
M67 E0 Q1
G1 X0.0039
M67 E0 Q0
G1 X1.0197
M67 E0 Q1
G1 X0.004
M67 E0 Q0
G1 X0.0472
M67 E0 Q1
G1 X0.0039
M67 E0 Q0
G1 X0.0434
M67 E0 Q1
G1 X0.0039
M67 E0 Q0
G1 X0.0417
G1 X-0.0119Y0.0039
G1 X-0.0416
M67 E0 Q1
G1 X-0.004
M67 E0 Q0
G1 X-0.8858
M67 E0 Q1
G1 X-0.0039
M67 E0 Q0
G1 X-0.067
M67 E0 Q1
G1 X-0.0039
M67 E0 Q0
G1 X-0.0984
M67 E0 Q1
G1 X-0.004
M67 E0 Q0
G1 X-0.0157
M67 E0 Q1
G1 X-0.0039
M67 E0 Q0
G1 X-0.1339
M67 E0 Q1
G1 X-0.0039
M67 E0 Q0
G1 X-0.0197
M67 E0 Q1
G1 X-0.004
M67 E0 Q0
G1 X-0.0393
M67 E0 Q1
G1 X-0.004
M67 E0 Q0
G1 X-0.0196
M67 E0 Q1
G1 X-0.004
M67 E0 Q0
G1 X-0.0354
M67 E0 Q1
G1 X-0.004
M67 E0 Q0
G1 X-0.0078
M67 E0 Q1
G1 X-0.004
M67 E0 Q0
G1 X-0.0433
M67 E0 Q1
G1 X-0.0039
M67 E0 Q0
G1 X-0.0158
M67 E0 Q1
G1 X-0.0039
M67 E0 Q0
G1 X-0.0079
M67 E0 Q1
G1 X-0.0039
M67 E0 Q0
G1 X-0.0197
M67 E0 Q1
G1 X-0.0039
M67 E0 Q0
G1 X-0.0906
M67 E0 Q1
G1 X-0.0039
M67 E0 Q0
G1 X-0.0709
M67 E0 Q1
G1 X-0.0039
M67 E0 Q0
G1 X-0.0118
M67 E0 Q1
G1 X-0.004
M67 E0 Q0
G1 X-0.0197
M67 E0 Q1
G1 X-0.0039
M67 E0 Q0
G1 X-0.3976
M67 E0 Q1
G1 X-0.004
M67 E0 Q0
G1 X-0.0669
M67 E0 Q1
G1 X-0.0039
M67 E0 Q0
G1 X-0.0551
M67 E0 Q1
G1 X-0.004
M67 E0 Q0
G1 X-0.0079
M67 E0 Q1
G1 X-0.0039
M67 E0 Q0
G1 X-0.0079
M67 E0 Q1
G1 X-0.0039
M67 E0 Q0
G1 X-0.0079
M67 E0 Q1
G1 X-0.0039
M67 E0 Q0
G1 X-0.0473
M67 E0 Q1
G1 X-0.0039
M67 E0 Q0
G1 X-0.0945
M67 E0 Q1
G1 X-0.0039
M67 E0 Q0
G1 X-0.0158
M67 E0 Q1
G1 X-0.0039
M67 E0 Q0
G1 X-0.0079
M67 E0 Q1
G1 X-0.0039
M67 E0 Q0
G1 X-0.0355
M67 E0 Q1
G1 X-0.0039
M67 E0 Q0
G1 X-0.0275
M67 E0 Q1
G1 X-0.004
M67 E0 Q0
G1 X-0.0157
M67 E0 Q1
G1 X-0.004
M67 E0 Q0
G1 X-0.0118
M67 E0 Q1
G1 X-0.0039
M67 E0 Q0
G1 X-0.0709
M67 E0 Q1
G1 X-0.0039
M67 E0 Q0
G1 X-0.0158
M67 E0 Q1
G1 X-0.0039
M67 E0 Q0
G1 X-0.0906
M67 E0 Q1
G1 X-0.0039
M67 E0 Q0
G1 X-1.0276
M67 E0 Q1
G1 X-0.0039
M67 E0 Q0
G1 X-0.0417
G1 X0.0119Y0.0039
G1 X0.0416
M67 E0 Q1
G1 X0.004
M67 E0 Q0
G1 X0.0118
M67 E0 Q1
G1 X0.0039
M67 E0 Q0
G1 X0.0118
M67 E0 Q1
G1 X0.004
M67 E0 Q0
G1 X0.0078
M67 E0 Q1
G1 X0.004
M67 E0 Q0
G1 X0.122
M67 E0 Q1
G1 X0.0039
M67 E0 Q0
G1 X0.6969
M67 E0 Q1
G1 X0.0039
M67 E0 Q0
G1 X0.0158
M67 E0 Q1
G1 X0.0039
M67 E0 Q0
G1 X0.1103
M67 E0 Q1
G1 X0.0039
M67 E0 Q0
G1 X0.0551
M67 E0 Q1
G1 X0.0039
M67 E0 Q0
G1 X0.0276
M67 E0 Q1
G1 X0.0039
M67 E0 Q0
G1 X0.0552
M67 E0 Q1
G1 X0.0039
M67 E0 Q0
G1 X0.0197
M67 E0 Q1
G1 X0.0039
M67 E0 Q0
G1 X0.1063
M67 E0 Q1
G1 X0.004
M67 E0 Q0
G1 X0.0118
M67 E0 Q1
G1 X0.0039
M67 E0 Q0
G1 X0.063
M67 E0 Q1
G1 X0.0039
M67 E0 Q0
G1 X0.0079
M67 E0 Q1
G1 X0.0039
M67 E0 Q0
G1 X0.0119
M67 E0 Q1
G1 X0.0039
M67 E0 Q0
G1 X0.0079
M67 E0 Q1
G1 X0.0039
M67 E0 Q0
G1 X0.0079
M67 E0 Q1
G1 X0.0039
M67 E0 Q0
G1 X0.0315
M67 E0 Q1
G1 X0.0039
M67 E0 Q0
G1 X0.0827
M67 E0 Q1
G1 X0.004
M67 E0 Q0
G1 X0.0787
M67 E0 Q1
G1 X0.0039
M67 E0 Q0
G1 X0.0079
M67 E0 Q1
G1 X0.004
M67 E0 Q0
G1 X0.433
M67 E0 Q1
G1 X0.004
M67 E0 Q0
G1 X0.0354
M67 E0 Q1
G1 X0.0039
M67 E0 Q0
G1 X0.0197
M67 E0 Q1
G1 X0.004
M67 E0 Q0
G1 X0.0078
M67 E0 Q1
G1 X0.004
M67 E0 Q0
G1 X0.0078
M67 E0 Q1
G1 X0.004
M67 E0 Q0
G1 X0.0708
M67 E0 Q1
G1 X0.004
M67 E0 Q0
G1 X0.0984
M67 E0 Q1
G1 X0.0039
M67 E0 Q0
G1 X0.0079
M67 E0 Q1
G1 X0.004
M67 E0 Q0
G1 X0.0078
M67 E0 Q1
G1 X0.004
M67 E0 Q0
G1 X0.0315
M67 E0 Q1
G1 X0.0039
M67 E0 Q0
G1 X0.0118
M67 E0 Q1
G1 X0.0039
M67 E0 Q0
G1 X0.0394
M67 E0 Q1
G1 X0.0039
M67 E0 Q0
G1 X0.0079
M67 E0 Q1
G1 X0.004
M67 E0 Q0
G1 X0.0078
M67 E0 Q1
G1 X0.004
M67 E0 Q0
G1 X0.0157
M67 E0 Q1
G1 X0.004
M67 E0 Q0
G1 X0.0787
M67 E0 Q1
G1 X0.0039
M67 E0 Q0
G1 X0.1103
M67 E0 Q1
G1 X0.0039
M67 E0 Q0
G1 X0.0354
M67 E0 Q1
G1 X0.004
M67 E0 Q0
G1 X0.9488
M67 E0 Q1
G1 X0.0039
M67 E0 Q0
G1 X0.0417
G1 X0.0906Y0.004
G1 X-0.0417
M67 E0 Q1
G1 X-0.004
M67 E0 Q0
G1 X-0.0472
M67 E0 Q1
G1 X-0.0039
M67 E0 Q0
G1 X-1.0827
M67 E0 Q1
G1 X-0.0039
M67 E0 Q0
G1 X-0.0276
M67 E0 Q1
G1 X-0.0039
M67 E0 Q0
G1 X-0.0394
M67 E0 Q1
G1 X-0.004
M67 E0 Q0
G1 X-0.0157
M67 E0 Q1
G1 X-0.0039
M67 E0 Q0
G1 X-0.0158
M67 E0 Q1
G1 X-0.0039
M67 E0 Q0
G1 X-0.0473
M67 E0 Q1
G1 X-0.0039
M67 E0 Q0
G1 X-0.0827
M67 E0 Q1
G1 X-0.0039
M67 E0 Q0
G1 X-0.0709
M67 E0 Q1
G1 X-0.0039
M67 E0 Q0
G1 X-0.0276
M67 E0 Q1
G1 X-0.0039
M67 E0 Q0
G1 X-0.0197
M67 E0 Q1
G1 X-0.0039
M67 E0 Q0
G1 X-0.0079
M67 E0 Q1
G1 X-0.0039
M67 E0 Q0
G1 X-0.0197
M67 E0 Q1
G1 X-0.004
M67 E0 Q0
G1 X-0.0078
M67 E0 Q1
G1 X-0.004
M67 E0 Q0
G1 X-0.0079
M67 E0 Q1
G1 X-0.0039
M67 E0 Q0
G1 X-0.0079
M67 E0 Q1
G1 X-0.0039
M67 E0 Q0
G1 X-0.0591
M67 E0 Q1
G1 X-0.0039
M67 E0 Q0
G1 X-0.0236
M67 E0 Q1
G1 X-0.004
M67 E0 Q0
G1 X-0.4803
M67 E0 Q1
G1 X-0.0039
M67 E0 Q0
G1 X-0.0079
M67 E0 Q1
G1 X-0.0039
M67 E0 Q0
G1 X-0.0118
M67 E0 Q1
G1 X-0.004
M67 E0 Q0
G1 X-0.0078
M67 E0 Q1
G1 X-0.004
M67 E0 Q0
G1 X-0.0079
M67 E0 Q1
G1 X-0.0039
M67 E0 Q0
G1 X-0.0079
M67 E0 Q1
G1 X-0.0039
M67 E0 Q0
G1 X-0.0669
M67 E0 Q1
G1 X-0.004
M67 E0 Q0
G1 X-0.0078
M67 E0 Q1
G1 X-0.004
M67 E0 Q0
G1 X-0.0354
M67 E0 Q1
G1 X-0.0039
M67 E0 Q0
G1 X-0.063
M67 E0 Q1
G1 X-0.004
M67 E0 Q0
G1 X-0.0078
M67 E0 Q1
G1 X-0.004
M67 E0 Q0
G1 X-0.0827
M67 E0 Q1
G1 X-0.0039
M67 E0 Q0
G1 X-0.0079
M67 E0 Q1
G1 X-0.0039
M67 E0 Q0
G1 X-0.5158
M67 E0 Q1
G1 X-0.0039
M67 E0 Q0
G1 X-0.5354
M67 E0 Q1
G1 X-0.004
M67 E0 Q0
G1 X-0.2519
M67 E0 Q1
G1 X-0.004
M67 E0 Q0
G1 X-0.0416
G1 X-0.0276Y0.0039
G1 X0.0417
M67 E0 Q1
G1 X0.0039
M67 E0 Q0
G1 X0.937
M67 E0 Q1
G1 X0.004
M67 E0 Q0
G1 X0.0905
M67 E0 Q1
G1 X0.0039
M67 E0 Q0
G1 X0.0197
M67 E0 Q1
G1 X0.004
M67 E0 Q0
G1 X0.0118
M67 E0 Q1
G1 X0.0039
M67 E0 Q0
G1 X0.0512
M67 E0 Q1
G1 X0.0039
M67 E0 Q0
G1 X0.0355
M67 E0 Q1
G1 X0.0039
M67 E0 Q0
G1 X0.0236
M67 E0 Q1
G1 X0.004
M67 E0 Q0
G1 X0.0118
M67 E0 Q1
G1 X0.0039
M67 E0 Q0
G1 X0.0118
M67 E0 Q1
G1 X0.004
M67 E0 Q0
G1 X0.0236
M67 E0 Q1
G1 X0.0039
M67 E0 Q0
G1 X0.0197
M67 E0 Q1
G1 X0.0039
M67 E0 Q0
G1 X0.0079
M67 E0 Q1
G1 X0.0039
M67 E0 Q0
G1 X0.0079
M67 E0 Q1
G1 X0.004
M67 E0 Q0
G1 X0.0118
M67 E0 Q1
G1 X0.0039
M67 E0 Q0
G1 X0.0079
M67 E0 Q1
G1 X0.0039
M67 E0 Q0
G1 X0.0236
M67 E0 Q1
G1 X0.004
M67 E0 Q0
G1 X0.0078
M67 E0 Q1
G1 X0.004
M67 E0 Q0
G1 X0.0118
M67 E0 Q1
G1 X0.0039
M67 E0 Q0
G1 X0.0394
M67 E0 Q1
G1 X0.0039
M67 E0 Q0
G1 X0.0158
M67 E0 Q1
G1 X0.0039
M67 E0 Q0
G1 X0.0433
M67 E0 Q1
G1 X0.004
M67 E0 Q0
G1 X0.0315
M67 E0 Q1
G1 X0.0039
M67 E0 Q0
G1 X0.0472
M67 E0 Q1
G1 X0.004
M67 E0 Q0
G1 X0.0079
M67 E0 Q1
G1 X0.0039
M67 E0 Q0
G1 X0.0079
M67 E0 Q1
G1 X0.0039
M67 E0 Q0
G1 X0.0079
M67 E0 Q1
G1 X0.0039
M67 E0 Q0
G1 X0.0079
M67 E0 Q1
G1 X0.0039
M67 E0 Q0
G1 X0.626
M67 E0 Q1
G1 X0.0039
M67 E0 Q0
G1 X0.0079
M67 E0 Q1
G1 X0.004
M67 E0 Q0
G1 X0.0866
M67 E0 Q1
G1 X0.0039
M67 E0 Q0
G1 X0.0197
M67 E0 Q1
G1 X0.0039
M67 E0 Q0
G1 X0.0276
M67 E0 Q1
G1 X0.0039
M67 E0 Q0
G1 X0.0276
M67 E0 Q1
G1 X0.0039
M67 E0 Q0
G1 X0.0709
M67 E0 Q1
G1 X0.0039
M67 E0 Q0
G1 X0.0079
M67 E0 Q1
G1 X0.0039
M67 E0 Q0
G1 X0.063
M67 E0 Q1
G1 X0.004
M67 E0 Q0
G1 X0.0826
M67 E0 Q1
G1 X0.004
M67 E0 Q0
G1 X0.1181
M67 E0 Q1
G1 X0.0039
M67 E0 Q0
G1 X0.0394
M67 E0 Q1
G1 X0.0039
M67 E0 Q0
G1 X0.0315
M67 E0 Q1
G1 X0.004
M67 E0 Q0
G1 X0.8622
M67 E0 Q1
G1 X0.0039
M67 E0 Q0
G1 X0.0417
G1 X-0.7756Y0.0039
G1 X-0.0417
M67 E0 Q1
G1 X-0.0039
M67 E0 Q0
G1 X-0.2008
M67 E0 Q1
G1 X-0.0039
M67 E0 Q0
G1 X-0.0158
M67 E0 Q1
G1 X-0.0039
M67 E0 Q0
G1 X-0.0079
M67 E0 Q1
G1 X-0.0039
M67 E0 Q0
G1 X-0.0158
M67 E0 Q1
G1 X-0.0039
M67 E0 Q0
G1 X-0.0079
M67 E0 Q1
G1 X-0.0039
M67 E0 Q0
G1 X-0.0315
M67 E0 Q1
G1 X-0.004
M67 E0 Q0
G1 X-0.0236
M67 E0 Q1
G1 X-0.0039
M67 E0 Q0
G1 X-0.0158
M67 E0 Q1
G1 X-0.0039
M67 E0 Q0
G1 X-0.0354
M67 E0 Q1
G1 X-0.004
M67 E0 Q0
G1 X-0.0079
M67 E0 Q1
G1 X-0.0039
M67 E0 Q0
G1 X-0.0236
M67 E0 Q1
G1 X-0.004
M67 E0 Q0
G1 X-0.0393
M67 E0 Q1
G1 X-0.004
M67 E0 Q0
G1 X-0.0078
M67 E0 Q1
G1 X-0.004
M67 E0 Q0
G1 X-0.0078
M67 E0 Q1
G1 X-0.004
M67 E0 Q0
G1 X-0.0118
M67 E0 Q1
G1 X-0.0039
M67 E0 Q0
G1 X-0.0079
M67 E0 Q1
G1 X-0.0039
M67 E0 Q0
G1 X-0.0118
M67 E0 Q1
G1 X-0.004
M67 E0 Q0
G1 X-0.0079
M67 E0 Q1
G1 X-0.0039
M67 E0 Q0
G1 X-0.0276
M67 E0 Q1
G1 X-0.0039
M67 E0 Q0
G1 X-0.0709
M67 E0 Q1
G1 X-0.0039
M67 E0 Q0
G1 X-0.0669
M67 E0 Q1
G1 X-0.004
M67 E0 Q0
G1 X-0.0078
M67 E0 Q1
G1 X-0.004
M67 E0 Q0
G1 X-0.0078
M67 E0 Q1
G1 X-0.004
M67 E0 Q0
G1 X-0.6811
M67 E0 Q1
G1 X-0.0039
M67 E0 Q0
G1 X-0.0276
M67 E0 Q1
G1 X-0.0039
M67 E0 Q0
G1 X-0.0158
M67 E0 Q1
G1 X-0.0039
M67 E0 Q0
G1 X-0.0158
M67 E0 Q1
G1 X-0.0039
M67 E0 Q0
G1 X-0.0512
M67 E0 Q1
G1 X-0.0039
M67 E0 Q0
G1 X-0.0079
M67 E0 Q1
G1 X-0.0039
M67 E0 Q0
G1 X-0.0197
M67 E0 Q1
G1 X-0.0039
M67 E0 Q0
G1 X-0.1378
M67 E0 Q1
G1 X-0.004
M67 E0 Q0
G1 X-0.0945
M67 E0 Q1
G1 X-0.0039
M67 E0 Q0
G1 X-0.126
M67 E0 Q1
G1 X-0.0039
M67 E0 Q0
G1 X-0.0827
M67 E0 Q1
G1 X-0.0039
M67 E0 Q0
G1 X-0.6733
M67 E0 Q1
G1 X-0.0039
M67 E0 Q0
G1 X-0.0417
G1 X0.1615Y0.004
G1 X0.0416
M67 E0 Q1
G1 X0.004
M67 E0 Q0
G1 X0.0236
M67 E0 Q1
G1 X0.0039
M67 E0 Q0
G1 X0.0236
M67 E0 Q1
G1 X0.004
M67 E0 Q0
G1 X0.0236
M67 E0 Q1
G1 X0.0039
M67 E0 Q0
G1 X0.0237
M67 E0 Q1
G1 X0.0039
M67 E0 Q0
G1 X0.0236
M67 E0 Q1
G1 X0.0039
M67 E0 Q0
G1 X0.2481
M67 E0 Q1
G1 X0.0039
M67 E0 Q0
G1 X0.1024
M67 E0 Q1
G1 X0.0039
M67 E0 Q0
G1 X0.1811
M67 E0 Q1
G1 X0.004
M67 E0 Q0
G1 X0.0157
M67 E0 Q1
G1 X0.0039
M67 E0 Q0
G1 X0.0433
M67 E0 Q1
G1 X0.004
M67 E0 Q0
G1 X0.0197
M67 E0 Q1
G1 X0.0039
M67 E0 Q0
G1 X0.0827
M67 E0 Q1
G1 X0.0039
M67 E0 Q0
G1 X0.0748
M67 E0 Q1
G1 X0.004
M67 E0 Q0
G1 X0.1338
M67 E0 Q1
G1 X0.004
M67 E0 Q0
G1 X0.0157
M67 E0 Q1
G1 X0.0039
M67 E0 Q0
G1 X0.0197
M67 E0 Q1
G1 X0.004
M67 E0 Q0
G1 X0.0236
M67 E0 Q1
G1 X0.0039
M67 E0 Q0
G1 X0.0079
M67 E0 Q1
G1 X0.0039
M67 E0 Q0
G1 X0.0079
M67 E0 Q1
G1 X0.0039
M67 E0 Q0
G1 X0.7008
M67 E0 Q1
G1 X0.004
M67 E0 Q0
G1 X0.0078
M67 E0 Q1
G1 X0.004
M67 E0 Q0
G1 X0.0079
M67 E0 Q1
G1 X0.0039
M67 E0 Q0
G1 X0.0197
M67 E0 Q1
G1 X0.0039
M67 E0 Q0
G1 X0.0079
M67 E0 Q1
G1 X0.0039
M67 E0 Q0
G1 X0.0079
M67 E0 Q1
G1 X0.0039
M67 E0 Q0
G1 X0.0158
M67 E0 Q1
G1 X0.0039
M67 E0 Q0
G1 X0.0315
M67 E0 Q1
G1 X0.004
M67 E0 Q0
G1 X0.1496
M67 E0 Q1
G1 X0.0039
M67 E0 Q0
G1 X0.0472
M67 E0 Q1
G1 X0.004
M67 E0 Q0
G1 X0.0827
M67 E0 Q1
G1 X0.0039
M67 E0 Q0
G1 X0.0945
M67 E0 Q1
G1 X0.0039
M67 E0 Q0
G1 X0.1103
M67 E0 Q1
G1 X0.0039
M67 E0 Q0
G1 X0.0866
M67 E0 Q1
G1 X0.0039
M67 E0 Q0
G1 X0.8504
M67 E0 Q1
G1 X0.004
M67 E0 Q0
G1 X0.0393
M67 E0 Q1
G1 X0.004
M67 E0 Q0
G1 X0.0079
M67 E0 Q1
G1 X0.0039
M67 E0 Q0
G1 X0.0417
G1 X-0.1457Y0.0039
G1 X-0.0417
M67 E0 Q1
G1 X-0.0039
M67 E0 Q0
G1 X-0.9331
M67 E0 Q1
G1 X-0.0039
M67 E0 Q0
G1 X-0.0906
M67 E0 Q1
G1 X-0.0039
M67 E0 Q0
G1 X-0.0433
M67 E0 Q1
G1 X-0.004
M67 E0 Q0
G1 X-0.0236
M67 E0 Q1
G1 X-0.0039
M67 E0 Q0
G1 X-0.1142
M67 E0 Q1
G1 X-0.0039
M67 E0 Q0
G1 X-0.0118
M67 E0 Q1
G1 X-0.004
M67 E0 Q0
G1 X-0.0078
M67 E0 Q1
G1 X-0.004
M67 E0 Q0
G1 X-0.0197
M67 E0 Q1
G1 X-0.0039
M67 E0 Q0
G1 X-0.0669
M67 E0 Q1
G1 X-0.004
M67 E0 Q0
G1 X-0.0315
M67 E0 Q1
G1 X-0.0039
M67 E0 Q0
G1 X-0.0158
M67 E0 Q1
G1 X-0.0039
M67 E0 Q0
G1 X-0.0433
M67 E0 Q1
G1 X-0.0039
M67 E0 Q0
G1 X-0.7008
M67 E0 Q1
G1 X-0.004
M67 E0 Q0
G1 X-0.0078
M67 E0 Q1
G1 X-0.004
M67 E0 Q0
G1 X-0.0078
M67 E0 Q1
G1 X-0.004
M67 E0 Q0
G1 X-0.0866
M67 E0 Q1
G1 X-0.0039
M67 E0 Q0
G1 X-0.0355
M67 E0 Q1
G1 X-0.0039
M67 E0 Q0
G1 X-0.0118
M67 E0 Q1
G1 X-0.0039
M67 E0 Q0
G1 X-0.0158
M67 E0 Q1
G1 X-0.0039
M67 E0 Q0
G1 X-0.0118
M67 E0 Q1
G1 X-0.004
M67 E0 Q0
G1 X-0.0315
M67 E0 Q1
G1 X-0.0039
M67 E0 Q0
G1 X-0.0079
M67 E0 Q1
G1 X-0.0039
M67 E0 Q0
G1 X-0.0236
M67 E0 Q1
G1 X-0.004
M67 E0 Q0
G1 X-0.0118
M67 E0 Q1
G1 X-0.0039
M67 E0 Q0
G1 X-0.0079
M67 E0 Q1
G1 X-0.0039
M67 E0 Q0
G1 X-0.0158
M67 E0 Q1
G1 X-0.0039
M67 E0 Q0
G1 X-0.0276
M67 E0 Q1
G1 X-0.0039
M67 E0 Q0
G1 X-0.0276
M67 E0 Q1
G1 X-0.0039
M67 E0 Q0
G1 X-0.0118
M67 E0 Q1
G1 X-0.004
M67 E0 Q0
G1 X-0.0118
M67 E0 Q1
G1 X-0.0039
M67 E0 Q0
G1 X-0.189
M67 E0 Q1
G1 X-0.0039
M67 E0 Q0
G1 X-0.1339
M67 E0 Q1
G1 X-0.0039
M67 E0 Q0
G1 X-0.2796
M67 E0 Q1
G1 X-0.0039
M67 E0 Q0
G1 X-0.5354
M67 E0 Q1
G1 X-0.004
M67 E0 Q0
G1 X-0.0416
G1 X0.1929Y0.0039
G1 X0.0417
M67 E0 Q1
G1 X0.0039
M67 E0 Q0
G1 X0.811
M67 E0 Q1
G1 X0.0039
M67 E0 Q0
G1 X0.0709
M67 E0 Q1
G1 X0.004
M67 E0 Q0
G1 X0.1181
M67 E0 Q1
G1 X0.0039
M67 E0 Q0
G1 X0.1457
M67 E0 Q1
G1 X0.0039
M67 E0 Q0
G1 X0.0079
M67 E0 Q1
G1 X0.0039
M67 E0 Q0
G1 X0.063
M67 E0 Q1
G1 X0.0039
M67 E0 Q0
G1 X0.0079
M67 E0 Q1
G1 X0.004
M67 E0 Q0
G1 X0.0236
M67 E0 Q1
G1 X0.0039
M67 E0 Q0
G1 X0.0079
M67 E0 Q1
G1 X0.0039
M67 E0 Q0
G1 X0.0118
M67 E0 Q1
G1 X0.004
M67 E0 Q0
G1 X0.0078
M67 E0 Q1
G1 X0.004
M67 E0 Q0
G1 X0.8425
M67 E0 Q1
G1 X0.0039
M67 E0 Q0
G1 X0.0315
M67 E0 Q1
G1 X0.004
M67 E0 Q0
G1 X0.0079
M67 E0 Q1
G1 X0.0039
M67 E0 Q0
G1 X0.0079
M67 E0 Q1
G1 X0.0039
M67 E0 Q0
G1 X0.0079
M67 E0 Q1
G1 X0.0039
M67 E0 Q0
G1 X0.0079
M67 E0 Q1
G1 X0.0039
M67 E0 Q0
G1 X0.0158
M67 E0 Q1
G1 X0.0039
M67 E0 Q0
G1 X0.0709
M67 E0 Q1
G1 X0.0039
M67 E0 Q0
G1 X0.0158
M67 E0 Q1
G1 X0.0039
M67 E0 Q0
G1 X0.0079
M67 E0 Q1
G1 X0.0039
M67 E0 Q0
G1 X0.0158
M67 E0 Q1
G1 X0.0039
M67 E0 Q0
G1 X0.0118
M67 E0 Q1
G1 X0.0039
M67 E0 Q0
G1 X0.0709
M67 E0 Q1
G1 X0.0039
M67 E0 Q0
G1 X0.067
M67 E0 Q1
G1 X0.0039
M67 E0 Q0
G1 X0.0551
M67 E0 Q1
G1 X0.004
M67 E0 Q0
G1 X0.0236
M67 E0 Q1
G1 X0.0039
M67 E0 Q0
G1 X0.1654
M67 E0 Q1
G1 X0.0039
M67 E0 Q0
G1 X0.0236
M67 E0 Q1
G1 X0.004
M67 E0 Q0
G1 X0.7283
M67 E0 Q1
G1 X0.004
M67 E0 Q0
G1 X0.0118
M67 E0 Q1
G1 X0.0039
M67 E0 Q0
G1 X0.0591
M67 E0 Q1
G1 X0.0039
M67 E0 Q0
G1 X0.0417
G1 X0.0433Y0.004
G1 X-0.0417
M67 E0 Q1
G1 X-0.0039
M67 E0 Q0
G1 X-0.0512
M67 E0 Q1
G1 X-0.004
M67 E0 Q0
G1 X-0.0866
M67 E0 Q1
G1 X-0.0039
M67 E0 Q0
G1 X-0.1535
M67 E0 Q1
G1 X-0.004
M67 E0 Q0
G1 X-0.6653
M67 E0 Q1
G1 X-0.004
M67 E0 Q0
G1 X-0.0157
M67 E0 Q1
G1 X-0.004
M67 E0 Q0
G1 X-0.0315
M67 E0 Q1
G1 X-0.0039
M67 E0 Q0
G1 X-0.0748
M67 E0 Q1
G1 X-0.0039
M67 E0 Q0
G1 X-0.0433
M67 E0 Q1
G1 X-0.004
M67 E0 Q0
G1 X-0.0079
M67 E0 Q1
G1 X-0.0039
M67 E0 Q0
G1 X-0.0748
M67 E0 Q1
G1 X-0.0039
M67 E0 Q0
G1 X-0.0079
M67 E0 Q1
G1 X-0.0039
M67 E0 Q0
G1 X-0.1024
M67 E0 Q1
G1 X-0.0039
M67 E0 Q0
G1 X-0.0079
M67 E0 Q1
G1 X-0.004
M67 E0 Q0
G1 X-0.1417
M67 E0 Q1
G1 X-0.0039
M67 E0 Q0
G1 X-0.0236
M67 E0 Q1
G1 X-0.004
M67 E0 Q0
G1 X-0.0197
M67 E0 Q1
G1 X-0.0039
M67 E0 Q0
G1 X-0.0079
M67 E0 Q1
G1 X-0.0039
M67 E0 Q0
G1 X-0.0079
M67 E0 Q1
G1 X-0.0039
M67 E0 Q0
G1 X-0.0236
M67 E0 Q1
G1 X-0.004
M67 E0 Q0
G1 X-0.7244
M67 E0 Q1
G1 X-0.0039
M67 E0 Q0
G1 X-0.0079
M67 E0 Q1
G1 X-0.0039
M67 E0 Q0
G1 X-0.067
M67 E0 Q1
G1 X-0.0039
M67 E0 Q0
G1 X-0.0315
M67 E0 Q1
G1 X-0.0039
M67 E0 Q0
G1 X-0.0237
M67 E0 Q1
G1 X-0.0039
M67 E0 Q0
G1 X-0.0551
M67 E0 Q1
G1 X-0.004
M67 E0 Q0
G1 X-0.0196
M67 E0 Q1
G1 X-0.004
M67 E0 Q0
G1 X-0.0472
M67 E0 Q1
G1 X-0.004
M67 E0 Q0
G1 X-0.0196
M67 E0 Q1
G1 X-0.004
M67 E0 Q0
G1 X-0.0905
M67 E0 Q1
G1 X-0.004
M67 E0 Q0
G1 X-0.0078
M67 E0 Q1
G1 X-0.004
M67 E0 Q0
G1 X-0.0236
M67 E0 Q1
G1 X-0.0039
M67 E0 Q0
G1 X-0.0591
M67 E0 Q1
G1 X-0.0039
M67 E0 Q0
G1 X-0.0079
M67 E0 Q1
G1 X-0.0039
M67 E0 Q0
G1 X-0.0315
M67 E0 Q1
G1 X-0.004
M67 E0 Q0
G1 X-0.0433
M67 E0 Q1
G1 X-0.0039
M67 E0 Q0
G1 X-0.0866
M67 E0 Q1
G1 X-0.004
M67 E0 Q0
G1 X-0.1102
M67 E0 Q1
G1 X-0.0039
M67 E0 Q0
G1 X-0.3859
M67 E0 Q1
G1 X-0.0039
M67 E0 Q0
G1 X-0.1181
M67 E0 Q1
G1 X-0.004
M67 E0 Q0
G1 X-0.2401
M67 E0 Q1
G1 X-0.0039
M67 E0 Q0
G1 X-0.0417
G1 X0.0354Y0.0039
G1 X0.0417
M67 E0 Q1
G1 X0.0039
M67 E0 Q0
G1 X0.7047
M67 E0 Q1
G1 X0.004
M67 E0 Q0
G1 X0.2008
M67 E0 Q1
G1 X0.0039
M67 E0 Q0
G1 X0.1181
M67 E0 Q1
G1 X0.004
M67 E0 Q0
G1 X0.0078
M67 E0 Q1
G1 X0.004
M67 E0 Q0
G1 X0.0433
M67 E0 Q1
G1 X0.0039
M67 E0 Q0
G1 X0.0473
M67 E0 Q1
G1 X0.0039
M67 E0 Q0
G1 X0.0118
M67 E0 Q1
G1 X0.0039
M67 E0 Q0
G1 X0.0119
M67 E0 Q1
G1 X0.0039
M67 E0 Q0
G1 X0.0472
M67 E0 Q1
G1 X0.004
M67 E0 Q0
G1 X0.0236
M67 E0 Q1
G1 X0.0039
M67 E0 Q0
G1 X0.0118
M67 E0 Q1
G1 X0.004
M67 E0 Q0
G1 X0.0275
M67 E0 Q1
G1 X0.004
M67 E0 Q0
G1 X0.0236
M67 E0 Q1
G1 X0.0039
M67 E0 Q0
G1 X0.0276
M67 E0 Q1
G1 X0.0039
M67 E0 Q0
G1 X0.0118
M67 E0 Q1
G1 X0.004
M67 E0 Q0
G1 X0.0079
M67 E0 Q1
G1 X0.0039
M67 E0 Q0
G1 X0.0157
M67 E0 Q1
G1 X0.004
M67 E0 Q0
G1 X0.0512
M67 E0 Q1
G1 X0.0039
M67 E0 Q0
G1 X0.0118
M67 E0 Q1
G1 X0.0039
M67 E0 Q0
G1 X0.8229
M67 E0 Q1
G1 X0.0039
M67 E0 Q0
G1 X0.0236
M67 E0 Q1
G1 X0.004
M67 E0 Q0
G1 X0.0236
M67 E0 Q1
G1 X0.0039
M67 E0 Q0
G1 X0.0512
M67 E0 Q1
G1 X0.0039
M67 E0 Q0
G1 X0.0276
M67 E0 Q1
G1 X0.0039
M67 E0 Q0
G1 X0.0079
M67 E0 Q1
G1 X0.004
M67 E0 Q0
G1 X0.0078
M67 E0 Q1
G1 X0.004
M67 E0 Q0
G1 X0.0078
M67 E0 Q1
G1 X0.004
M67 E0 Q0
G1 X0.0433
M67 E0 Q1
G1 X0.0039
M67 E0 Q0
G1 X0.0591
M67 E0 Q1
G1 X0.0039
M67 E0 Q0
G1 X0.0551
M67 E0 Q1
G1 X0.004
M67 E0 Q0
G1 X0.0197
M67 E0 Q1
G1 X0.0039
M67 E0 Q0
G1 X0.3701
M67 E0 Q1
G1 X0.0039
M67 E0 Q0
G1 X0.0236
M67 E0 Q1
G1 X0.004
M67 E0 Q0
G1 X0.0236
M67 E0 Q1
G1 X0.0039
M67 E0 Q0
G1 X0.0236
M67 E0 Q1
G1 X0.004
M67 E0 Q0
G1 X0.0236
M67 E0 Q1
G1 X0.0039
M67 E0 Q0
G1 X0.0237
M67 E0 Q1
G1 X0.0039
M67 E0 Q0
G1 X0.0236
M67 E0 Q1
G1 X0.004
M67 E0 Q0
G1 X0.0236
M67 E0 Q1
G1 X0.0039
M67 E0 Q0
G1 X0.0236
M67 E0 Q1
G1 X0.004
M67 E0 Q0
G1 X0.0236
M67 E0 Q1
G1 X0.0039
M67 E0 Q0
G1 X0.0237
M67 E0 Q1
G1 X0.0039
M67 E0 Q0
G1 X0.0236
M67 E0 Q1
G1 X0.004
M67 E0 Q0
G1 X0.0236
M67 E0 Q1
G1 X0.0039
M67 E0 Q0
G1 X0.0236
M67 E0 Q1
G1 X0.004
M67 E0 Q0
G1 X0.0236
M67 E0 Q1
G1 X0.0039
M67 E0 Q0
G1 X0.0237
M67 E0 Q1
G1 X0.0039
M67 E0 Q0
G1 X0.0236
M67 E0 Q1
G1 X0.0039
M67 E0 Q0
G1 X0.0237
M67 E0 Q1
G1 X0.0039
M67 E0 Q0
G1 X0.0236
M67 E0 Q1
G1 X0.004
M67 E0 Q0
G1 X0.0416
G1 X0.2402Y0.004
G1 X-0.0417
M67 E0 Q1
G1 X-0.0039
M67 E0 Q0
G1 X-0.9764
M67 E0 Q1
G1 X-0.0039
M67 E0 Q0
G1 X-0.0512
M67 E0 Q1
G1 X-0.0039
M67 E0 Q0
G1 X-0.0552
M67 E0 Q1
G1 X-0.0039
M67 E0 Q0
G1 X-0.0827
M67 E0 Q1
G1 X-0.0039
M67 E0 Q0
G1 X-0.0197
M67 E0 Q1
G1 X-0.0039
M67 E0 Q0
G1 X-0.0079
M67 E0 Q1
G1 X-0.0039
M67 E0 Q0
G1 X-0.0079
M67 E0 Q1
G1 X-0.004
M67 E0 Q0
G1 X-0.0078
M67 E0 Q1
G1 X-0.004
M67 E0 Q0
G1 X-0.0236
M67 E0 Q1
G1 X-0.0039
M67 E0 Q0
G1 X-0.0591
M67 E0 Q1
G1 X-0.0039
M67 E0 Q0
G1 X-0.0236
M67 E0 Q1
G1 X-0.004
M67 E0 Q0
G1 X-0.0197
M67 E0 Q1
G1 X-0.0039
M67 E0 Q0
G1 X-0.0079
M67 E0 Q1
G1 X-0.0039
M67 E0 Q0
G1 X-0.0079
M67 E0 Q1
G1 X-0.0039
M67 E0 Q0
G1 X-0.0079
M67 E0 Q1
G1 X-0.0039
M67 E0 Q0
G1 X-0.0473
M67 E0 Q1
G1 X-0.0039
M67 E0 Q0
G1 X-0.8622
M67 E0 Q1
G1 X-0.004
M67 E0 Q0
G1 X-0.0196
M67 E0 Q1
G1 X-0.004
M67 E0 Q0
G1 X-0.0039
M67 E0 Q1
G1 X-0.004
M67 E0 Q0
G1 X-0.0708
M67 E0 Q1
G1 X-0.004
M67 E0 Q0
G1 X-0.0236
M67 E0 Q1
G1 X-0.0039
M67 E0 Q0
G1 X-0.0315
M67 E0 Q1
G1 X-0.0039
M67 E0 Q0
G1 X-0.0749
M67 E0 Q1
G1 X-0.0039
M67 E0 Q0
G1 X-0.0079
M67 E0 Q1
G1 X-0.0039
M67 E0 Q0
G1 X-0.5118
M67 E0 Q1
G1 X-0.0039
M67 E0 Q0
G1 X-0.0237
M67 E0 Q1
G1 X-0.0039
M67 E0 Q0
G1 X-0.0236
M67 E0 Q1
G1 X-0.004
M67 E0 Q0
G1 X-0.0236
M67 E0 Q1
G1 X-0.0039
M67 E0 Q0
G1 X-0.0236
M67 E0 Q1
G1 X-0.004
M67 E0 Q0
G1 X-0.3937
M67 E0 Q1
G1 X-0.0039
M67 E0 Q0
G1 X-0.0417
G1 X0.7874Y0.0039
G1 X0.0417
M67 E0 Q1
G1 X0.0039
M67 E0 Q0
G1 X0.0236
M67 E0 Q1
G1 X0.004
M67 E0 Q0
G1 X0.0708
M67 E0 Q1
G1 X0.004
M67 E0 Q0
G1 X0.0079
M67 E0 Q1
G1 X0.0039
M67 E0 Q0
G1 X0.0551
M67 E0 Q1
G1 X0.0039
M67 E0 Q0
G1 X0.0827
M67 E0 Q1
G1 X0.004
M67 E0 Q0
G1 X0.0196
M67 E0 Q1
G1 X0.004
M67 E0 Q0
G1 X0.0236
M67 E0 Q1
G1 X0.0039
M67 E0 Q0
G1 X0.0827
M67 E0 Q1
G1 X0.004
M67 E0 Q0
G1 X0.0157
M67 E0 Q1
G1 X0.0039
M67 E0 Q0
G1 X0.0237
M67 E0 Q1
G1 X0.0039
M67 E0 Q0
G1 X0.0354
M67 E0 Q1
G1 X0.004
M67 E0 Q0
G1 X0.0236
M67 E0 Q1
G1 X0.0039
M67 E0 Q0
G1 X0.8662
M67 E0 Q1
G1 X0.0039
M67 E0 Q0
G1 X0.0079
M67 E0 Q1
G1 X0.0039
M67 E0 Q0
G1 X0.1417
M67 E0 Q1
G1 X0.004
M67 E0 Q0
G1 X0.1181
M67 E0 Q1
G1 X0.0039
M67 E0 Q0
G1 X0.0158
M67 E0 Q1
G1 X0.0039
M67 E0 Q0
G1 X0.0079
M67 E0 Q1
G1 X0.0039
M67 E0 Q0
G1 X0.0827
M67 E0 Q1
G1 X0.0039
M67 E0 Q0
G1 X0.0906
M67 E0 Q1
G1 X0.0039
M67 E0 Q0
G1 X0.9134
M67 E0 Q1
G1 X0.004
M67 E0 Q0
G1 X0.1063
M67 E0 Q1
G1 X0.0039
M67 E0 Q0
G1 X0.0433
M67 E0 Q1
G1 X0.0039
M67 E0 Q0
G1 X0.0237
M67 E0 Q1
G1 X0.0039
M67 E0 Q0
G1 X0.0236
M67 E0 Q1
G1 X0.004
M67 E0 Q0
G1 X0.0236
M67 E0 Q1
G1 X0.0039
M67 E0 Q0
G1 X0.0236
M67 E0 Q1
G1 X0.004
M67 E0 Q0
G1 X0.0416
G1 X-0.1338Y0.0039
G1 X-0.0417
M67 E0 Q1
G1 X-0.0039
M67 E0 Q0
G1 X-0.9567
M67 E0 Q1
G1 X-0.004
M67 E0 Q0
G1 X-0.1259
M67 E0 Q1
G1 X-0.004
M67 E0 Q0
G1 X-0.0118
M67 E0 Q1
G1 X-0.0039
M67 E0 Q0
G1 X-0.0512
M67 E0 Q1
G1 X-0.0039
M67 E0 Q0
G1 X-0.0119
M67 E0 Q1
G1 X-0.0039
M67 E0 Q0
G1 X-0.0197
M67 E0 Q1
G1 X-0.0039
M67 E0 Q0
G1 X-0.0118
M67 E0 Q1
G1 X-0.004
M67 E0 Q0
G1 X-0.1299
M67 E0 Q1
G1 X-0.0039
M67 E0 Q0
G1 X-0.0197
M67 E0 Q1
G1 X-0.0039
M67 E0 Q0
G1 X-0.0276
M67 E0 Q1
G1 X-0.0039
M67 E0 Q0
G1 X-0.0118
M67 E0 Q1
G1 X-0.004
M67 E0 Q0
G1 X-0.0197
M67 E0 Q1
G1 X-0.0039
M67 E0 Q0
G1 X-0.0079
M67 E0 Q1
G1 X-0.0039
M67 E0 Q0
G1 X-0.0079
M67 E0 Q1
G1 X-0.0039
M67 E0 Q0
G1 X-0.0512
M67 E0 Q1
G1 X-0.0039
M67 E0 Q0
G1 X-0.0237
M67 E0 Q1
G1 X-0.0039
M67 E0 Q0
G1 X-0.9134
M67 E0 Q1
G1 X-0.0039
M67 E0 Q0
G1 X-0.0473
M67 E0 Q1
G1 X-0.0039
M67 E0 Q0
G1 X-0.0315
M67 E0 Q1
G1 X-0.0039
M67 E0 Q0
G1 X-0.0197
M67 E0 Q1
G1 X-0.004
M67 E0 Q0
G1 X-0.0078
M67 E0 Q1
G1 X-0.004
M67 E0 Q0
G1 X-0.0354
M67 E0 Q1
G1 X-0.0039
M67 E0 Q0
G1 X-0.0197
M67 E0 Q1
G1 X-0.004
M67 E0 Q0
G1 X-0.0433
M67 E0 Q1
G1 X-0.0039
M67 E0 Q0
G1 X-0.0079
M67 E0 Q1
G1 X-0.0039
M67 E0 Q0
G1 X-0.0079
M67 E0 Q1
G1 X-0.0039
M67 E0 Q0
G1 X-0.0118
M67 E0 Q1
G1 X-0.004
M67 E0 Q0
G1 X-0.0236
M67 E0 Q1
G1 X-0.0039
M67 E0 Q0
G1 X-0.0079
M67 E0 Q1
G1 X-0.004
M67 E0 Q0
G1 X-0.0944
M67 E0 Q1
G1 X-0.004
M67 E0 Q0
G1 X-0.0551
M67 E0 Q1
G1 X-0.0039
M67 E0 Q0
G1 X-0.0473
M67 E0 Q1
G1 X-0.0039
M67 E0 Q0
G1 X-0.7323
M67 E0 Q1
G1 X-0.0039
M67 E0 Q0
G1 X-0.0417
G1 X0.815Y0.004
G1 X0.0416
M67 E0 Q1
G1 X0.004
M67 E0 Q0
G1 X0.0472
M67 E0 Q1
G1 X0.0039
M67 E0 Q0
G1 X0.0552
M67 E0 Q1
G1 X0.0039
M67 E0 Q0
G1 X0.1102
M67 E0 Q1
G1 X0.004
M67 E0 Q0
G1 X0.0787
M67 E0 Q1
G1 X0.004
M67 E0 Q0
G1 X0.0275
M67 E0 Q1
G1 X0.0039
M67 E0 Q0
G1 X0.0158
M67 E0 Q1
G1 X0.0039
M67 E0 Q0
G1 X0.0118
M67 E0 Q1
G1 X0.004
M67 E0 Q0
G1 X0.0197
M67 E0 Q1
G1 X0.0039
M67 E0 Q0
G1 X0.0118
M67 E0 Q1
G1 X0.004
M67 E0 Q0
G1 X0.0078
M67 E0 Q1
G1 X0.004
M67 E0 Q0
G1 X0.0157
M67 E0 Q1
G1 X0.0039
M67 E0 Q0
G1 X0.0079
M67 E0 Q1
G1 X0.004
M67 E0 Q0
G1 X0.0236
M67 E0 Q1
G1 X0.0039
M67 E0 Q0
G1 X0.9095
M67 E0 Q1
G1 X0.0039
M67 E0 Q0
G1 X0.0079
M67 E0 Q1
G1 X0.0039
M67 E0 Q0
G1 X0.0079
M67 E0 Q1
G1 X0.0039
M67 E0 Q0
G1 X0.0512
M67 E0 Q1
G1 X0.0039
M67 E0 Q0
G1 X0.0355
M67 E0 Q1
G1 X0.0039
M67 E0 Q0
G1 X0.0276
M67 E0 Q1
G1 X0.0039
M67 E0 Q0
G1 X0.0197
M67 E0 Q1
G1 X0.0039
M67 E0 Q0
G1 X0.0118
M67 E0 Q1
G1 X0.004
M67 E0 Q0
G1 X0.0157
M67 E0 Q1
G1 X0.004
M67 E0 Q0
G1 X0.0118
M67 E0 Q1
G1 X0.0039
M67 E0 Q0
G1 X0.0079
M67 E0 Q1
G1 X0.0039
M67 E0 Q0
G1 X0.0236
M67 E0 Q1
G1 X0.004
M67 E0 Q0
G1 X0.2165
M67 E0 Q1
G1 X0.004
M67 E0 Q0
G1 X0.9842
M67 E0 Q1
G1 X0.0039
M67 E0 Q0
G1 X0.0417
G1 X-0.0394Y0.0039
G1 X-0.0416
M67 E0 Q1
G1 X-0.004
M67 E0 Q0
G1 X-0.0236
M67 E0 Q1
G1 X-0.0039
M67 E0 Q0
G1 X-0.0276
M67 E0 Q1
G1 X-0.0039
M67 E0 Q0
G1 X-0.1299
M67 E0 Q1
G1 X-0.004
M67 E0 Q0
G1 X-0.7362
M67 E0 Q1
G1 X-0.0039
M67 E0 Q0
G1 X-0.0512
M67 E0 Q1
G1 X-0.004
M67 E0 Q0
G1 X-0.0551
M67 E0 Q1
G1 X-0.0039
M67 E0 Q0
G1 X-0.1142
M67 E0 Q1
G1 X-0.0039
M67 E0 Q0
G1 X-0.1339
M67 E0 Q1
G1 X-0.0039
M67 E0 Q0
G1 X-0.0276
M67 E0 Q1
G1 X-0.0039
M67 E0 Q0
G1 X-0.0276
M67 E0 Q1
G1 X-0.0039
M67 E0 Q0
G1 X-0.0315
M67 E0 Q1
G1 X-0.0039
M67 E0 Q0
G1 X-0.3268
M67 E0 Q1
G1 X-0.0039
M67 E0 Q0
G1 X-0.6654
M67 E0 Q1
G1 X-0.0039
M67 E0 Q0
G1 X-0.0591
M67 E0 Q1
G1 X-0.0039
M67 E0 Q0
G1 X-0.063
M67 E0 Q1
G1 X-0.004
M67 E0 Q0
G1 X-0.0078
M67 E0 Q1
G1 X-0.004
M67 E0 Q0
G1 X-0.0157
M67 E0 Q1
G1 X-0.004
M67 E0 Q0
G1 X-0.0275
M67 E0 Q1
G1 X-0.004
M67 E0 Q0
G1 X-0.0787
M67 E0 Q1
G1 X-0.0039
M67 E0 Q0
G1 X-0.0276
M67 E0 Q1
G1 X-0.0039
M67 E0 Q0
G1 X-0.0433
M67 E0 Q1
G1 X-0.004
M67 E0 Q0
G1 X-0.0078
M67 E0 Q1
G1 X-0.004
M67 E0 Q0
G1 X-0.1575
M67 E0 Q1
G1 X-0.0039
M67 E0 Q0
G1 X-0.685
M67 E0 Q1
G1 X-0.004
M67 E0 Q0
G1 X-0.1929
M67 E0 Q1
G1 X-0.0039
M67 E0 Q0
G1 X-0.0417
G1 X0.0315Y0.0039
G1 X0.0417
M67 E0 Q1
G1 X0.0039
M67 E0 Q0
G1 X0.126
M67 E0 Q1
G1 X0.0039
M67 E0 Q0
G1 X0.7599
M67 E0 Q1
G1 X0.0039
M67 E0 Q0
G1 X0.0158
M67 E0 Q1
G1 X0.0039
M67 E0 Q0
G1 X0.0551
M67 E0 Q1
G1 X0.0039
M67 E0 Q0
G1 X0.067
M67 E0 Q1
G1 X0.0039
M67 E0 Q0
G1 X0.0709
M67 E0 Q1
G1 X0.0039
M67 E0 Q0
G1 X0.0079
M67 E0 Q1
G1 X0.0039
M67 E0 Q0
G1 X0.0197
M67 E0 Q1
G1 X0.004
M67 E0 Q0
G1 X0.0118
M67 E0 Q1
G1 X0.0039
M67 E0 Q0
G1 X0.0276
M67 E0 Q1
G1 X0.0039
M67 E0 Q0
G1 X0.0669
M67 E0 Q1
G1 X0.004
M67 E0 Q0
G1 X0.0196
M67 E0 Q1
G1 X0.004
M67 E0 Q0
G1 X1.0669
M67 E0 Q1
G1 X0.004
M67 E0 Q0
G1 X0.0236
M67 E0 Q1
G1 X0.0039
M67 E0 Q0
G1 X0.0079
M67 E0 Q1
G1 X0.0039
M67 E0 Q0
G1 X0.0158
M67 E0 Q1
G1 X0.0039
M67 E0 Q0
G1 X0.0236
M67 E0 Q1
G1 X0.004
M67 E0 Q0
G1 X0.0354
M67 E0 Q1
G1 X0.0039
M67 E0 Q0
G1 X0.0158
M67 E0 Q1
G1 X0.0039
M67 E0 Q0
G1 X0.0158
M67 E0 Q1
G1 X0.0039
M67 E0 Q0
G1 X0.0158
M67 E0 Q1
G1 X0.0039
M67 E0 Q0
G1 X0.0236
M67 E0 Q1
G1 X0.0039
M67 E0 Q0
G1 X0.0158
M67 E0 Q1
G1 X0.0039
M67 E0 Q0
G1 X0.0079
M67 E0 Q1
G1 X0.0039
M67 E0 Q0
G1 X0.0158
M67 E0 Q1
G1 X0.0039
M67 E0 Q0
G1 X0.0079
M67 E0 Q1
G1 X0.0039
M67 E0 Q0
G1 X0.0079
M67 E0 Q1
G1 X0.004
M67 E0 Q0
G1 X0.0118
M67 E0 Q1
G1 X0.0039
M67 E0 Q0
G1 X0.0079
M67 E0 Q1
G1 X0.0039
M67 E0 Q0
G1 X0.0197
M67 E0 Q1
G1 X0.0039
M67 E0 Q0
G1 X0.0118
M67 E0 Q1
G1 X0.004
M67 E0 Q0
G1 X0.0275
M67 E0 Q1
G1 X0.004
M67 E0 Q0
G1 X0.1142
M67 E0 Q1
G1 X0.0039
M67 E0 Q0
G1 X0.0118
M67 E0 Q1
G1 X0.0039
M67 E0 Q0
G1 X0.9213
M67 E0 Q1
G1 X0.0039
M67 E0 Q0
G1 X0.0591
M67 E0 Q1
G1 X0.0039
M67 E0 Q0
G1 X0.0417
G1 X-1.063Y0.004
G1 X-0.0417
M67 E0 Q1
G1 X-0.0039
M67 E0 Q0
G1 X-0.0354
M67 E0 Q1
G1 X-0.004
M67 E0 Q0
G1 X-0.0748
M67 E0 Q1
G1 X-0.0039
M67 E0 Q0
G1 X-0.1221
M67 E0 Q1
G1 X-0.0039
M67 E0 Q0
G1 X-0.0197
M67 E0 Q1
G1 X-0.0039
M67 E0 Q0
G1 X-0.0197
M67 E0 Q1
G1 X-0.0039
M67 E0 Q0
G1 X-0.0434
M67 E0 Q1
G1 X-0.0039
M67 E0 Q0
G1 X-0.0079
M67 E0 Q1
G1 X-0.0039
M67 E0 Q0
G1 X-1.0827
M67 E0 Q1
G1 X-0.0039
M67 E0 Q0
G1 X-0.0079
M67 E0 Q1
G1 X-0.0039
M67 E0 Q0
G1 X-0.0079
M67 E0 Q1
G1 X-0.0039
M67 E0 Q0
G1 X-0.0079
M67 E0 Q1
G1 X-0.0039
M67 E0 Q0
G1 X-0.0119
M67 E0 Q1
G1 X-0.0039
M67 E0 Q0
G1 X-0.0118
M67 E0 Q1
G1 X-0.0039
M67 E0 Q0
G1 X-0.0237
M67 E0 Q1
G1 X-0.0039
M67 E0 Q0
G1 X-0.0472
M67 E0 Q1
G1 X-0.004
M67 E0 Q0
G1 X-0.0118
M67 E0 Q1
G1 X-0.0039
M67 E0 Q0
G1 X-0.067
M67 E0 Q1
G1 X-0.0039
M67 E0 Q0
G1 X-0.0472
M67 E0 Q1
G1 X-0.004
M67 E0 Q0
G1 X-0.0275
M67 E0 Q1
G1 X-0.004
M67 E0 Q0
G1 X-0.0669
M67 E0 Q1
G1 X-0.0039
M67 E0 Q0
G1 X-0.1457
M67 E0 Q1
G1 X-0.0039
M67 E0 Q0
G1 X-0.7599
M67 E0 Q1
G1 X-0.0039
M67 E0 Q0
G1 X-0.0417
G1 X-0.0118Y0.0039
G1 X0.0417
M67 E0 Q1
G1 X0.0039
M67 E0 Q0
G1 X0.0276
M67 E0 Q1
G1 X0.0039
M67 E0 Q0
G1 X0.0197
M67 E0 Q1
G1 X0.0039
M67 E0 Q0
G1 X0.6654
M67 E0 Q1
G1 X0.0039
M67 E0 Q0
G1 X0.0276
M67 E0 Q1
G1 X0.0039
M67 E0 Q0
G1 X0.0591
M67 E0 Q1
G1 X0.0039
M67 E0 Q0
G1 X0.0472
M67 E0 Q1
G1 X0.004
M67 E0 Q0
G1 X0.0118
M67 E0 Q1
G1 X0.0039
M67 E0 Q0
G1 X0.0473
M67 E0 Q1
G1 X0.0039
M67 E0 Q0
G1 X0.0748
M67 E0 Q1
G1 X0.0039
M67 E0 Q0
G1 X0.0197
M67 E0 Q1
G1 X0.004
M67 E0 Q0
G1 X0.0748
M67 E0 Q1
G1 X0.0039
M67 E0 Q0
G1 X0.0079
M67 E0 Q1
G1 X0.0039
M67 E0 Q0
G1 X0.0433
M67 E0 Q1
G1 X0.004
M67 E0 Q0
G1 X0.0078
M67 E0 Q1
G1 X0.004
M67 E0 Q0
G1 X0.0079
M67 E0 Q1
G1 X0.0039
M67 E0 Q0
G1 X0.0236
M67 E0 Q1
G1 X0.0039
M67 E0 Q0
G1 X0.126
M67 E0 Q1
G1 X0.004
M67 E0 Q0
G1 X0.9527
M67 E0 Q1
G1 X0.004
M67 E0 Q0
G1 X0.0078
M67 E0 Q1
G1 X0.004
M67 E0 Q0
G1 X0.0354
M67 E0 Q1
G1 X0.0039
M67 E0 Q0
G1 X0.0079
M67 E0 Q1
G1 X0.004
M67 E0 Q0
G1 X0.0551
M67 E0 Q1
G1 X0.0039
M67 E0 Q0
G1 X0.0315
M67 E0 Q1
G1 X0.0039
M67 E0 Q0
G1 X0.063
M67 E0 Q1
G1 X0.004
M67 E0 Q0
G1 X0.1338
M67 E0 Q1
G1 X0.004
M67 E0 Q0
G1 X0.0393
M67 E0 Q1
G1 X0.004
M67 E0 Q0
G1 X0.0393
M67 E0 Q1
G1 X0.004
M67 E0 Q0
G1 X0.0416
G1 X1.0315Y0.004
G1 X-0.0416
M67 E0 Q1
G1 X-0.004
M67 E0 Q0
G1 X-0.0826
M67 E0 Q1
G1 X-0.004
M67 E0 Q0
G1 X-0.8346
M67 E0 Q1
G1 X-0.004
M67 E0 Q0
G1 X-0.0118
M67 E0 Q1
G1 X-0.0039
M67 E0 Q0
G1 X-0.185
M67 E0 Q1
G1 X-0.004
M67 E0 Q0
G1 X-0.0118
M67 E0 Q1
G1 X-0.0039
M67 E0 Q0
G1 X-0.0394
M67 E0 Q1
G1 X-0.0039
M67 E0 Q0
G1 X-0.0118
M67 E0 Q1
G1 X-0.004
M67 E0 Q0
G1 X-0.063
M67 E0 Q1
G1 X-0.0039
M67 E0 Q0
G1 X-0.0118
M67 E0 Q1
G1 X-0.004
M67 E0 Q0
G1 X-0.0078
M67 E0 Q1
G1 X-0.004
M67 E0 Q0
G1 X-0.0039
M67 E0 Q1
G1 X-0.0039
M67 E0 Q0
G1 X-0.0434
M67 E0 Q1
G1 X-0.0039
M67 E0 Q0
G1 X-0.0079
M67 E0 Q1
G1 X-0.0039
M67 E0 Q0
G1 X-0.0079
M67 E0 Q1
G1 X-0.0039
M67 E0 Q0
G1 X-0.0118
M67 E0 Q1
G1 X-0.004
M67 E0 Q0
G1 X-0.0472
M67 E0 Q1
G1 X-0.0039
M67 E0 Q0
G1 X-0.0079
M67 E0 Q1
G1 X-0.004
M67 E0 Q0
G1 X-1.0708
M67 E0 Q1
G1 X-0.004
M67 E0 Q0
G1 X-0.0118
M67 E0 Q1
G1 X-0.0039
M67 E0 Q0
G1 X-0.1024
M67 E0 Q1
G1 X-0.0039
M67 E0 Q0
G1 X-0.0354
M67 E0 Q1
G1 X-0.004
M67 E0 Q0
G1 X-0.0078
M67 E0 Q1
G1 X-0.004
M67 E0 Q0
G1 X-0.0275
M67 E0 Q1
G1 X-0.004
M67 E0 Q0
G1 X-0.0748
M67 E0 Q1
G1 X-0.0039
M67 E0 Q0
G1 X-0.0118
M67 E0 Q1
G1 X-0.004
M67 E0 Q0
G1 X-0.0118
M67 E0 Q1
G1 X-0.0039
M67 E0 Q0
G1 X-0.0433
M67 E0 Q1
G1 X-0.004
M67 E0 Q0
G1 X-0.0905
M67 E0 Q1
G1 X-0.0039
M67 E0 Q0
G1 X-0.815
M67 E0 Q1
G1 X-0.0039
M67 E0 Q0
G1 X-0.063
M67 E0 Q1
G1 X-0.004
M67 E0 Q0
G1 X-0.0416
G1 X0.0354Y0.0039
G1 X0.0417
M67 E0 Q1
G1 X0.0039
M67 E0 Q0
G1 X0.0118
M67 E0 Q1
G1 X0.0039
M67 E0 Q0
G1 X0.8701
M67 E0 Q1
G1 X0.004
M67 E0 Q0
G1 X0.0708
M67 E0 Q1
G1 X0.004
M67 E0 Q0
G1 X0.0708
M67 E0 Q1
G1 X0.004
M67 E0 Q0
G1 X0.0708
M67 E0 Q1
G1 X0.004
M67 E0 Q0
G1 X0.0393
M67 E0 Q1
G1 X0.004
M67 E0 Q0
G1 X0.0354
M67 E0 Q1
G1 X0.0039
M67 E0 Q0
G1 X0.0079
M67 E0 Q1
G1 X0.004
M67 E0 Q0
G1 X0.0393
M67 E0 Q1
G1 X0.004
M67 E0 Q0
G1 X0.0078
M67 E0 Q1
G1 X0.004
M67 E0 Q0
G1 X0.0118
M67 E0 Q1
G1 X0.0039
M67 E0 Q0
G1 X0.0315
M67 E0 Q1
G1 X0.004
M67 E0 Q0
G1 X1.0826
M67 E0 Q1
G1 X0.004
M67 E0 Q0
G1 X0.0118
M67 E0 Q1
G1 X0.0039
M67 E0 Q0
G1 X0.0118
M67 E0 Q1
G1 X0.004
M67 E0 Q0
G1 X0.0157
M67 E0 Q1
G1 X0.0039
M67 E0 Q0
G1 X0.0394
M67 E0 Q1
G1 X0.004
M67 E0 Q0
G1 X0.0748
M67 E0 Q1
G1 X0.0039
M67 E0 Q0
G1 X0.0157
M67 E0 Q1
G1 X0.004
M67 E0 Q0
G1 X0.0079
M67 E0 Q1
G1 X0.0039
M67 E0 Q0
G1 X0.0079
M67 E0 Q1
G1 X0.0039
M67 E0 Q0
G1 X0.0433
M67 E0 Q1
G1 X0.0039
M67 E0 Q0
G1 X0.067
M67 E0 Q1
G1 X0.0039
M67 E0 Q0
G1 X0.0394
M67 E0 Q1
G1 X0.0039
M67 E0 Q0
G1 X0.0394
M67 E0 Q1
G1 X0.0039
M67 E0 Q0
G1 X0.0118
M67 E0 Q1
G1 X0.004
M67 E0 Q0
G1 X0.0945
M67 E0 Q1
G1 X0.0039
M67 E0 Q0
G1 X0.7795
M67 E0 Q1
G1 X0.004
M67 E0 Q0
G1 X0.0416
G1 X0.1063Y0.0039
G1 X-0.0416
M67 E0 Q1
G1 X-0.004
M67 E0 Q0
G1 X-0.937
M67 E0 Q1
G1 X-0.0039
M67 E0 Q0
G1 X-0.1339
M67 E0 Q1
G1 X-0.0039
M67 E0 Q0
G1 X-0.0669
M67 E0 Q1
G1 X-0.004
M67 E0 Q0
G1 X-0.1653
M67 E0 Q1
G1 X-0.004
M67 E0 Q0
G1 X-0.0275
M67 E0 Q1
G1 X-0.004
M67 E0 Q0
G1 X-0.0078
M67 E0 Q1
G1 X-0.004
M67 E0 Q0
G1 X-0.0354
M67 E0 Q1
G1 X-0.0039
M67 E0 Q0
G1 X-1.1772
M67 E0 Q1
G1 X-0.0039
M67 E0 Q0
G1 X-0.0079
M67 E0 Q1
G1 X-0.004
M67 E0 Q0
G1 X-0.0078
M67 E0 Q1
G1 X-0.004
M67 E0 Q0
G1 X-0.0472
M67 E0 Q1
G1 X-0.004
M67 E0 Q0
G1 X-0.0393
M67 E0 Q1
G1 X-0.004
M67 E0 Q0
G1 X-0.0315
M67 E0 Q1
G1 X-0.0039
M67 E0 Q0
G1 X-0.0079
M67 E0 Q1
G1 X-0.0039
M67 E0 Q0
G1 X-0.0079
M67 E0 Q1
G1 X-0.0039
M67 E0 Q0
G1 X-0.0118
M67 E0 Q1
G1 X-0.004
M67 E0 Q0
G1 X-0.0416
G1 X-0.2992Y0.004
G1 X0.0416
M67 E0 Q1
G1 X0.004
M67 E0 Q0
G1 X0.0315
M67 E0 Q1
G1 X0.0039
M67 E0 Q0
G1 X0.0394
M67 E0 Q1
G1 X0.0039
M67 E0 Q0
G1 X0.0709
M67 E0 Q1
G1 X0.0039
M67 E0 Q0
G1 X0.0118
M67 E0 Q1
G1 X0.004
M67 E0 Q0
G1 X0.0275
M67 E0 Q1
G1 X0.0039
M67 E0 Q0
G1 X0.0237
M67 E0 Q1
G1 X0.0039
M67 E0 Q0
G1 X0.0158
M67 E0 Q1
G1 X0.0039
M67 E0 Q0
G1 X0.0118
M67 E0 Q1
G1 X0.0039
M67 E0 Q0
G1 X0.0827
M67 E0 Q1
G1 X0.004
M67 E0 Q0
G1 X0.0354
M67 E0 Q1
G1 X0.0039
M67 E0 Q0
G1 X0.0355
M67 E0 Q1
G1 X0.0039
M67 E0 Q0
G1 X0.0866
M67 E0 Q1
G1 X0.0039
M67 E0 Q0
G1 X0.0709
M67 E0 Q1
G1 X0.004
M67 E0 Q0
G1 X1.1653
M67 E0 Q1
G1 X0.0039
M67 E0 Q0
G1 X0.0158
M67 E0 Q1
G1 X0.0039
M67 E0 Q0
G1 X0.0158
M67 E0 Q1
G1 X0.0039
M67 E0 Q0
G1 X0.0079
M67 E0 Q1
G1 X0.0039
M67 E0 Q0
G1 X0.0118
M67 E0 Q1
G1 X0.004
M67 E0 Q0
G1 X0.0393
M67 E0 Q1
G1 X0.004
M67 E0 Q0
G1 X0.0079
M67 E0 Q1
G1 X0.0039
M67 E0 Q0
G1 X0.0079
M67 E0 Q1
G1 X0.0039
M67 E0 Q0
G1 X0.0354
M67 E0 Q1
G1 X0.004
M67 E0 Q0
G1 X0.0275
M67 E0 Q1
G1 X0.004
M67 E0 Q0
G1 X0.0393
M67 E0 Q1
G1 X0.004
M67 E0 Q0
G1 X0.0275
M67 E0 Q1
G1 X0.004
M67 E0 Q0
G1 X0.059
M67 E0 Q1
G1 X0.004
M67 E0 Q0
G1 X0.9212
M67 E0 Q1
G1 X0.004
M67 E0 Q0
G1 X0.0118
M67 E0 Q1
G1 X0.0039
M67 E0 Q0
G1 X0.0417
G1 X-0.063Y0.0039
G1 X-0.0417
M67 E0 Q1
G1 X-0.0039
M67 E0 Q0
G1 X-0.8583
M67 E0 Q1
G1 X-0.0039
M67 E0 Q0
G1 X-0.0591
M67 E0 Q1
G1 X-0.0039
M67 E0 Q0
G1 X-0.1063
M67 E0 Q1
G1 X-0.004
M67 E0 Q0
G1 X-0.0354
M67 E0 Q1
G1 X-0.0039
M67 E0 Q0
G1 X-0.0512
M67 E0 Q1
G1 X-0.0039
M67 E0 Q0
G1 X-0.0079
M67 E0 Q1
G1 X-0.004
M67 E0 Q0
G1 X-0.0669
M67 E0 Q1
G1 X-0.0039
M67 E0 Q0
G1 X-0.0197
M67 E0 Q1
G1 X-0.0039
M67 E0 Q0
G1 X-0.004
M67 E0 Q1
G1 X-0.0039
M67 E0 Q0
G1 X-0.0433
M67 E0 Q1
G1 X-0.004
M67 E0 Q0
G1 X-0.0118
M67 E0 Q1
G1 X-0.0039
M67 E0 Q0
G1 X-1.0079
M67 E0 Q1
G1 X-0.0039
M67 E0 Q0
G1 X-0.1575
M67 E0 Q1
G1 X-0.0039
M67 E0 Q0
G1 X-0.0355
M67 E0 Q1
G1 X-0.0039
M67 E0 Q0
G1 X-0.0079
M67 E0 Q1
G1 X-0.0039
M67 E0 Q0
