; LightBurn 1.4.00
; LinuxCNC device profile, absolute coords
; Bounds: X5.7 Y5.65 to X125.64 Y121.46

;USER START SCRIPT
M64 P2
;USER START SCRIPT

G20
G90
; Cut @ 96 in/min, 100% power
M8
M67 E0 Q0
G0 X0.319 Y0.5314 F0
; Layer C00
M67 E0 Q1
G1 X0.3232 Y0.5398 F96
G1 X0.3253 Y0.5393
G1 X0.319 Y0.5314
M67 E0 Q0
G0 X0.4294 Y0.5224 F0
M67 E0 Q1
G1 X0.4285 Y0.5168 F96
G1 X0.4293 Y0.5111
G1 X0.4321 Y0.5061
G1 X0.4367 Y0.5026
G1 X0.4432 Y0.5012
G1 X0.4497 Y0.5024
G1 X0.4544 Y0.5059
G1 X0.4573 Y0.5108
G1 X0.4583 Y0.5165
G1 X0.4574 Y0.5221
G1 X0.4547 Y0.5271
G1 X0.4501 Y0.5307
G1 X0.4435 Y0.5321
G1 X0.437 Y0.5308
G1 X0.4323 Y0.5274
G1 X0.4294 Y0.5224
M67 E0 Q0
G0 X0.4588 Y0.5401 F0
M67 E0 Q1
G1 X0.4617 Y0.5378 F96
G1 X0.4651 Y0.5364
G1 X0.4688 Y0.5358
G1 X0.4757 Y0.5365
G1 X0.4783 Y0.5374
G1 X0.4807 Y0.5385
G1 X0.4827 Y0.5402
G1 X0.4845 Y0.5422
G1 X0.4856 Y0.5445
G1 X0.4866 Y0.5471
G1  Y0.5498
G1  Y0.5534
G1 X0.4851 Y0.5567
G1 X0.4829 Y0.5595
G1 X0.4802 Y0.5617
G1 X0.4769 Y0.5631
G1 X0.4691 Y0.5641
G1 X0.4663
G1 X0.4636 Y0.563
G1 X0.4612 Y0.5618
G1 X0.4591 Y0.5601
G1 X0.4573 Y0.558
G1 X0.4561 Y0.5556
G1 X0.4551 Y0.553
G1  Y0.5501
G1  Y0.5464
G1 X0.4566 Y0.543
G1 X0.4588 Y0.5401
M67 E0 Q0
G0 X0.542 Y0.5413 F0
M67 E0 Q1
G1 X0.5436 Y0.5234 F96
G1 X0.542 Y0.5059
G1 X0.5367 Y0.4861
G1 X0.5287 Y0.4673
G1 X0.5185 Y0.4494
G1 X0.5065 Y0.4325
G1 X0.493 Y0.4165
G1 X0.4785 Y0.4015
G1 X0.4635 Y0.3873
G1 X0.4482 Y0.3741
G1 X0.4306 Y0.3602
G1 X0.4124 Y0.3473
G1 X0.3938 Y0.3354
G1 X0.3746 Y0.3244
G1 X0.3537 Y0.3169
G1 X0.3324 Y0.3105
G1 X0.3108 Y0.3053
G1 X0.2889 Y0.3012
G1 X0.3171 Y0.3457
G1 X0.3472 Y0.3889
G1 X0.3793 Y0.4306
G1 X0.4137 Y0.4704
G1 X0.4153 Y0.4748
G1 X0.4135 Y0.4787
G1 X0.4098 Y0.4805
G1 X0.4055 Y0.4788
G1 X0.3686 Y0.441
G1 X0.3334 Y0.4016
G1 X0.3004 Y0.3605
G1 X0.2696 Y0.3176
G1  Y0.3584
G1 X0.2731 Y0.3845
G1 X0.2778 Y0.4104
G1 X0.2838 Y0.4359
G1 X0.2911 Y0.4611
G1 X0.3002 Y0.478
G1 X0.3102 Y0.4944
G1 X0.3211 Y0.5101
G1 X0.333 Y0.5252
G1 X0.3463 Y0.5401
G1 X0.3605 Y0.5543
G1 X0.3755 Y0.5676
G1 X0.3913 Y0.5798
G1 X0.4096 Y0.5921
G1 X0.4294 Y0.6026
G1 X0.4398 Y0.6066
G1 X0.4505 Y0.6096
G1 X0.4614 Y0.6113
G1 X0.4725
G1 X0.4818 Y0.6104
G1 X0.4906 Y0.608
G1 X0.4987 Y0.6046
G1 X0.5062 Y0.6003
G1 X0.5193 Y0.5889
G1 X0.5297 Y0.5748
G1 X0.5373 Y0.5587
G1 X0.542 Y0.5413
M67 E0 Q0
G0 X0.5556 Y0.5494 F0
M67 E0 Q1
G1 X0.5522 Y0.5609 F96
G1 X0.5477 Y0.572
G1 X0.5421 Y0.5825
G1 X0.5355 Y0.5922
G1 X0.5279 Y0.6012
G1 X0.5192 Y0.6091
G1 X0.5095 Y0.6158
G1 X0.4987 Y0.6212
G1 X0.4889 Y0.6247
G1 X0.479 Y0.6267
G1 X0.4691 Y0.6276
G1 X0.4592
G1 X0.4397 Y0.6236
G1 X0.4205 Y0.6165
G1 X0.4384 Y0.6258
G1 X0.4573 Y0.6322
G1 X0.4671 Y0.6342
G1 X0.4771 Y0.6352
G1 X0.4873
G1 X0.4978 Y0.634
G1 X0.5069 Y0.632
G1 X0.5156 Y0.629
G1 X0.5238 Y0.6249
G1 X0.5313 Y0.6199
G1 X0.538 Y0.6138
G1 X0.5437 Y0.6068
G1 X0.5484 Y0.5989
G1 X0.5517 Y0.5901
G1 X0.5541 Y0.5802
G1 X0.5554 Y0.57
G1 X0.5559 Y0.5598
G1  Y0.5494
M67 E0 Q0
G0 X0.6578 Y0.5722 F0
M67 E0 Q1
G1 X0.6592 Y0.5909 F96
G1 X0.6584 Y0.6096
G1 X0.6553 Y0.6281
G1 X0.6496 Y0.6462
G1 X0.6421 Y0.6623
G1 X0.6327 Y0.677
G1 X0.6217 Y0.6899
G1 X0.6091 Y0.701
G1 X0.595 Y0.7102
G1 X0.5796 Y0.7173
G1 X0.563 Y0.7222
G1 X0.5453 Y0.7249
G1 X0.523
G1 X0.5007 Y0.7228
G1 X0.4788 Y0.718
G1 X0.4575 Y0.711
G1 X0.4772 Y0.7273
G1 X0.4976 Y0.7429
G1 X0.5186 Y0.7576
G1 X0.5401 Y0.7715
G1 X0.5848 Y0.7968
G1 X0.6311 Y0.8189
G1 X0.6618 Y0.8313
G1 X0.6931 Y0.8425
G1 X0.7248 Y0.8525
G1 X0.7569 Y0.8613
G1 X0.7268 Y0.8342
G1 X0.6979 Y0.8056
G1 X0.6703 Y0.7758
G1 X0.6439 Y0.7453
G1 X0.6425 Y0.7409
G1 X0.6443 Y0.737
G1 X0.6479 Y0.7352
G1 X0.6519 Y0.7371
G1 X0.6687 Y0.7553
G1 X0.686 Y0.7728
G1 X0.7039 Y0.7896
G1 X0.7226 Y0.8058
G1 X0.7548 Y0.8308
G1 X0.7881 Y0.8542
G1 X0.7612 Y0.7816
G1 X0.7309 Y0.7096
G1 X0.7144 Y0.6742
G1 X0.6967 Y0.6394
G1 X0.6779 Y0.6053
G1 X0.6578 Y0.5722
M67 E0 Q0
G0 X0.6233 Y0.6457 F0
M67 E0 Q1
G1 X0.6222 F96
G1 X0.621
G1 X0.6143 Y0.6587
G1 X0.606 Y0.6702
G1 X0.5962 Y0.6802
G1 X0.5851 Y0.6888
G1 X0.5961 Y0.6811
G1 X0.6058 Y0.6719
G1 X0.6141 Y0.6615
G1 X0.6212 Y0.6501
G1 X0.6233 Y0.6457
M67 E0 Q0
G0 X0.8515 Y0.7089 F0
M67 E0 Q1
G1 X0.8575 Y0.7044 F96
G1 X0.8658 Y0.7026
G1 X0.8742 Y0.7042
G1 X0.8802 Y0.7086
G1 X0.8838 Y0.7149
G1 X0.8851 Y0.7221
G1 X0.884 Y0.7294
G1 X0.8805 Y0.7358
G1 X0.8746 Y0.7403
G1 X0.8662 Y0.7421
G1 X0.8579 Y0.7405
G1 X0.8518 Y0.7361
G1 X0.8482 Y0.7298
G1 X0.8469 Y0.7226
G1 X0.848 Y0.7153
G1 X0.8515 Y0.7089
M67 E0 Q0
G0 X0.9612 Y0.7277 F0
M67 E0 Q1
G1 X0.9567 Y0.7455 F96
G1 X0.9538 Y0.7639
G1 X0.9529 Y0.7821
G1 X0.954 Y0.8004
G1 X0.9566 Y0.8188
G1 X0.9606 Y0.8404
G1 X0.9629 Y0.8617
G1 X0.9775 Y0.845
G1 X0.9913 Y0.8277
G1 X1.0037 Y0.8097
G1 X1.0144 Y0.7909
G1 X1.0231 Y0.7712
G1 X1.0294 Y0.7505
G1 X1.0329 Y0.7288
G1 X1.0334 Y0.7058
G1 X1.033 Y0.6993
G1 X1.0323 Y0.6929
G1 X1.0217 Y0.6721
G1 X1.0167 Y0.6967
G1 X1.011 Y0.7212
G1 X1.0044 Y0.7455
G1 X0.997 Y0.7697
G1 X0.9956 Y0.7723
G1 X0.9934 Y0.7739
G1 X0.9909 Y0.7746
G1 X0.9883
G1 X0.9859 Y0.7733
G1 X0.9841 Y0.7715
G1 X0.9832 Y0.7691
G1  Y0.7661
G1 X0.9913 Y0.7363
G1 X0.9981 Y0.7062
G1 X1.0037 Y0.6759
G1 X1.0082 Y0.6455
G1 X1.0055 Y0.6401
G1 X0.9933 Y0.6581
G1 X0.9822 Y0.6769
G1 X0.9741 Y0.6934
G1 X0.9671 Y0.7104
G1 X0.9612 Y0.7277
M67 E0 Q0
G0 X1.088 Y0.652 F0
M67 E0 Q1
G1 X1.103 Y0.6624 F96
G1 X1.1185 Y0.6722
G1 X1.1406 Y0.6848
G1 X1.1641 Y0.6959
G1 X1.1508 Y0.6706
G1 X1.1374 Y0.6453
G1 X1.127 Y0.6283
G1 X1.1154 Y0.6124
G1 X1.1024 Y0.5977
G1 X1.0877 Y0.5841
G1 X1.0645 Y0.567
G1 X1.0396 Y0.5522
G1 X1.0136 Y0.5393
G1 X0.9869 Y0.5277
G1 X0.9947 Y0.5405
G1 X1.0023 Y0.5534
G1 X1.0219 Y0.5676
G1 X1.041 Y0.5821
G1 X1.0666 Y0.6025
G1 X1.0915 Y0.6238
G1 X1.0936 Y0.628
G1 X1.0918 Y0.6317
G1 X1.0878 Y0.6337
G1 X1.0832 Y0.6323
G1 X1.0575 Y0.6132
G1 X1.0312 Y0.5951
G1 X1.0211 Y0.5887
G1 X1.0221 Y0.5908
G1 X1.0401 Y0.6108
G1 X1.0594 Y0.6291
G1 X1.0734 Y0.6409
G1 X1.088 Y0.652
M67 E0 Q0
G0 X1.1301 Y0.7856 F0
M67 E0 Q1
G1 X1.1316 Y0.7886 F96
G1 X1.1345
G1 X1.1372 Y0.7897
G1 X1.1865 Y0.8148
G1 X1.236 Y0.8393
G1 X1.2383 Y0.8421
G1  Y0.8456
G1 X1.2358 Y0.8483
G1 X1.2322
G1 X1.1923 Y0.8335
G1 X1.1523 Y0.8187
G1 X1.171 Y0.8384
G1 X1.1921 Y0.8556
G1 X1.2151 Y0.8702
G1 X1.2398 Y0.8819
G1 X1.2656 Y0.8905
G1 X1.2923 Y0.8958
G1 X1.3193 Y0.8976
G1 X1.3463 Y0.8956
G1 X1.3221 Y0.8768
G1 X1.2969 Y0.8594
G1 X1.2709 Y0.8433
G1 X1.2441 Y0.8287
G1 X1.2166 Y0.8155
G1 X1.1884 Y0.804
G1 X1.1595 Y0.794
G1 X1.1301 Y0.7856
M67 E0 Q0
G0 X1.1795 Y0.9226 F0
M67 E0 Q1
G1 X1.177 Y0.9537 F96
G1 X1.1765 Y0.9848
G1 X1.1775 Y1.0003
G1 X1.1793 Y1.0158
G1 X1.1823 Y1.0314
G1 X1.1865 Y1.047
G1 X1.1924 Y1.0637
G1 X1.1994 Y1.0801
G1 X1.2074 Y1.0962
G1 X1.2164 Y1.112
G1 X1.2364 Y1.1424
G1 X1.2584 Y1.171
G1 X1.259 Y1.1416
G1 X1.2574 Y1.1121
G1 X1.2538 Y1.0828
G1 X1.2481 Y1.0537
G1 X1.2404 Y1.0251
G1 X1.2306 Y0.9973
G1 X1.2187 Y0.9703
G1 X1.2048 Y0.9443
G1 X1.2165 Y0.9904
G1 X1.2284 Y1.0364
G1  Y1.0393
G1 X1.2277 Y1.0417
G1 X1.226 Y1.0434
G1 X1.2237 Y1.0445
G1 X1.2213
G1 X1.2189
G1 X1.2169 Y1.0426
G1 X1.2156 Y1.0401
G1 X1.1978 Y0.9813
G1 X1.1795 Y0.9226
M67 E0 Q0
G0 X1.3482 Y1.015 F0
M67 E0 Q1
G1 X1.3812 Y1.0441 F96
G1 X1.4151 Y1.0713
G1 X1.4659 Y1.1093
G1 X1.5183 Y1.145
G1 X1.521 Y1.1476
G1 X1.5223 Y1.1508
G1  Y1.1541
G1 X1.5211 Y1.1572
G1 X1.5191 Y1.1597
G1 X1.5163 Y1.1613
G1 X1.5131
G1 X1.5096 Y1.1602
G1 X1.4572 Y1.1253
G1 X1.4063 Y1.0882
G1 X1.3817 Y1.0693
G1 X1.3574 Y1.0501
G1 X1.3464 Y1.041
G1 X1.3354 Y1.0317
G1 X1.3542 Y1.0593
G1 X1.3736 Y1.0864
G1 X1.3944 Y1.1124
G1 X1.4173 Y1.1364
G1 X1.4392 Y1.1547
G1 X1.463 Y1.1702
G1 X1.4883 Y1.1833
G1 X1.5147 Y1.1941
G1 X1.5429 Y1.2034
G1 X1.5717 Y1.2112
G1 X1.5868 Y1.2146
G1 X1.602 Y1.2176
G1 X1.6091 Y1.2189
G1 X1.6161 Y1.22
G1 X1.6244 Y1.2212
G1 X1.613 Y1.2039
G1 X1.5852 Y1.1649
G1 X1.5683 Y1.1434
G1 X1.5511 Y1.1238
G1 X1.5327 Y1.1053
G1 X1.513 Y1.0883
G1 X1.4918 Y1.0731
G1 X1.4751 Y1.0628
G1 X1.4579 Y1.0537
G1 X1.4403 Y1.0455
G1 X1.4224 Y1.0381
G1 X1.3857 Y1.0255
G1 X1.3482 Y1.015
M67 E0 Q0
G0 X1.0931 Y1.3254 F0
M67 E0 Q1
G1 X1.0716 Y1.3199 F96
G1 X1.0456 Y1.3158
G1 X1.0195 Y1.3139
G1 X0.9932
G1 X0.9669 Y1.3149
G1 X0.9882 Y1.3201
G1 X1.0092 Y1.3263
G1 X1.0301 Y1.3333
G1 X1.0507 Y1.3412
G1 X1.0542 Y1.3446
G1  Y1.349
G1 X1.0522 Y1.3524
G1 X1.0477
G1 X1.0148 Y1.3427
G1 X0.9812 Y1.3359
G1 X0.947 Y1.332
G1 X0.9127 Y1.3309
G1 X0.9221 Y1.3353
G1 X0.9313 Y1.3398
G1 X0.972 Y1.3604
G1 X1.0131 Y1.3801
G1 X1.0342 Y1.3888
G1 X1.0561 Y1.396
G1 X1.0786 Y1.4005
G1 X1.1015 Y1.4013
G1 X1.1116 Y1.4002
G1 X1.1218 Y1.3979
G1 X1.1314 Y1.3941
G1 X1.1399 Y1.3886
G1 X1.1466 Y1.381
G1 X1.1505 Y1.3719
G1 X1.1512 Y1.3671
G1 X1.1508 Y1.3622
G1 X1.1493 Y1.3575
G1 X1.1465 Y1.3531
G1 X1.1397 Y1.3467
G1 X1.1314 Y1.3414
G1 X1.1224 Y1.337
G1 X1.1139 Y1.3332
G1 X1.0931 Y1.3254
M67 E0 Q0
G0 X0.8044 Y1.2185 F0
M67 E0 Q1
G1 X0.8005 Y1.2223 F96
G1 X0.7956 Y1.2253
G1 X0.7898 Y1.2272
G1 X0.7831 Y1.2279
G1 X0.7764 Y1.2274
G1 X0.7706 Y1.2255
G1 X0.7656 Y1.2227
G1 X0.7616 Y1.2189
G1 X0.7561 Y1.2095
G1 X0.7542 Y1.1986
G1 X0.7558 Y1.1878
G1 X0.7611 Y1.1782
G1 X0.7651 Y1.1744
G1 X0.77 Y1.1714
G1 X0.7758 Y1.1695
G1 X0.7825 Y1.1687
G1 X0.7892 Y1.1693
G1 X0.795 Y1.1711
G1 X0.7999 Y1.174
G1 X0.804 Y1.1778
G1 X0.8095 Y1.1872
G1 X0.8114 Y1.198
G1 X0.8097 Y1.2089
G1 X0.8044 Y1.2185
M67 E0 Q0
G0 X0.7374 Y1.1439 F0
M67 E0 Q1
G1 X0.7318 Y1.1447 F96
G1 X0.7274
G1 X0.7234 Y1.143
G1 X0.7197 Y1.1413
G1 X0.7165 Y1.1386
G1 X0.713 Y1.1343
G1 X0.7108 Y1.1292
G1 X0.71 Y1.1234
G1 X0.7109 Y1.1162
G1 X0.713 Y1.1111
G1 X0.7153 Y1.1077
G1 X0.7184 Y1.105
G1 X0.7206 Y1.1033
G1 X0.7231 Y1.1022
G1 X0.727 Y1.1007
G1 X0.7313
G1 X0.737
G1 X0.7421 Y1.1031
G1 X0.7454 Y1.1055
G1 X0.7481 Y1.1085
G1 X0.7505 Y1.1119
G1 X0.752 Y1.1157
G1 X0.7531 Y1.123
G1 X0.7523 Y1.1287
G1 X0.7502 Y1.1338
G1 X0.7469 Y1.1383
G1 X0.7426 Y1.1417
G1 X0.7374 Y1.1439
M67 E0 Q0
G0 X0.7307 Y1.0469 F0
M67 E0 Q1
G1 X0.7239 Y1.0455 F96
G1 X0.719 Y1.0419
G1 X0.716 Y1.0368
G1 X0.7149 Y1.0309
G1 X0.7159 Y1.0249
G1 X0.7187 Y1.0197
G1 X0.7236 Y1.016
G1 X0.7304 Y1.0146
G1 X0.7372 Y1.0159
G1 X0.7421 Y1.0195
G1 X0.7451 Y1.0246
G1 X0.7461 Y1.0306
G1 X0.7452 Y1.0365
G1 X0.7424 Y1.0417
G1 X0.7375 Y1.0454
G1 X0.7307 Y1.0469
M67 E0 Q0
G0 X0.7618 Y0.9847 F0
M67 E0 Q1
G1 X0.7574 Y0.9815 F96
G1 X0.7548 Y0.9769
G1 X0.7538 Y0.9716
G1 X0.7547 Y0.9663
G1 X0.7572 Y0.9617
G1 X0.7615 Y0.9584
G1 X0.7676 Y0.9571
G1 X0.7737 Y0.9582
G1 X0.7781 Y0.9615
G1 X0.7807 Y0.966
G1 X0.7817 Y0.9713
G1 X0.7808 Y0.9766
G1 X0.7783 Y0.9812
G1 X0.774 Y0.9846
G1 X0.7679 Y0.9859
G1 X0.7618 Y0.9847
M67 E0 Q0
G0 X0.5575 Y1.0143 F0
M67 E0 Q1
G1 X0.5542 Y1.0066 F96
G1 X0.5444 Y0.9896
G1 X0.5325 Y0.9744
G1 X0.5188 Y0.9609
G1 X0.5036 Y0.9488
G1 X0.4874 Y0.9381
G1 X0.4704 Y0.9285
G1 X0.4529 Y0.9198
G1 X0.4353 Y0.912
G1 X0.389 Y0.8938
G1 X0.343 Y0.8749
G1 X0.3152 Y0.8611
G1 X0.2884 Y0.8457
G1 X0.2896 Y0.8496
G1 X0.2929 Y0.85
G1 X0.2959 Y0.8512
G1 X0.2987 Y0.8533
G1 X0.3011 Y0.8563
G1 X0.317 Y0.8794
G1 X0.3347 Y0.9006
G1 X0.3541 Y0.9202
G1 X0.3748 Y0.9383
G1 X0.4193 Y0.9713
G1 X0.4659 Y1.0014
G1 X0.4688 Y1.0053
G1 X0.468 Y1.0097
G1 X0.4647 Y1.0125
G1 X0.4599 Y1.012
G1 X0.4223 Y0.9911
G1 X0.385 Y0.9689
G1 X0.3668 Y0.957
G1 X0.3492 Y0.9445
G1 X0.3322 Y0.9312
G1 X0.316 Y0.917
G1 X0.3255 Y0.9371
G1 X0.3356 Y0.9569
G1 X0.3383 Y0.9613
G1 X0.3505 Y0.9788
G1 X0.3639 Y0.9959
G1 X0.3784 Y1.0122
G1 X0.3941 Y1.0275
G1 X0.4108 Y1.0414
G1 X0.4287 Y1.0536
G1 X0.4477 Y1.0638
G1 X0.4679 Y1.0716
G1 X0.4871 Y1.0763
G1 X0.5075 Y1.0782
G1 X0.5178 Y1.0778
G1 X0.5278 Y1.0763
G1 X0.5374 Y1.0736
G1 X0.5465 Y1.0696
G1 X0.5537 Y1.0641
G1 X0.5585 Y1.0572
G1 X0.5613 Y1.0493
G1 X0.5623 Y1.0407
G1 X0.5618 Y1.0317
G1 X0.5601 Y1.0228
G1 X0.5575 Y1.0143
M67 E0 Q0
G0 X0.4048 Y1.1373 F0
M67 E0 Q1
G1 X0.4 Y1.1652 F96
G1 X0.3934 Y1.1929
G1 X0.3867 Y1.2206
G1 X0.3816 Y1.2486
G1 X0.3801 Y1.2682
G1 X0.3807 Y1.2878
G1 X0.3833 Y1.3073
G1 X0.3878 Y1.3264
G1 X0.3929 Y1.3426
G1 X0.4 Y1.3589
G1 X0.4044 Y1.3665
G1 X0.4094 Y1.3736
G1 X0.4152 Y1.3799
G1 X0.4219 Y1.3852
G1 X0.4287 Y1.3888
G1 X0.4358 Y1.3909
G1 X0.4431 Y1.3915
G1 X0.4504 Y1.3907
G1 X0.4575 Y1.3888
G1 X0.4643 Y1.3858
G1 X0.4707 Y1.3818
G1 X0.4765 Y1.3769
G1 X0.482 Y1.3706
G1 X0.4864 Y1.3636
G1 X0.4898 Y1.356
G1 X0.4923 Y1.348
G1 X0.4947 Y1.3314
G1 X0.4943 Y1.3147
G1 X0.4907 Y1.2954
G1 X0.4847 Y1.2765
G1 X0.4771 Y1.2581
G1 X0.4687 Y1.2403
G1 X0.4555 Y1.2141
G1 X0.4418 Y1.1881
G1 X0.4484 Y1.2235
G1 X0.4526 Y1.2593
G1 X0.4542 Y1.2955
G1 X0.4528 Y1.3321
G1 X0.4508 Y1.3362
G1 X0.4469 Y1.3376
G1 X0.4432 Y1.3363
G1 X0.4416 Y1.3323
G1  Y1.3075
G1 X0.4406 Y1.2825
G1 X0.4382 Y1.2575
G1 X0.4345 Y1.2327
G1 X0.4293 Y1.2081
G1 X0.4227 Y1.1839
G1 X0.4146 Y1.1602
G1 X0.4048 Y1.1373
M67 E0 Q0
G0 X0.5758 Y1.2473 F0
M67 E0 Q1
G1 X0.6031 Y1.3021 F96
G1 X0.628 Y1.3585
G1 X0.6415 Y1.386
G1 X0.6569 Y1.4123
G1 X0.6655 Y1.4248
G1 X0.6748 Y1.4368
G1 X0.685 Y1.4483
G1 X0.6961 Y1.4591
G1 X0.7043 Y1.4659
G1 X0.7132 Y1.472
G1 X0.7228 Y1.4772
G1 X0.7329 Y1.4811
G1 X0.7433 Y1.4834
G1 X0.7538 Y1.4839
G1 X0.7643 Y1.4821
G1 X0.7745 Y1.4778
G1 X0.7838 Y1.4706
G1 X0.7899 Y1.4617
G1 X0.793 Y1.4516
G1 X0.7937 Y1.4407
G1 X0.7924 Y1.4296
G1 X0.7893 Y1.4185
G1 X0.7849 Y1.4081
G1 X0.7796 Y1.3987
G1 X0.7694 Y1.3842
G1 X0.7579 Y1.3705
G1 X0.7455 Y1.3576
G1 X0.7322 Y1.3454
G1 X0.7036 Y1.3229
G1 X0.6736 Y1.3025
G1 X0.678 Y1.308
G1 X0.6823 Y1.3136
G1 X0.6974 Y1.3347
G1 X0.7111 Y1.3566
G1 X0.7234 Y1.3793
G1 X0.7344 Y1.4028
G1 X0.7351 Y1.4065
G1 X0.7341 Y1.4098
G1 X0.7319 Y1.4125
G1 X0.7288 Y1.4144
G1 X0.7253 Y1.4154
G1 X0.7217
G1 X0.7186 Y1.4137
G1 X0.7163 Y1.4106
G1 X0.7054 Y1.3887
G1 X0.6932 Y1.3673
G1 X0.6797 Y1.3468
G1 X0.6649 Y1.3274
G1 X0.6487 Y1.3093
G1 X0.6314 Y1.2923
G1 X0.593 Y1.2604
G1 X0.5906 Y1.2575
G1 X0.5893 Y1.2544
G1 X0.5825 Y1.2509
G1 X0.5758 Y1.2473
M67 E0 Q0
G0 X0.8227 Y1.755 F0
M67 E0 Q1
G1 X0.834 Y1.7691 F96
G1 X0.8461 Y1.7827
G1 X0.8589 Y1.7956
G1 X0.8726 Y1.8078
G1 X0.8964 Y1.8257
G1 X0.9216 Y1.8416
G1 X0.9474 Y1.8564
G1 X0.9733 Y1.8711
G1 X0.9978 Y1.8859
G1 X1.0214 Y1.9025
G1 X1.0432 Y1.921
G1 X1.0626 Y1.9422
G1 X1.0727 Y1.9566
G1 X1.0813 Y1.9718
G1 X1.0819 Y1.9654
G1 X1.0751 Y1.9437
G1 X1.0662 Y1.9224
G1 X1.0554 Y1.9019
G1 X1.0429 Y1.8822
G1 X1.029 Y1.8637
G1 X1.0137 Y1.8464
G1 X0.9974 Y1.8307
G1 X0.9802 Y1.8166
G1 X0.9572 Y1.8015
G1 X0.9329 Y1.7892
G1 X0.9076 Y1.7794
G1 X0.8811 Y1.7715
G1 X0.8518 Y1.7638
G1 X0.8227 Y1.755
M67 E0 Q0
G0 X0.5294 Y1.9121 F0
M67 E0 Q1
G1 X0.531 Y1.9135 F96
G1 X0.5319 Y1.9153
G1  Y1.9219
G1 X0.531 Y1.9283
G1 X0.5283 Y1.9343
G1 X0.5243 Y1.9394
G1 X0.5225 Y1.9406
G1 X0.5205
G1 X0.5185
G1 X0.5168 Y1.9394
G1 X0.5157 Y1.9377
G1 X0.5153 Y1.9357
G1  Y1.9337
G1 X0.5168 Y1.9319
G1 X0.518 Y1.9306
G1 X0.5193 Y1.9286
G1 X0.5201 Y1.9271
G1 X0.5207 Y1.9258
G1 X0.5213 Y1.9237
G1  Y1.9224
G1  Y1.9198
G1  Y1.9173
G1  Y1.9181
G1  Y1.916
G1 X0.5222 Y1.9141
G1 X0.5235 Y1.9125
G1 X0.5254 Y1.9116
G1 X0.5275
G1 X0.5294 Y1.9121
M67 E0 Q0
G0 X0.5881 Y1.9593 F0
M67 E0 Q1
G1 X0.5902 Y1.9589 F96
G1 X0.5922 Y1.9593
G1 X0.594 Y1.9605
G1 X0.5951 Y1.9623
G1  Y1.9643
G1  Y1.9663
G1 X0.594 Y1.9681
G1 X0.578 Y1.9868
G1 X0.5764 Y1.9879
G1 X0.5744
G1 X0.5725
G1 X0.5709 Y1.9868
G1 X0.5698 Y1.9851
G1  Y1.9832
G1  Y1.9813
G1 X0.5709 Y1.9797
G1 X0.5864 Y1.9605
G1 X0.5881 Y1.9593
M67 E0 Q0
G0 X0.6246 Y1.9621 F0
M67 E0 Q1
G1 X0.6327 Y1.9372 F96
G1 X0.6398 Y1.9119
G1 X0.6462 Y1.8865
G1 X0.6292 Y1.8788
G1 X0.6116 Y1.8724
G1 X0.5936 Y1.8676
G1 X0.5752 Y1.8642
G1 X0.5653 Y1.863
G1 X0.5552 Y1.8621
G1 X0.5451
G1 X0.5352 Y1.8633
G1 X0.5255 Y1.8669
G1 X0.5173 Y1.8727
G1 X0.5104 Y1.8802
G1 X0.5043 Y1.8886
G1 X0.5023 Y1.891
G1 X0.5001 Y1.8926
G1 X0.4976 Y1.8936
G1 X0.495
G1 X0.4819 Y1.9206
G1 X0.4716 Y1.948
G1 X0.4636 Y1.976
G1 X0.4573 Y2.0046
G1 X0.4481 Y2.0626
G1 X0.4398 Y2.121
G1 X0.4439 Y2.1141
G1 X0.4557 Y2.0925
G1 X0.467 Y2.0707
G1 X0.478 Y2.0475
G1 X0.4879 Y2.024
G1 X0.4968 Y2.0001
G1 X0.5046 Y1.9758
G1 X0.5068 Y1.9731
G1 X0.5099
G1 X0.5125 Y1.9747
G1 X0.5129 Y1.978
G1 X0.4978 Y2.0276
G1 X0.4807 Y2.0764
G1 X0.4715 Y2.0996
G1 X0.4613 Y2.1228
G1 X0.5066 Y2.0687
G1 X0.5411 Y2.0259
G1 X0.5442 Y2.0244
G1 X0.5474 Y2.0256
G1 X0.5494 Y2.0284
G1 X0.5488 Y2.0319
G1 X0.5176 Y2.0772
G1 X0.4853 Y2.1217
G1 X0.4704 Y2.1413
G1 X0.4552 Y2.1605
G1 X0.502 Y2.1201
G1 X0.5478 Y2.0787
G1 X0.5681 Y2.0581
G1 X0.5861 Y2.036
G1 X0.6017 Y2.0122
G1 X0.6149 Y1.9864
G1 X0.6246 Y1.9621
M67 E0 Q0
G0 X0.457 Y1.8719 F0
M67 E0 Q1
G1 X0.455 Y1.8726 F96
G1 X0.4528
G1 X0.4508 Y1.8721
G1 X0.4491 Y1.8708
G1 X0.4476 Y1.8687
G1 X0.4471 Y1.8662
G1 X0.4501 Y1.8441
G1 X0.4507 Y1.8416
G1 X0.452 Y1.8394
G1 X0.4546 Y1.8378
G1 X0.4576
G1 X0.46 Y1.8384
G1 X0.4619 Y1.8401
G1 X0.4632 Y1.8428
G1  Y1.8459
G1 X0.46 Y1.8679
G1 X0.4589 Y1.8702
G1 X0.457 Y1.8719
M67 E0 Q0
G0 X0.4059 Y1.8334 F0
M67 E0 Q1
G1 X0.4038 Y1.8338 F96
G1 X0.4017 Y1.8334
G1 X0.4001 Y1.8322
G1 X0.399 Y1.8305
G1 X0.3984 Y1.8284
G1  Y1.8149
G1 X0.4016 Y1.8017
G1 X0.4027 Y1.7999
G1 X0.4043 Y1.7984
G1 X0.4063 Y1.7977
G1 X0.4085
G1 X0.4103 Y1.7989
G1 X0.4118 Y1.8005
G1 X0.4125 Y1.8025
G1  Y1.8047
G1 X0.4114 Y1.8076
G1 X0.4106 Y1.8106
G1  Y1.8122
G1 X0.4095 Y1.8165
G1 X0.4091 Y1.8221
G1  Y1.8253
G1  Y1.8284
G1  Y1.8305
G1 X0.4076 Y1.8322
G1 X0.4059 Y1.8334
M67 E0 Q0
G0 X0.3664 Y1.833 F0
M67 E0 Q1
G1 X0.3639 Y1.869 F96
G1 X0.3634 Y1.9052
G1 X0.3644 Y1.9414
G1 X0.3689 Y2.0139
G1 X0.3736 Y2.086
G1 X0.3741 Y2.1006
G1 X0.3751 Y2.0875
G1 X0.3767 Y2.0503
G1 X0.3772 Y2.0132
G1 X0.3767 Y1.9761
G1 X0.3751 Y1.9389
G1 X0.3764 Y1.9353
G1 X0.3797 Y1.9341
G1 X0.3832 Y1.9354
G1 X0.3851 Y1.9389
G1 X0.3881 Y1.9766
G1 X0.3904 Y2.0143
G1 X0.3917 Y2.0521
G1  Y2.0899
G1 X0.3911 Y2.1344
G1 X0.3884 Y2.1792
G1 X0.3969 Y2.1445
G1 X0.4041 Y2.1097
G1 X0.4103 Y2.0746
G1 X0.4154 Y2.0393
G1 X0.4234 Y1.9685
G1 X0.4295 Y1.8974
G1 X0.4313 Y1.8938
G1 X0.4349 Y1.8925
G1 X0.4383 Y1.8937
G1 X0.4396 Y1.8974
G1 X0.4358 Y1.9673
G1 X0.4307 Y2.0372
G1 X0.434 Y2.0238
G1 X0.4431 Y1.9884
G1 X0.4537 Y1.9538
G1 X0.4599 Y1.9369
G1 X0.4668 Y1.9203
G1 X0.4747 Y1.904
G1 X0.4836 Y1.888
G1 X0.4825 Y1.8855
G1 X0.482 Y1.8828
G1 X0.4825 Y1.8798
G1 X0.484 Y1.8767
G1 X0.4906 Y1.8672
G1 X0.4979 Y1.8583
G1 X0.5063 Y1.8505
G1 X0.5161 Y1.8443
G1 X0.5208 Y1.8422
G1 X0.5258 Y1.8406
G1 X0.5238 Y1.8255
G1 X0.5189 Y1.8117
G1 X0.5116 Y1.7991
G1 X0.5023 Y1.7878
G1 X0.4913 Y1.7777
G1 X0.479 Y1.7688
G1 X0.4658 Y1.7611
G1 X0.4521 Y1.7546
G1 X0.436 Y1.7482
G1 X0.4197 Y1.7423
G1 X0.4131 Y1.7395
G1 X0.4052 Y1.7365
G1 X0.3973 Y1.7349
G1 X0.3907 Y1.7366
G1 X0.3864 Y1.7412
G1 X0.3834 Y1.7473
G1 X0.3813 Y1.754
G1 X0.3797 Y1.76
G1 X0.3751 Y1.7785
G1 X0.3714 Y1.7972
G1 X0.3664 Y1.833
M67 E0 Q0
G0 X0.6467 Y2.1197 F0
M67 E0 Q1
G1 X0.649 Y2.1189 F96
G1 X0.6514
G1 X0.6534 Y2.1201
G1 X0.655 Y2.1218
G1 X0.6557 Y2.1241
G1  Y2.1264
G1 X0.655 Y2.1279
G1 X0.654 Y2.1291
G1 X0.6402 Y2.1395
G1 X0.6379 Y2.1403
G1 X0.6356
G1 X0.6335 Y2.1391
G1 X0.632 Y2.1373
G1 X0.6312 Y2.1351
G1  Y2.1327
G1 X0.632 Y2.1313
G1 X0.6329 Y2.1301
G1 X0.6467 Y2.1197
M67 E0 Q0
G0 X0.6488 Y2.1649 F0
M67 E0 Q1
G1 X0.6516 F96
G1 X0.6542 Y2.1663
G1 X0.6561 Y2.1685
G1 X0.657 Y2.1712
G1  Y2.174
G1 X0.6556 Y2.1765
G1 X0.6535 Y2.1785
G1 X0.6281 Y2.1939
G1 X0.6255 Y2.1948
G1 X0.6228
G1 X0.6203 Y2.1935
G1 X0.6186 Y2.1914
G1 X0.6177 Y2.1888
G1  Y2.1862
G1 X0.619 Y2.1838
G1 X0.621 Y2.1819
G1 X0.6461 Y2.1658
G1 X0.6488 Y2.1649
M67 E0 Q0
G0 X0.5881 Y2.1512 F0
M67 E0 Q1
G1 X0.5648 Y2.1715 F96
G1 X0.5407 Y2.1907
G1 X0.5156 Y2.2087
G1 X0.4895 Y2.2252
G1 X0.4832 Y2.2287
G1 X0.4768 Y2.2322
G1 X0.5273 Y2.2184
G1 X0.5775 Y2.2037
G1 X0.5793
G1 X0.5804 Y2.2052
G1  Y2.2069
G1 X0.5794 Y2.2082
G1 X0.5278 Y2.2298
G1 X0.4757 Y2.2499
G1 X0.5017
G1 X0.5276 Y2.2494
G1 X0.5535 Y2.2485
G1 X0.5794 Y2.2463
G1 X0.5834 Y2.2458
G1 X0.6001 Y2.2427
G1 X0.6136 Y2.2397
G1 X0.6275 Y2.2363
G1 X0.643 Y2.2308
G1 X0.6578 Y2.2241
G1 X0.6719 Y2.2161
G1 X0.6849 Y2.2068
G1 X0.6967 Y2.1962
G1 X0.707 Y2.184
G1 X0.7154 Y2.1703
G1 X0.722 Y2.155
G1 X0.7245 Y2.1457
G1 X0.726 Y2.1364
G1 X0.7264 Y2.127
G1 X0.7258 Y2.1178
G1 X0.724 Y2.1086
G1 X0.7212 Y2.0997
G1 X0.7174 Y2.091
G1 X0.7125 Y2.0827
G1 X0.7066 Y2.075
G1 X0.7 Y2.0681
G1 X0.6926 Y2.0623
G1 X0.6846 Y2.0576
G1 X0.6761 Y2.0541
G1 X0.667 Y2.052
G1 X0.6576 Y2.0514
G1 X0.6479 Y2.0524
G1 X0.6377 Y2.0551
G1 X0.6281 Y2.0591
G1 X0.6188 Y2.064
G1 X0.61 Y2.0698
G1 X0.5934 Y2.083
G1 X0.5778 Y2.0969
G1 X0.5626 Y2.1099
G1 X0.5471 Y2.1222
G1 X0.531 Y2.1338
G1 X0.5142 Y2.1445
G1 X0.4956 Y2.1553
G1 X0.4768 Y2.166
G1 X0.4407 Y2.1965
G1 X0.41 Y2.2224
G1 X0.4081 Y2.2269
G1 X0.4652 Y2.1896
G1 X0.4931 Y2.1716
G1 X0.4965 Y2.1711
G1 X0.4992 Y2.173
G1 X0.5003 Y2.176
G1 X0.4988 Y2.1789
G1 X0.4727 Y2.1992
G1 X0.4287 Y2.2331
G1 X0.4547 Y2.2217
G1 X0.4802 Y2.2093
G1 X0.5071 Y2.1951
G1 X0.5334 Y2.1798
G1 X0.559 Y2.1634
G1 X0.5837 Y2.1456
G1 X0.5862 Y2.145
G1 X0.5883 Y2.1465
G1 X0.5891 Y2.1488
G1 X0.5881 Y2.1512
M67 E0 Q0
G0 X0.4062 Y2.2794 F0
M67 E0 Q1
G1 X0.4042 F96
G1 X0.4061 Y2.2803
G1  Y2.2794
M67 E0 Q0
G0 X0.6078 Y2.3526 F0
M67 E0 Q1
G1 X0.6091 Y2.3511 F96
G1 X0.6107 Y2.3503
G1 X0.6126
G1 X0.6144 Y2.3508
G1 X0.6463 Y2.3659
G1 X0.6478 Y2.3672
G1 X0.6487 Y2.3691
G1  Y2.3712
G1 X0.6482 Y2.373
G1 X0.6468 Y2.3746
G1 X0.645 Y2.3754
G1 X0.643
G1 X0.641 Y2.3749
G1 X0.6095 Y2.3592
G1 X0.6073 Y2.3562
G1 X0.6078 Y2.3526
M67 E0 Q0
G0 X0.5728 Y2.3707 F0
M67 E0 Q1
G1 X0.5738 Y2.372 F96
G1  Y2.3735
G1 X0.5723 Y2.3745
G1 X0.5705
G1 X0.5257 Y2.3542
G1 X0.481 Y2.3339
G1 X0.4629 Y2.3254
G1 X0.4997 Y2.3528
G1 X0.5367 Y2.3797
G1 X0.5703 Y2.4038
G1 X0.6069 Y2.4263
G1 X0.6262 Y2.435
G1 X0.646 Y2.4408
G1 X0.6562 Y2.4424
G1 X0.6664 Y2.443
G1 X0.6768 Y2.4425
G1 X0.6873 Y2.4408
G1 X0.6966 Y2.4381
G1 X0.7053 Y2.4344
G1 X0.7133 Y2.4296
G1 X0.7205 Y2.4238
G1 X0.7267 Y2.4171
G1 X0.7318 Y2.4094
G1 X0.7358 Y2.4008
G1 X0.7386 Y2.3914
G1 X0.74 Y2.3816
G1  Y2.3717
G1 X0.7396 Y2.3618
G1 X0.738 Y2.3519
G1 X0.7328 Y2.3325
G1 X0.7258 Y2.314
G1 X0.7182 Y2.296
G1 X0.7085 Y2.2773
G1 X0.7026 Y2.2687
G1 X0.6957 Y2.2614
G1 X0.6879 Y2.2557
G1 X0.6789 Y2.2521
G1 X0.6677 Y2.2506
G1 X0.6564 Y2.2513
G1 X0.6481 Y2.2548
G1 X0.6397 Y2.2579
G1 X0.6127 Y2.2651
G1 X0.5855 Y2.2695
G1 X0.558 Y2.2717
G1 X0.5303 Y2.2723
G1 X0.4927 Y2.2759
G1 X0.4549 Y2.2782
G1 X0.5873 Y2.3064
G1 X0.589 Y2.3077
G1  Y2.3098
G1 X0.5885 Y2.3117
G1 X0.5865 Y2.3124
G1 X0.509 Y2.3031
G1 X0.4317 Y2.2937
G1 X0.4408 Y2.2987
G1 X0.4856 Y2.3225
G1 X0.5292 Y2.3465
G1 X0.5728 Y2.3707
M67 E0 Q0
G0 X0.5488 Y2.4604 F0
M67 E0 Q1
G1 X0.5507 Y2.4608 F96
G1 X0.5524 Y2.4619
G1 X0.6003 Y2.4991
G1 X0.6016 Y2.501
G1 X0.602 Y2.5032
G1 X0.6015 Y2.5055
G1 X0.6003 Y2.5074
G1 X0.5983 Y2.5087
G1 X0.5962
G1 X0.594
G1 X0.592 Y2.5074
G1 X0.5452 Y2.4691
G1 X0.544 Y2.4675
G1  Y2.4655
G1  Y2.4635
G1 X0.5452 Y2.4619
G1 X0.5469 Y2.4607
G1 X0.5488
M67 E0 Q0
G0 X0.5608 Y2.5664 F0
M67 E0 Q1
G1 X0.5631 F96
G1 X0.5652 Y2.5676
G1 X0.5669 Y2.5694
G1 X0.5799 Y2.5882
G1 X0.5807 Y2.5907
G1  Y2.5933
G1 X0.5794 Y2.5956
G1 X0.5775 Y2.5972
G1 X0.575 Y2.598
G1 X0.5725
G1 X0.5702 Y2.5968
G1 X0.5684 Y2.5949
G1 X0.5561 Y2.5757
G1 X0.5553 Y2.5735
G1  Y2.571
G1 X0.5565 Y2.5688
G1 X0.5584 Y2.5672
G1 X0.5608 Y2.5664
M67 E0 Q0
G0 X0.5186 Y2.5889 F0
M67 E0 Q1
G1 X0.5294 Y2.6109 F96
G1 X0.5411 Y2.6323
G1 X0.5537 Y2.6533
G1 X0.5671 Y2.6738
G1 X0.5943 Y2.6636
G1 X0.6202 Y2.6501
G1 X0.6323 Y2.642
G1 X0.6434 Y2.6328
G1 X0.6536 Y2.6225
G1 X0.6625 Y2.6111
G1 X0.6699 Y2.5986
G1 X0.6757 Y2.5852
G1 X0.6798 Y2.5713
G1 X0.682 Y2.557
G1  Y2.5427
G1 X0.6802 Y2.5285
G1 X0.676 Y2.5147
G1 X0.6693 Y2.5017
G1 X0.661 Y2.4905
G1 X0.6514 Y2.4805
G1 X0.6408 Y2.4716
G1 X0.6293 Y2.4635
G1 X0.6049 Y2.4495
G1 X0.5802 Y2.4369
G1 X0.5524 Y2.4225
G1 X0.5252 Y2.4074
G1 X0.4987 Y2.391
G1 X0.4731 Y2.3731
G1 X0.4546 Y2.3582
G1 X0.437 Y2.3426
G1 X0.4414 Y2.3507
G1 X0.4577 Y2.3701
G1 X0.4733 Y2.3903
G1 X0.4881 Y2.4111
G1 X0.5019 Y2.4325
G1 X0.5147 Y2.4545
G1 X0.5263 Y2.477
G1 X0.5367 Y2.5001
G1 X0.5456 Y2.5236
G1  Y2.5282
G1 X0.5418 Y2.5311
G1 X0.5374 Y2.5315
G1 X0.5338 Y2.5286
G1 X0.5199 Y2.5015
G1 X0.5057 Y2.4747
G1 X0.4908 Y2.4482
G1 X0.4746 Y2.4224
G1 X0.4701 Y2.4156
G1 X0.4654 Y2.4089
G1 X0.4718 Y2.4307
G1 X0.477 Y2.4527
G1 X0.4812 Y2.475
G1 X0.4842 Y2.4972
G1 X0.4996 Y2.5438
G1 X0.5186 Y2.5889
M67 E0 Q0
G0 X0.4318 Y2.5743 F0
M67 E0 Q1
G1 X0.4286 Y2.5932 F96
G1 X0.4275 Y2.5954
G1 X0.4257 Y2.597
G1 X0.4233 Y2.5978
G1 X0.4207
G1 X0.4185 Y2.5965
G1 X0.4169 Y2.5947
G1 X0.4162 Y2.5923
G1  Y2.5898
G1 X0.4193 Y2.5708
G1 X0.4205 Y2.5686
G1 X0.4223 Y2.567
G1 X0.4248 Y2.5661
G1 X0.4273
G1 X0.4295 Y2.5674
G1 X0.4312 Y2.5693
G1 X0.432 Y2.5717
G1  Y2.5743
M67 E0 Q0
G0 X0.3732 Y2.5942 F0
M67 E0 Q1
G1 X0.375 Y2.5974 F96
G1 X0.3756 Y2.601
G1 X0.375 Y2.6046
G1 X0.3732 Y2.6078
G1 X0.3702 Y2.61
G1 X0.366 Y2.6109
G1 X0.3618 Y2.61
G1 X0.3588 Y2.6078
G1 X0.357 Y2.6046
G1 X0.3564 Y2.601
G1 X0.357 Y2.5974
G1 X0.3588 Y2.5942
G1 X0.3618 Y2.5919
G1 X0.366 Y2.5911
G1 X0.3702 Y2.5919
G1 X0.3732 Y2.5942
M67 E0 Q0
G0 X0.4147 Y2.65 F0
M67 E0 Q1
G1 X0.4141 Y2.6509 F96
G1 X0.4147 Y2.65
M67 E0 Q0
G0 X0.4136 Y2.6502 F0
M67 E0 Q1
G1 X0.414 Y2.6491 F96
G1 X0.4145 Y2.648
G1 X0.4153 Y2.6471
G1 X0.4162 Y2.6464
G1 X0.4173 Y2.6459
G1 X0.4184 Y2.6455
G1 X0.4196
G1 X0.4212
G1 X0.4227 Y2.6462
G1 X0.4239 Y2.6471
G1 X0.4248 Y2.6484
G1 X0.4255 Y2.6499
G1  Y2.6521
G1 X0.4261 Y2.6528
G1  Y2.6542
G1  Y2.6564
G1 X0.4254 Y2.658
G1 X0.4243 Y2.6594
G1 X0.423 Y2.6604
G1 X0.4209 Y2.6612
G1 X0.4196
G1 X0.4178
G1 X0.4162 Y2.6604
G1 X0.4149 Y2.6593
G1 X0.4138 Y2.658
G1 X0.4131 Y2.6564
G1  Y2.655
G1  Y2.6529
G1  Y2.6521
G1 X0.4135 Y2.6514
G1  Y2.6502
M67 E0 Q0
G0 X0.3422 Y2.6912 F0
M67 E0 Q1
G1 X0.3437 Y2.6956 F96
G1 X0.3422 Y2.6999
G1 X0.3376 Y2.7019
G1 X0.333 Y2.6999
G1 X0.3315 Y2.6956
G1 X0.333 Y2.6912
G1 X0.3376 Y2.6893
G1 X0.3422 Y2.6912
M67 E0 Q0
G0 X0.3153 Y2.684 F0
M67 E0 Q1
G1 X0.3168 Y2.7008 F96
G1 X0.3197 Y2.7173
G1 X0.3246 Y2.7331
G1 X0.3294 Y2.7415
G1 X0.3359 Y2.7472
G1 X0.3441 Y2.7501
G1 X0.3538
G1 X0.3643 Y2.7482
G1 X0.3747 Y2.7447
G1 X0.3849 Y2.7401
G1 X0.3947 Y2.7345
G1 X0.4134 Y2.7216
G1 X0.4302 Y2.7079
G1 X0.4418 Y2.696
G1 X0.451 Y2.6829
G1 X0.4581 Y2.6687
G1 X0.4632 Y2.6537
G1 X0.4666 Y2.638
G1 X0.4687 Y2.6219
G1 X0.4696 Y2.6057
G1  Y2.5894
G1 X0.4673 Y2.5496
G1 X0.4626 Y2.51
G1 X0.4527 Y2.4688
G1 X0.4454 Y2.4267
G1 X0.442 Y2.4175
G1 X0.4385 Y2.4084
G1 X0.4242 Y2.3756
G1 X0.4091 Y2.3432
G1 X0.4172 Y2.3843
G1 X0.4229 Y2.4259
G1 X0.4269 Y2.4677
G1 X0.4297 Y2.5095
G1 X0.4293 Y2.5123
G1 X0.4279 Y2.5143
G1 X0.4259 Y2.5155
G1 X0.4235 Y2.5159
G1 X0.4189 Y2.5143
G1 X0.4164 Y2.5095
G1 X0.412 Y2.4737
G1 X0.4063 Y2.4381
G1 X0.3998 Y2.4026
G1 X0.3927 Y2.3671
G1 X0.3945 Y2.3943
G1 X0.3953 Y2.4211
G1 X0.3947 Y2.4605
G1 X0.3917 Y2.4998
G1 X0.3865 Y2.5389
G1 X0.3791 Y2.5776
G1 X0.378 Y2.5801
G1 X0.3762 Y2.5815
G1 X0.374 Y2.5821
G1 X0.3716
G1 X0.3677 Y2.5792
G1 X0.3669 Y2.5742
G1 X0.3744 Y2.5364
G1 X0.3792 Y2.4982
G1 X0.3814 Y2.4597
G1 X0.3808 Y2.4211
G1 X0.3794 Y2.4009
G1 X0.377 Y2.3808
G1 X0.3739 Y2.3609
G1 X0.3703 Y2.3411
G1 X0.3678 Y2.3616
G1 X0.365 Y2.3819
G1 X0.3502 Y2.4529
G1 X0.3328 Y2.5239
G1 X0.3251 Y2.5595
G1 X0.319 Y2.5953
G1 X0.3153 Y2.6313
G1 X0.3146 Y2.6676
G1 X0.3153 Y2.684
M67 E0 Q0
G0 X0.2911 Y2.6895 F0
M67 E0 Q1
G1 X0.2895 Y2.6701 F96
G1  Y2.6506
G1 X0.2905 Y2.6312
G1 X0.2925 Y2.6118
G1 X0.2986 Y2.5737
G1 X0.3064 Y2.536
G1 X0.3147 Y2.4984
G1 X0.3219 Y2.4606
G1 X0.3279 Y2.4203
G1 X0.3325 Y2.3799
G1 X0.3338 Y2.3603
G1 X0.3349 Y2.3406
G1 X0.3363 Y2.321
G1 X0.339 Y2.3015
G1 X0.3417 Y2.2895
G1 X0.3452 Y2.2777
G1 X0.3495 Y2.2662
G1 X0.3543 Y2.2548
G1 X0.3536 Y2.2523
G1  Y2.2494
G1  Y2.2479
G1  Y2.2462
G1 X0.3566 Y2.2047
G1 X0.3571 Y2.1631
G1 X0.3553 Y2.1215
G1 X0.3521 Y2.0799
G1 X0.344 Y1.9968
G1 X0.3383 Y1.9138
G1  Y1.8733
G1 X0.3401 Y1.8327
G1 X0.3452 Y1.7925
G1 X0.3537 Y1.7529
G1 X0.3583 Y1.7388
G1 X0.3649 Y1.7255
G1 X0.3693 Y1.7197
G1 X0.3746 Y1.7147
G1 X0.3807 Y1.7109
G1 X0.388 Y1.7083
G1 X0.3969 Y1.7075
G1 X0.4058 Y1.7087
G1 X0.4145 Y1.7112
G1 X0.423 Y1.7142
G1 X0.4416 Y1.721
G1 X0.4599 Y1.7287
G1 X0.476 Y1.737
G1 X0.4919 Y1.7469
G1 X0.5068 Y1.7585
G1 X0.5203 Y1.7716
G1 X0.5319 Y1.7861
G1 X0.541 Y1.802
G1 X0.547 Y1.8191
G1 X0.5495 Y1.8375
G1 X0.5577
G1 X0.5658 Y1.8381
G1 X0.5922 Y1.8417
G1 X0.6178 Y1.8482
G1 X0.6426 Y1.8576
G1 X0.6663 Y1.8695
G1 X0.6693 Y1.872
G1 X0.6713 Y1.8754
G1 X0.6722 Y1.8792
G1  Y1.8832
G1 X0.6647 Y1.9109
G1 X0.6568 Y1.9384
G1 X0.6478 Y1.9655
G1 X0.6371 Y1.9921
G1 X0.6295 Y2.0078
G1 X0.621 Y2.0229
G1 X0.6117 Y2.0375
G1 X0.6015 Y2.0514
G1 X0.611 Y2.045
G1 X0.6208 Y2.0394
G1 X0.6312 Y2.0348
G1 X0.6421 Y2.0315
G1 X0.6529 Y2.0297
G1 X0.6635
G1 X0.6737 Y2.0304
G1 X0.6836 Y2.0327
G1 X0.6931 Y2.0362
G1 X0.702 Y2.0408
G1 X0.7104 Y2.0464
G1 X0.7181 Y2.053
G1 X0.7252 Y2.0603
G1 X0.7315 Y2.0684
G1 X0.7371 Y2.0771
G1 X0.7418 Y2.0864
G1 X0.7456 Y2.0961
G1 X0.7484 Y2.1061
G1 X0.7501 Y2.1165
G1 X0.7508 Y2.127
G1 X0.7497 Y2.1435
G1 X0.7462 Y2.1593
G1 X0.7404 Y2.1742
G1 X0.7328 Y2.1882
G1 X0.7234 Y2.2013
G1 X0.7125 Y2.2134
G1 X0.7004 Y2.2243
G1 X0.6873 Y2.2342
G1 X0.6898 Y2.2349
G1 X0.6992 Y2.2396
G1 X0.7075 Y2.2458
G1 X0.7147 Y2.2533
G1 X0.721 Y2.2617
G1 X0.7315 Y2.2803
G1 X0.7401 Y2.2993
G1 X0.7474 Y2.3179
G1 X0.7533 Y2.3376
G1 X0.7573 Y2.3578
G1 X0.7586 Y2.3779
G1 X0.7581 Y2.3877
G1 X0.7566 Y2.3974
G1 X0.7541 Y2.4067
G1 X0.7506 Y2.4157
G1 X0.7459 Y2.4242
G1 X0.74 Y2.4323
G1 X0.7327 Y2.4398
G1 X0.724 Y2.4466
G1 X0.7088 Y2.4552
G1 X0.6931 Y2.4606
G1 X0.6771 Y2.4631
G1 X0.6609
G1 X0.6711 Y2.4715
G1 X0.6805 Y2.4806
G1 X0.689 Y2.4907
G1 X0.6964 Y2.5016
G1 X0.7033 Y2.5161
G1 X0.7079 Y2.5311
G1 X0.7101 Y2.5464
G1  Y2.5618
G1 X0.7081 Y2.5772
G1 X0.7041 Y2.5923
G1 X0.6983 Y2.607
G1 X0.6908 Y2.621
G1 X0.6795 Y2.6369
G1 X0.6665 Y2.651
G1 X0.652 Y2.6634
G1 X0.6362 Y2.6742
G1 X0.6194 Y2.6835
G1 X0.6017 Y2.6914
G1 X0.5836 Y2.698
G1 X0.5651 Y2.7033
G1 X0.5605 Y2.7037
G1 X0.5563 Y2.7027
G1 X0.5525 Y2.7004
G1 X0.5495 Y2.697
G1 X0.5329 Y2.6705
G1 X0.5175 Y2.6433
G1 X0.5033 Y2.6154
G1 X0.4903 Y2.587
G1 X0.4899 Y2.6158
G1 X0.4866 Y2.6446
G1 X0.4834 Y2.6587
G1 X0.479 Y2.6724
G1 X0.4733 Y2.6855
G1 X0.466 Y2.698
G1 X0.4587 Y2.7078
G1 X0.4502 Y2.7172
G1 X0.4408 Y2.726
G1 X0.4306 Y2.7342
G1 X0.409 Y2.7487
G1 X0.3868 Y2.7601
G1 X0.3768 Y2.7642
G1 X0.3664 Y2.7672
G1 X0.3558 Y2.7691
G1 X0.3453
G1 X0.3352 Y2.7679
G1 X0.3256 Y2.7644
G1 X0.3169 Y2.7586
G1 X0.3093 Y2.7501
G1 X0.3017 Y2.7363
G1 X0.2966 Y2.721
G1 X0.2934 Y2.7052
G1 X0.2911 Y2.6895
M67 E0 Q0
G0 X0.515 Y3.0098 F0
M67 E0 Q1
G1 X0.4992 Y3.016 F96
G1 X0.4841 Y3.0238
G1 X0.47 Y3.0331
G1 X0.4568 Y3.044
G1 X0.4446 Y3.0562
G1 X0.4336 Y3.0696
G1 X0.4189 Y3.0902
G1 X0.4043 Y3.111
G1 X0.3884 Y3.1306
G1 X0.3703 Y3.1475
G1 X0.3982 Y3.151
G1 X0.4262 Y3.1518
G1 X0.4401 Y3.1509
G1 X0.4539 Y3.149
G1 X0.4674 Y3.1457
G1 X0.4807 Y3.1411
G1 X0.5075 Y3.1273
G1 X0.5324 Y3.1101
G1 X0.5566 Y3.0917
G1 X0.5814 Y3.0744
G1 X0.5956 Y3.0664
G1 X0.6103 Y3.0597
G1 X0.6253 Y3.0541
G1 X0.6406 Y3.0493
G1 X0.7031 Y3.0328
G1 X0.7217 Y3.0266
G1 X0.74 Y3.0184
G1 X0.7543 Y2.9997
G1 X0.737 Y3.0116
G1 X0.7187 Y3.0216
G1 X0.6994 Y3.0294
G1 X0.6794 Y3.0349
G1 X0.6289 Y3.0413
G1 X0.5754 Y3.0478
G1 X0.5625 Y3.0505
G1 X0.55 Y3.0541
G1 X0.5381 Y3.0586
G1 X0.5268 Y3.0641
G1 X0.5164 Y3.071
G1 X0.5068 Y3.0792
G1 X0.4983 Y3.089
G1 X0.4909 Y3.1005
G1 X0.4878 Y3.103
G1 X0.4842 Y3.1024
G1 X0.4818 Y3.0995
G1  Y3.0953
G1 X0.4883 Y3.0845
G1 X0.4954 Y3.075
G1 X0.5035 Y3.0667
G1 X0.5123 Y3.0595
G1 X0.5319 Y3.048
G1 X0.5535 Y3.0397
G1 X0.6 Y3.0294
G1 X0.646 Y3.0222
G1 X0.6712 Y3.0164
G1 X0.695 Y3.0079
G1 X0.7064 Y3.0025
G1 X0.7173 Y2.9961
G1 X0.7278 Y2.9888
G1 X0.7378 Y2.9804
G1 X0.7426 Y2.9757
G1 X0.7472 Y2.9709
G1 X0.7351 Y2.9783
G1 X0.7224 Y2.9849
G1 X0.7093 Y2.9906
G1 X0.6957 Y2.9954
G1 X0.6775 Y2.9999
G1 X0.6593 Y3.0024
G1 X0.641 Y3.0033
G1 X0.6227
G1 X0.5859 Y3.0021
G1 X0.549 Y3.003
G1 X0.5317 Y3.0055
G1 X0.515 Y3.0098
M67 E0 Q0
G0 X0.7961 Y3.0468 F0
M67 E0 Q1
G1 X0.793 Y3.0626 F96
G1 X0.7913 Y3.0785
G1  Y3.0918
G1 X0.7924 Y3.1047
G1 X0.7948 Y3.1172
G1 X0.7984 Y3.1293
G1 X0.8085 Y3.1521
G1 X0.8221 Y3.1732
G1 X0.8385 Y3.1926
G1 X0.8572 Y3.2102
G1 X0.8774 Y3.2262
G1 X0.8984 Y3.2404
G1 X0.9236 Y3.2555
G1 X0.9494 Y3.2695
G1 X0.9613 Y3.2754
G1 X0.9737 Y3.2807
G1 X0.9864 Y3.2849
G1 X0.9993 Y3.2876
G1 X0.9871 Y3.2748
G1 X0.9759 Y3.261
G1 X0.9659 Y3.2463
G1 X0.9572 Y3.2308
G1 X0.9467 Y3.2056
G1 X0.9396 Y3.1797
G1 X0.9353 Y3.1531
G1 X0.9328 Y3.126
G1 X0.9309 Y3.0971
G1 X0.9277 Y3.0685
G1 X0.9249 Y3.0544
G1 X0.9211 Y3.0407
G1 X0.916 Y3.0272
G1 X0.9093 Y3.0143
G1 X0.9019 Y3.0032
G1 X0.8936 Y2.993
G1 X0.8843 Y2.9837
G1 X0.8742 Y2.9751
G1 X0.8731 Y2.9742
G1 X0.8721 Y2.9967
G1 X0.8698 Y3.0186
G1 X0.8674 Y3.0384
G1 X0.8654 Y3.0582
G1 X0.8645 Y3.078
G1 X0.8655 Y3.098
G1 X0.8689 Y3.1203
G1 X0.8745 Y3.1421
G1 X0.8823 Y3.1633
G1 X0.892 Y3.1836
G1  Y3.1871
G1 X0.8904 Y3.1895
G1 X0.8873 Y3.1901
G1 X0.8846 Y3.188
G1 X0.8747 Y3.1696
G1 X0.8664 Y3.1506
G1 X0.8598 Y3.1309
G1 X0.855 Y3.1106
G1 X0.8522 Y3.0898
G1 X0.8511 Y3.0691
G1  Y3.0483
G1 X0.8522 Y3.0274
G1 X0.8527 Y3.0063
G1 X0.8514 Y2.9857
G1 X0.8497 Y2.9757
G1 X0.847 Y2.9658
G1 X0.8434 Y2.956
G1 X0.8385 Y2.9464
G1 X0.8341 Y2.9389
G1 X0.8296 Y2.9315
G1 X0.8272 Y2.9427
G1 X0.8246 Y2.9538
G1 X0.8154 Y2.9846
G1 X0.805 Y3.0155
G1 X0.8002 Y3.0311
G1 X0.7961 Y3.0468
M67 E0 Q0
G0 X1.2204 Y2.8478 F0
M67 E0 Q1
G1 X1.2153 Y2.8417 F96
G1 X1.2114 Y2.835
G1 X1.2087 Y2.8278
G1 X1.2076 Y2.8204
G1 X1.2082 Y2.813
G1 X1.2106 Y2.8056
G1 X1.215 Y2.7986
G1 X1.2217 Y2.792
G1 X1.2393 Y2.779
G1 X1.2576 Y2.7672
G1 X1.2766 Y2.7568
G1 X1.2961 Y2.7475
G1 X1.3162 Y2.7395
G1 X1.3367 Y2.7326
G1 X1.3577 Y2.7269
G1 X1.3789 Y2.7223
G1 X1.4221 Y2.7161
G1 X1.4658 Y2.7137
G1 X1.5094 Y2.715
G1 X1.5525 Y2.7195
G1 X1.5802 Y2.7242
G1 X1.6077 Y2.73
G1 X1.6349 Y2.7369
G1 X1.6619 Y2.7446
G1 X1.7153 Y2.7618
G1 X1.7685 Y2.7802
G1 X1.8217 Y2.7983
G1 X1.8754 Y2.8149
G1 X1.9026 Y2.8221
G1 X1.93 Y2.8283
G1 X1.9577 Y2.8334
G1 X1.9858 Y2.8372
G1 X1.9893
G1 X1.9937
G1 X1.9975 Y2.8386
G1 X2.0071 Y2.8367
G1 X2.0111
G1 X2.0146
G1 X2.0165 Y2.8353
G1 X2.0224 Y2.8326
G1 X2.0283
G1 X2.0338 Y2.8354
G1 X2.0383 Y2.8398
G1 X2.0414 Y2.8452
G1 X2.0426 Y2.8512
G1 X2.0414 Y2.8571
G1 X2.0373 Y2.8623
G1 X2.016 Y2.8808
G1 X1.996 Y2.9004
G1 X1.9773 Y2.9212
G1 X1.96 Y2.9432
G1 X1.9442 Y2.9662
G1 X1.9301 Y2.9903
G1 X1.9178 Y3.0155
G1 X1.9074 Y3.0418
G1 X1.8996 Y3.0675
G1 X1.8939 Y3.0933
G1 X1.8901 Y3.1193
G1 X1.8878 Y3.1455
G1 X1.887 Y3.1982
G1 X1.8894 Y3.2514
G1  Y3.2579
G1 X1.8875 Y3.2638
G1 X1.8847 Y3.2689
G1 X1.881 Y3.2734
G1 X1.8713 Y3.28
G1 X1.8599 Y3.2834
G1 X1.8481
G1 X1.8373 Y3.2796
G1 X1.8328 Y3.2762
G1 X1.829 Y3.2719
G1 X1.8262 Y3.2665
G1 X1.8245 Y3.2601
G1 X1.8217 Y3.235
G1 X1.8206 Y3.2097
G1 X1.8213 Y3.1844
G1 X1.8237 Y3.1592
G1 X1.8278 Y3.1341
G1 X1.8333 Y3.1092
G1 X1.8404 Y3.0845
G1 X1.8488 Y3.0602
G1 X1.8586 Y3.0364
G1 X1.8697 Y3.013
G1 X1.8819 Y2.9902
G1 X1.8953 Y2.968
G1 X1.9097 Y2.9465
G1 X1.9251 Y2.9259
G1 X1.9415 Y2.906
G1 X1.9587 Y2.8871
G1 X1.919 Y2.902
G1 X1.8801 Y2.9185
G1 X1.8613 Y2.9279
G1 X1.843 Y2.9383
G1 X1.8254 Y2.9498
G1 X1.8085 Y2.9627
G1 X1.788 Y2.9819
G1 X1.7703 Y3.0027
G1 X1.7552 Y3.025
G1 X1.7424 Y3.0485
G1 X1.7316 Y3.0732
G1 X1.7223 Y3.0988
G1 X1.7145 Y3.1252
G1 X1.7077 Y3.1521
G1 X1.7052 Y3.1592
G1 X1.7016 Y3.1652
G1 X1.697 Y3.1701
G1 X1.6916 Y3.1739
G1 X1.6856 Y3.1767
G1 X1.6792 Y3.1783
G1 X1.6725 Y3.179
G1 X1.6658
G1 X1.6592 Y3.1773
G1 X1.653 Y3.175
G1 X1.6473 Y3.1717
G1 X1.6423 Y3.1676
G1 X1.6382 Y3.1625
G1 X1.6352 Y3.1565
G1 X1.6334 Y3.1497
G1  Y3.142
G1 X1.6346 Y3.1262
G1 X1.6371 Y3.1108
G1 X1.6405 Y3.0959
G1 X1.6448 Y3.0813
G1 X1.656 Y3.0534
G1 X1.6703 Y3.0271
G1 X1.6875 Y3.0024
G1 X1.7072 Y2.9792
G1 X1.7292 Y2.9576
G1 X1.7531 Y2.9374
G1 X1.7809 Y2.9173
G1 X1.8091 Y2.9003
G1 X1.8377 Y2.8858
G1 X1.8669 Y2.8737
G1 X1.8269
G1 X1.7869 Y2.8752
G1 X1.767 Y2.8772
G1 X1.7471 Y2.8802
G1 X1.7271 Y2.8844
G1 X1.7072 Y2.8899
G1 X1.6784 Y2.9005
G1 X1.6509 Y2.9136
G1 X1.625 Y2.9292
G1 X1.601 Y2.9471
G1 X1.5789 Y2.9675
G1 X1.5591 Y2.9901
G1 X1.5418 Y3.015
G1 X1.5271 Y3.0422
G1 X1.5231 Y3.0489
G1 X1.5183 Y3.0539
G1 X1.5129 Y3.0574
G1 X1.5071 Y3.0594
G1 X1.501 Y3.0601
G1 X1.4949 Y3.0595
G1 X1.4888 Y3.0577
G1 X1.4831 Y3.0549
G1 X1.4777 Y3.0512
G1 X1.473 Y3.0466
G1 X1.469 Y3.0412
G1 X1.4661 Y3.0353
G1 X1.4642 Y3.0288
G1 X1.4637 Y3.0219
G1 X1.4646 Y3.0146
G1 X1.4672 Y3.0072
G1 X1.4745 Y2.9926
G1 X1.4826 Y2.9786
G1 X1.4915 Y2.9653
G1 X1.5011 Y2.9526
G1 X1.5223 Y2.9292
G1 X1.5461 Y2.9083
G1 X1.5719 Y2.89
G1 X1.5997 Y2.8744
G1 X1.629 Y2.8613
G1 X1.6596 Y2.8507
G1 X1.6839 Y2.8444
G1 X1.7081 Y2.8397
G1 X1.7322 Y2.8365
G1 X1.7563 Y2.8345
G1 X1.7194 Y2.8247
G1 X1.6825 Y2.8152
G1 X1.6454 Y2.8063
G1 X1.6081 Y2.7984
G1 X1.5649 Y2.791
G1 X1.5217 Y2.7858
G1 X1.5002 Y2.7844
G1 X1.4788 Y2.7839
G1 X1.4575 Y2.7844
G1 X1.4365 Y2.786
G1 X1.4157 Y2.7888
G1 X1.3952 Y2.7929
G1 X1.3751 Y2.7985
G1 X1.3553 Y2.8056
G1 X1.336 Y2.8144
G1 X1.3172 Y2.8248
G1 X1.2989 Y2.8372
G1 X1.2812 Y2.8515
G1 X1.2733 Y2.8571
G1 X1.2651 Y2.8606
G1 X1.2569 Y2.8622
G1 X1.2487
G1 X1.2408 Y2.8604
G1 X1.2333 Y2.8573
G1 X1.2265 Y2.853
G1 X1.2204 Y2.8478
M67 E0 Q0
G0 X1.0536 Y2.6848 F0
M67 E0 Q1
G1 X1.034 Y2.6938 F96
G1 X1.0138 Y2.701
G1 X0.993 Y2.7066
G1 X0.9719 Y2.7103
G1 X0.9503 Y2.712
G1 X0.9284
G1 X0.9275 Y2.7104
G1  Y2.7066
G1 X0.9284 Y2.7006
G1 X0.93 Y2.6929
G1 X0.9349 Y2.6733
G1 X0.9412 Y2.6506
G1 X0.9481 Y2.6274
G1 X0.9547 Y2.6065
G1 X0.9576 Y2.5977
G1 X0.96 Y2.5904
G1 X0.9619 Y2.5851
G1 X0.9632 Y2.582
G1 X0.9791 Y2.5527
G1 X0.9973 Y2.5253
G1 X1.0173 Y2.4992
G1 X1.0385 Y2.4735
G1 X1.1083 Y2.5074
G1 X1.111 Y2.5089
G1 X1.1134 Y2.5107
G1 X1.1152 Y2.513
G1 X1.1157 Y2.5157
G1 X1.1148 Y2.5185
G1 X1.1131 Y2.5209
G1 X1.0706 Y2.5763
G1 X1.0487 Y2.6034
G1 X1.0258 Y2.6298
G1 X1.0395 Y2.6179
G1 X1.0551 Y2.6077
G1 X1.071 Y2.5978
G1 X1.0856 Y2.5869
G1 X1.1019 Y2.5716
G1 X1.1169 Y2.5556
G1 X1.1303 Y2.5383
G1 X1.1417 Y2.519
G1 X1.1637 Y2.5203
G1 X1.1857 Y2.5224
G1 X1.2076 Y2.5253
G1 X1.2294 Y2.529
G1  Y2.533
G1 X1.2284 Y2.5369
G1 X1.2262 Y2.5406
G1 X1.2235 Y2.544
G1 X1.193 Y2.5775
G1 X1.1609 Y2.6076
G1 X1.1269 Y2.6355
G1 X1.0908 Y2.6622
G1 X1.0726 Y2.6743
G1 X1.0536 Y2.6848
M67 E0 Q0
G0 X1.1509 Y2.5001 F0
M67 E0 Q1
G1 X1.1314 Y2.4945 F96
G1 X1.1122 Y2.4877
G1 X1.0934 Y2.4797
G1 X1.0752 Y2.4706
G1 X1.0579 Y2.4606
G1 X1.0415 Y2.4498
G1 X1.0265 Y2.4382
G1 X1.0128 Y2.4261
G1 X1.0008 Y2.4136
G1 X0.9905 Y2.4007
G1 X0.9767 Y2.3787
G1 X0.9653 Y2.3555
G1 X0.9562 Y2.3312
G1 X0.9494 Y2.3061
G1 X0.9448 Y2.2804
G1 X0.9424 Y2.2544
G1  Y2.2283
G1 X0.9439 Y2.2023
G1 X1.0133 Y2.2157
G1 X1.0608 Y2.2256
G1 X1.1074 Y2.2391
G1 X1.1295 Y2.248
G1 X1.1506 Y2.2588
G1 X1.1702 Y2.2719
G1 X1.188 Y2.2875
G1 X1.2032 Y2.3052
G1 X1.2159 Y2.3245
G1 X1.2264 Y2.3452
G1 X1.2351 Y2.367
G1 X1.2482 Y2.4127
G1 X1.2579 Y2.4593
G1 X1.231 Y2.4519
G1 X1.2048 Y2.4425
G1 X1.1794 Y2.431
G1 X1.1549 Y2.4177
G1 X1.1315 Y2.4025
G1 X1.1093 Y2.3856
G1 X1.0885 Y2.3671
G1 X1.0692 Y2.347
G1 X1.0921 Y2.3743
G1 X1.1139 Y2.4009
G1 X1.1253 Y2.4138
G1 X1.1375 Y2.4261
G1 X1.1507 Y2.4379
G1 X1.1654 Y2.4491
G1 X1.189 Y2.4626
G1 X1.2142 Y2.474
G1 X1.239 Y2.4855
G1 X1.2612 Y2.4993
G1 X1.2446 Y2.5041
G1 X1.227 Y2.5068
G1 X1.2086 Y2.5077
G1 X1.1897 Y2.5068
G1 X1.1703 Y2.5042
G1 X1.1509 Y2.5001
M67 E0 Q0
G0 X1.3393 Y2.5359 F0
M67 E0 Q1
G1 X1.3429 Y2.5274 F96
G1 X1.3468 Y2.5218
G1 X1.352 Y2.5174
G1 X1.3576 Y2.5135
G1 X1.364 Y2.5111
G1 X1.3663 Y2.5105
G1 X1.3688
G1 X1.3759 Y2.5098
G1 X1.383 Y2.5111
G1 X1.3844
G1 X1.3927 Y2.515
G1 X1.3983 Y2.5189
G1 X1.4026 Y2.524
G1 X1.4054 Y2.5276
G1 X1.4071 Y2.5317
G1 X1.4095 Y2.5383
G1 X1.4101 Y2.5453
G1 X1.4089 Y2.5546
G1 X1.4053 Y2.563
G1 X1.4014 Y2.5685
G1 X1.3963 Y2.5729
G1 X1.3908 Y2.5768
G1 X1.3844 Y2.5791
G1 X1.3836
G1 X1.3736 Y2.5808
G1 X1.3686
G1 X1.3641 Y2.5795
G1 X1.3556 Y2.5759
G1 X1.35 Y2.5719
G1 X1.3456 Y2.5668
G1 X1.3428 Y2.5631
G1 X1.3411 Y2.5589
G1 X1.3386 Y2.5524
G1 X1.338 Y2.5453
G1 X1.3393 Y2.5359
M67 E0 Q0
G0 X1.438 Y2.5662 F0
M67 E0 Q1
G1 X1.4441 Y2.5616 F96
G1 X1.4513 Y2.5585
G1 X1.4591 Y2.5575
G1 X1.4651 Y2.558
G1 X1.4706 Y2.5601
G1 X1.4758 Y2.5625
G1 X1.4802 Y2.5662
G1 X1.4849 Y2.5723
G1 X1.4879 Y2.5794
G1 X1.489 Y2.5873
G1 X1.4879 Y2.5953
G1 X1.4868 Y2.5992
G1 X1.4839 Y2.606
G1 X1.4807 Y2.6105
G1 X1.4765 Y2.6141
G1 X1.4736 Y2.6163
G1 X1.4702 Y2.6177
G1 X1.4648 Y2.6197
G1 X1.4591 Y2.6202
G1 X1.4515 Y2.6192
G1 X1.4446 Y2.6163
G1 X1.4401 Y2.6131
G1 X1.4366 Y2.6089
G1 X1.4334 Y2.6044
G1 X1.4315 Y2.5992
G1 X1.4303 Y2.5953
G1 X1.4293 Y2.5873
G1 X1.4303 Y2.5794
G1 X1.4333 Y2.5723
G1 X1.438 Y2.5662
M67 E0 Q0
G0 X1.5457 Y2.6246 F0
M67 E0 Q1
G1 X1.5474 Y2.6233 F96
G1 X1.5494 Y2.6225
G1 X1.5525 Y2.6213
G1 X1.5558
G1 X1.5603
G1 X1.5643 Y2.6233
G1 X1.5669 Y2.6252
G1 X1.569 Y2.6276
G1 X1.5703 Y2.6294
G1 X1.5713 Y2.6314
G1 X1.5722 Y2.633
G1 X1.5729 Y2.6348
G1 X1.5742 Y2.6382
G1  Y2.642
G1  Y2.6457
G1 X1.5729 Y2.6492
G1 X1.5714 Y2.6524
G1 X1.569 Y2.6552
G1 X1.5663 Y2.6576
G1 X1.563 Y2.6591
G1 X1.5595 Y2.6604
G1 X1.5558
G1 X1.5508
G1 X1.5464 Y2.6582
G1 X1.5426 Y2.6552
G1 X1.5396 Y2.6514
G1 X1.5377 Y2.6469
G1 X1.5371 Y2.642
G1 X1.5378 Y2.637
G1 X1.5388 Y2.6343
G1 X1.5403 Y2.6319
G1 X1.5413 Y2.6293
G1 X1.5432 Y2.6267
G1 X1.5457 Y2.6246
M67 E0 Q0
G0 X1.723 Y2.5179 F0
M67 E0 Q1
G1 X1.7314 Y2.5231 F96
G1 X1.7284 Y2.5128
G1 X1.7262 Y2.5024
G1 X1.7245 Y2.4882
G1  Y2.4742
G1 X1.7253 Y2.4603
G1 X1.7274 Y2.4462
G1 X1.7291 Y2.4437
G1 X1.7319 Y2.4432
G1 X1.7346 Y2.4445
G1 X1.7356 Y2.4473
G1  Y2.4603
G1 X1.7362 Y2.4735
G1 X1.7381 Y2.4865
G1 X1.741 Y2.4992
G1 X1.7475 Y2.5191
G1 X1.7562 Y2.538
G1 X1.7626 Y2.5419
G1 X1.7566 Y2.5227
G1 X1.7537 Y2.5028
G1 X1.7543 Y2.483
G1 X1.7585 Y2.4638
G1 X1.766 Y2.4464
G1 X1.7761 Y2.4308
G1 X1.7885 Y2.4173
G1 X1.8028 Y2.4059
G1 X1.8187 Y2.3969
G1 X1.8359 Y2.3904
G1 X1.8539 Y2.3865
G1 X1.8725 Y2.3855
G1  Y2.3685
G1 X1.8737 Y2.3513
G1 X1.8768 Y2.3343
G1 X1.8815 Y2.3177
G1 X1.8879 Y2.3019
G1 X1.8962 Y2.287
G1 X1.9064 Y2.2734
G1 X1.9185 Y2.2614
G1 X1.9267 Y2.2552
G1 X1.9356 Y2.2497
G1 X1.9452 Y2.2452
G1 X1.9552 Y2.2415
G1 X1.9655 Y2.2388
G1 X1.976 Y2.2371
G1 X1.9866 Y2.2364
G1 X1.9972 Y2.2369
G1 X1.9936 Y2.2333
G1 X1.9785 Y2.2316
G1 X1.9638 Y2.2307
G1 X1.9492 Y2.2312
G1 X1.9348 Y2.2335
G1 X1.9204 Y2.2378
G1 X1.9069 Y2.244
G1 X1.8944 Y2.2521
G1 X1.8831 Y2.262
G1 X1.8794 Y2.2636
G1 X1.876 Y2.262
G1 X1.8744 Y2.2586
G1 X1.8758 Y2.2546
G1 X1.8896 Y2.2413
G1 X1.9058 Y2.23
G1 X1.9237 Y2.2211
G1 X1.9426 Y2.2153
G1 X1.9282 Y2.2159
G1 X1.9137 Y2.2183
G1 X1.8994 Y2.2223
G1 X1.8856 Y2.2274
G1 X1.8737 Y2.2332
G1 X1.8621 Y2.2404
G1 X1.8514 Y2.2491
G1 X1.842 Y2.259
G1 X1.8344 Y2.2701
G1 X1.8291 Y2.2823
G1 X1.8265 Y2.2954
G1 X1.8273 Y2.3094
G1 X1.8299 Y2.3199
G1 X1.8322 Y2.3299
G1  Y2.3347
G1 X1.8312 Y2.3393
G1 X1.8286 Y2.3438
G1 X1.8241 Y2.348
G1 X1.8146 Y2.3526
G1 X1.804 Y2.3549
G1 X1.7931 Y2.3563
G1 X1.7827 Y2.3584
G1 X1.771 Y2.3627
G1 X1.76 Y2.3684
G1 X1.7499 Y2.3754
G1 X1.7407 Y2.3835
G1 X1.7325 Y2.3928
G1 X1.7255 Y2.403
G1 X1.7198 Y2.414
G1 X1.7155 Y2.4256
G1 X1.7127 Y2.4373
G1 X1.711 Y2.4491
G1 X1.7105 Y2.4608
G1 X1.711 Y2.4725
G1 X1.7152 Y2.4956
G1 X1.723 Y2.5179
M67 E0 Q0
G0 X1.7744 Y2.5181 F0
M67 E0 Q1
G1 X1.7773 Y2.5291 F96
G1 X1.7815 Y2.5397
G1 X1.7868 Y2.5499
G1 X1.7931 Y2.5595
G1 X1.806 Y2.5668
G1 X1.8025 Y2.5574
G1 X1.7998 Y2.5478
G1 X1.7973 Y2.5338
G1 X1.7965 Y2.5197
G1 X1.7973 Y2.5056
G1 X1.7999 Y2.4917
G1 X1.8022 Y2.4887
G1 X1.8055
G1 X1.8084 Y2.4905
G1 X1.8093 Y2.4943
G1 X1.8081 Y2.5071
G1  Y2.5198
G1 X1.8102 Y2.5325
G1 X1.8133 Y2.5449
G1 X1.8171 Y2.5548
G1 X1.8217 Y2.5642
G1 X1.8271 Y2.5732
G1 X1.833 Y2.582
G1 X1.8356 Y2.5834
G1 X1.8281 Y2.5661
G1 X1.824 Y2.5478
G1 X1.8233 Y2.5382
G1 X1.8238 Y2.5284
G1 X1.8254 Y2.5183
G1 X1.8282 Y2.508
G1 X1.8351 Y2.4921
G1 X1.8447 Y2.4779
G1 X1.8566 Y2.4658
G1 X1.8702 Y2.4558
G1 X1.8853 Y2.4482
G1 X1.9015 Y2.4432
G1 X1.9183 Y2.4408
G1 X1.9354 Y2.4413
G1 X1.9322 Y2.4248
G1 X1.931 Y2.408
G1 X1.9319 Y2.3912
G1 X1.9349 Y2.3748
G1 X1.9401 Y2.3592
G1 X1.9478 Y2.3446
G1 X1.9579 Y2.3315
G1 X1.9706 Y2.3202
G1 X1.9812 Y2.3135
G1 X1.9921 Y2.3083
G1 X2.0032 Y2.3047
G1 X2.0146 Y2.3026
G1 X2.0261 Y2.3017
G1 X2.0376 Y2.3022
G1 X2.0491 Y2.3038
G1 X2.0605 Y2.3065
G1 X2.0498 Y2.2941
G1 X2.0389 Y2.2818
G1 X2.0204 Y2.2808
G1 X2.0018 Y2.2819
G1 X1.9899 Y2.2838
G1 X1.9784 Y2.2869
G1 X1.9674 Y2.2912
G1 X1.9568 Y2.2968
G1 X1.9546
G1 X1.953 Y2.2958
G1  Y2.2938
G1 X1.9539 Y2.2919
G1 X1.9647 Y2.2851
G1 X1.9761 Y2.2791
G1 X1.988 Y2.2741
G1 X2.0002 Y2.2702
G1 X2.0059 Y2.2689
G1 X2.0117 Y2.2679
G1 X1.9987 Y2.2656
G1 X1.9848
G1 X1.9712 Y2.2677
G1 X1.958 Y2.2713
G1 X1.9454 Y2.2766
G1 X1.9337 Y2.2838
G1 X1.9219 Y2.2941
G1 X1.9124 Y2.306
G1 X1.905 Y2.3192
G1 X1.8996 Y2.3335
G1 X1.896 Y2.3484
G1 X1.8942 Y2.3638
G1  Y2.3793
G1 X1.8954 Y2.3945
G1  Y2.4006
G1 X1.8924 Y2.4052
G1 X1.8878 Y2.4079
G1 X1.8816
G1 X1.8652 Y2.4073
G1 X1.8488 Y2.4094
G1 X1.8329 Y2.4144
G1 X1.8179 Y2.4218
G1 X1.8044 Y2.4316
G1 X1.7927 Y2.4434
G1 X1.7833 Y2.457
G1 X1.7767 Y2.4722
G1 X1.7738 Y2.4838
G1 X1.7726 Y2.4953
G1  Y2.5068
G1 X1.7744 Y2.5181
M67 E0 Q0
G0 X1.845 Y2.5305 F0
M67 E0 Q1
G1 X1.8443 Y2.5418 F96
G1 X1.8453 Y2.5526
G1 X1.8477 Y2.5632
G1 X1.8514 Y2.5733
G1 X1.8561 Y2.5831
G1 X1.8619 Y2.5925
G1 X1.8685 Y2.6016
G1 X1.8736 Y2.6044
G1 X1.885 Y2.6105
G1 X1.8821 Y2.6033
G1 X1.8796 Y2.5959
G1 X1.876 Y2.5804
G1 X1.8746 Y2.5646
G1  Y2.5566
G1 X1.8754 Y2.5481
G1 X1.8771 Y2.5398
G1 X1.8806 Y2.5328
G1 X1.8827 Y2.5311
G1 X1.8854 Y2.5306
G1 X1.8878 Y2.5315
G1 X1.8892 Y2.5339
G1 X1.8898 Y2.5479
G1  Y2.5621
G1 X1.8914 Y2.5766
G1 X1.8949 Y2.5908
G1 X1.8984 Y2.6004
G1 X1.9029 Y2.6095
G1 X1.9081 Y2.6181
G1 X1.9142 Y2.6262
G1 X1.9296 Y2.6345
G1 X1.945 Y2.6426
G1 X1.9373 Y2.6356
G1 X1.93 Y2.6283
G1 X1.9231 Y2.6205
G1 X1.9169 Y2.6121
G1 X1.9103 Y2.6005
G1 X1.9056 Y2.5882
G1 X1.9029 Y2.5754
G1 X1.9023 Y2.5625
G1 X1.904 Y2.5499
G1 X1.9082 Y2.5378
G1 X1.915 Y2.5268
G1 X1.9246 Y2.5171
G1 X1.9344 Y2.5104
G1 X1.945 Y2.5054
G1 X1.9563 Y2.502
G1 X1.9679 Y2.5001
G1 X1.9798 Y2.4996
G1 X1.9917 Y2.5003
G1 X2.0035 Y2.502
G1 X2.0149 Y2.5048
G1 X2.0111 Y2.4961
G1 X2.0079 Y2.4869
G1 X2.0055 Y2.4775
G1 X2.0039 Y2.4676
G1 X2.0033 Y2.4484
G1 X2.0062 Y2.4294
G1 X2.009 Y2.4202
G1 X2.0127 Y2.4114
G1 X2.0174 Y2.403
G1 X2.0231 Y2.3953
G1 X2.0309 Y2.3873
G1 X2.0397 Y2.3808
G1 X2.0494 Y2.3758
G1 X2.0596 Y2.3721
G1 X2.0703 Y2.3698
G1 X2.0812 Y2.3687
G1 X2.0923
G1 X2.1032 Y2.3704
G1 X2.1063 Y2.3711
G1 X2.1094 Y2.3719
G1 X2.0958 Y2.3636
G1 X2.0813 Y2.3575
G1 X2.066 Y2.3539
G1 X2.05 Y2.3532
G1 X2.0332 Y2.3556
G1 X2.0171 Y2.3612
G1 X2.0023 Y2.3695
G1 X1.9893 Y2.3803
G1 X1.986 Y2.3817
G1 X1.9831 Y2.3803
G1 X1.9817 Y2.3773
G1 X1.9829 Y2.3739
G1 X1.9908 Y2.3658
G1 X1.9997 Y2.3588
G1 X2.0095 Y2.3529
G1 X2.0199 Y2.348
G1 X2.0309 Y2.3443
G1 X2.0422 Y2.3417
G1 X2.0538 Y2.3403
G1 X2.0654
G1 X2.0555 Y2.3364
G1 X2.0455 Y2.3335
G1 X2.0353 Y2.3316
G1 X2.0251 Y2.3309
G1 X2.015 Y2.3314
G1 X2.0049 Y2.3332
G1 X1.995 Y2.3366
G1 X1.9853 Y2.3416
G1 X1.9731 Y2.3514
G1 X1.964 Y2.3633
G1 X1.9579 Y2.3768
G1 X1.9545 Y2.3915
G1 X1.9535 Y2.4068
G1 X1.9547 Y2.4222
G1 X1.9579 Y2.4372
G1 X1.9629 Y2.4513
G1 X1.9638 Y2.458
G1 X1.9616 Y2.4644
G1 X1.9595 Y2.4669
G1 X1.9568 Y2.4685
G1 X1.9535 Y2.4691
G1 X1.9497 Y2.4684
G1 X1.9335 Y2.4642
G1 X1.9173 Y2.4632
G1 X1.9018 Y2.4655
G1 X1.8872 Y2.4708
G1 X1.8741 Y2.4789
G1 X1.8628 Y2.4897
G1 X1.8538 Y2.5031
G1 X1.8474 Y2.519
G1 X1.845 Y2.5305
M67 E0 Q0
G0 X1.9289 Y2.5438 F0
M67 E0 Q1
G1 X1.924 Y2.5543 F96
G1 X1.9221 Y2.5658
G1 X1.923 Y2.5778
G1 X1.9262 Y2.5898
G1 X1.9315 Y2.6015
G1 X1.9386 Y2.6122
G1 X1.9551 Y2.6307
G1 X1.9737 Y2.6476
G1 X1.9936 Y2.6632
G1 X2.014 Y2.6777
G1 X2.0759 Y2.7077
G1 X2.1385 Y2.7363
G1 X2.1435 Y2.7384
G1 X2.1306 Y2.7247
G1 X2.1193 Y2.7097
G1 X2.11 Y2.6937
G1 X2.103 Y2.6767
G1 X2.0696 Y2.6562
G1 X2.0374 Y2.6337
G1 X2.0041 Y2.6091
G1 X1.9714 Y2.5836
G1 X1.97 Y2.5809
G1 X1.9711 Y2.578
G1 X1.9736 Y2.5763
G1 X1.9766 Y2.5769
G1 X2.0109 Y2.5999
G1 X2.0463 Y2.621
G1 X2.0718 Y2.6345
G1 X2.0975 Y2.6475
G1  Y2.6378
G1 X2.0984 Y2.6279
G1 X2.1002 Y2.6181
G1 X2.103 Y2.6087
G1 X2.1066 Y2.5998
G1 X2.1109 Y2.5915
G1 X2.0899 Y2.5798
G1 X2.0696 Y2.5664
G1 X2.0507 Y2.551
G1 X2.0339 Y2.5338
G1 X2.0134 Y2.5263
G1 X1.9916 Y2.5218
G1 X1.9805 Y2.5212
G1 X1.9696 Y2.5218
G1 X1.959 Y2.5239
G1 X1.9487 Y2.5275
G1 X1.9424 Y2.5308
G1 X1.937 Y2.5347
G1 X1.9325 Y2.539
G1 X1.9289 Y2.5438
M67 E0 Q0
G0 X2.0413 Y2.5058 F0
M67 E0 Q1
G1 X2.0485 Y2.515 F96
G1 X2.0565 Y2.5238
G1 X2.0738 Y2.5355
G1 X2.0905 Y2.5482
G1 X2.107 Y2.5614
G1 X2.1237 Y2.5745
G1 X2.1314 Y2.5674
G1 X2.1397 Y2.5613
G1 X2.1488 Y2.5562
G1 X2.1584 Y2.5523
G1 X2.1406 Y2.5291
G1 X2.1219 Y2.5065
G1 X2.1022 Y2.4849
G1 X2.0811 Y2.4648
G1 X2.08 Y2.4622
G1 X2.0809 Y2.4597
G1 X2.0831 Y2.4582
G1 X2.0858 Y2.4587
G1 X2.113 Y2.4795
G1 X2.1393 Y2.5014
G1 X2.1622 Y2.5236
G1 X2.1832 Y2.5476
G1 X2.1972 Y2.548
G1 X2.2116 Y2.5507
G1 X2.2216 Y2.5538
G1 X2.2313 Y2.5576
G1 X2.2407 Y2.5621
G1 X2.2498 Y2.5672
G1 X2.1987 Y2.4902
G1 X2.1458 Y2.4145
G1 X2.1337 Y2.407
G1 X2.121 Y2.4007
G1 X2.1074 Y2.396
G1 X2.093 Y2.393
G1 X2.0812 Y2.3924
G1 X2.07 Y2.3937
G1 X2.0596 Y2.3969
G1 X2.0502 Y2.4018
G1 X2.042 Y2.4085
G1 X2.0351 Y2.4168
G1 X2.0299 Y2.4267
G1 X2.0265 Y2.4381
G1 X2.0248 Y2.451
G1  Y2.4633
G1 X2.0269 Y2.4748
G1 X2.0304 Y2.4858
G1 X2.0352 Y2.4961
G1 X2.0413 Y2.5058
M67 E0 Q0
G0 X2.1568 Y2.5835 F0
M67 E0 Q1
G1 X2.1502 Y2.5879 F96
G1 X2.1443 Y2.5931
G1 X2.1347 Y2.6057
G1 X2.1281 Y2.6204
G1 X2.1257 Y2.6299
G1 X2.1245 Y2.6394
G1  Y2.6487
G1 X2.1254 Y2.6579
G1 X2.1302 Y2.6758
G1 X2.1383 Y2.6928
G1 X2.1489 Y2.7087
G1 X2.1616 Y2.7233
G1 X2.1755 Y2.7364
G1 X2.1901 Y2.7477
G1 X2.2193 Y2.7663
G1 X2.2496 Y2.7829
G1 X2.2711 Y2.7915
G1 X2.2677 Y2.788
G1 X2.2643 Y2.7844
G1 X2.2566 Y2.7754
G1 X2.2494 Y2.7658
G1 X2.2435 Y2.7554
G1 X2.2397 Y2.7442
G1 X2.2387 Y2.7349
G1 X2.2395 Y2.7257
G1 X2.2419 Y2.717
G1 X2.2458 Y2.7087
G1 X2.2381 Y2.7001
G1 X2.2305 Y2.6913
G1 X2.2215 Y2.6813
G1 X2.1938 Y2.6519
G1 X2.176 Y2.6316
G1 X2.1752 Y2.6294
G1 X2.1761 Y2.6276
G1 X2.1779 Y2.6267
G1 X2.1801 Y2.6275
G1 X2.2207 Y2.6631
G1 X2.2306 Y2.6714
G1 X2.2407 Y2.6793
G1 X2.2591 Y2.6925
G1 X2.2646 Y2.6882
G1 X2.2705 Y2.6845
G1 X2.2768 Y2.6814
G1 X2.2833 Y2.6791
G1 X2.2921 Y2.6772
G1 X2.3008 Y2.6766
G1 X2.3094 Y2.677
G1 X2.3179 Y2.6786
G1 X2.3022 Y2.6553
G1 X2.2848 Y2.6335
G1 X2.2652 Y2.6137
G1 X2.243 Y2.5967
G1 X2.2267 Y2.5874
G1 X2.209 Y2.5803
G1 X2.1998 Y2.578
G1 X2.1905 Y2.5767
G1 X2.1812
G1 X2.1718 Y2.5778
G1 X2.164 Y2.5801
G1 X2.1568 Y2.5835
M67 E0 Q0
G0 X2.3239 Y2.5814 F0
M67 E0 Q1
G1 X2.3296 Y2.5992 F96
G1 X2.3357 Y2.6169
G1 X2.3429 Y2.5943
G1 X2.3531 Y2.5729
G1 X2.3661 Y2.553
G1 X2.3816 Y2.5351
G1 X2.3995 Y2.5194
G1 X2.4195 Y2.5063
G1 X2.4414 Y2.4961
G1 X2.4651 Y2.4891
G1 X2.4682
G1 X2.4708 Y2.4901
G1 X2.4726 Y2.492
G1 X2.4738 Y2.4944
G1  Y2.497
G1 X2.4734 Y2.4996
G1 X2.4717 Y2.5016
G1 X2.4689 Y2.503
G1 X2.4554 Y2.5072
G1 X2.4422 Y2.5125
G1 X2.4297 Y2.519
G1 X2.4177 Y2.5266
G1 X2.4066 Y2.5353
G1 X2.3962 Y2.5449
G1 X2.3868 Y2.5555
G1 X2.3784 Y2.567
G1 X2.3716 Y2.5784
G1 X2.366 Y2.5902
G1 X2.3615 Y2.6024
G1 X2.3582 Y2.6149
G1 X2.3559 Y2.6275
G1 X2.3547 Y2.6404
G1  Y2.6533
G1 X2.3554 Y2.6663
G1 X2.3629 Y2.6829
G1 X2.3709 Y2.6992
G1 X2.3725 Y2.686
G1 X2.375 Y2.6728
G1 X2.3786 Y2.66
G1 X2.3831 Y2.6474
G1 X2.3892 Y2.6338
G1 X2.3962 Y2.6206
G1 X2.4041 Y2.6081
G1 X2.413 Y2.5962
G1 X2.4228 Y2.5852
G1 X2.4336 Y2.575
G1 X2.4453 Y2.5658
G1 X2.4578 Y2.5576
G1 X2.4625 Y2.557
G1 X2.4657 Y2.5597
G1 X2.4665 Y2.564
G1 X2.4639 Y2.568
G1 X2.4532 Y2.5762
G1 X2.4432 Y2.5853
G1 X2.4341 Y2.5952
G1 X2.4259 Y2.6059
G1 X2.4187 Y2.6172
G1 X2.4124 Y2.6291
G1 X2.4072 Y2.6415
G1 X2.4031 Y2.6544
G1 X2.3982 Y2.6798
G1 X2.3966 Y2.7062
G1 X2.3984 Y2.7327
G1 X2.4035 Y2.758
G1  Y2.7584
G1 X2.4087 Y2.7671
G1 X2.411 Y2.7458
G1 X2.4157 Y2.725
G1 X2.4228 Y2.7048
G1 X2.432 Y2.6855
G1 X2.4434 Y2.6673
G1 X2.4567 Y2.6505
G1 X2.4718 Y2.6353
G1 X2.4888 Y2.6219
G1 X2.4914 Y2.6209
G1 X2.494
G1 X2.4964 Y2.6222
G1 X2.4984 Y2.6241
G1 X2.4997 Y2.6264
G1 X2.5002 Y2.629
G1 X2.4996 Y2.6315
G1 X2.4978 Y2.6336
G1 X2.488 Y2.6419
G1 X2.479 Y2.6508
G1 X2.4707 Y2.6604
G1 X2.4633 Y2.6705
G1 X2.451 Y2.6923
G1 X2.4419 Y2.7155
G1 X2.4364 Y2.7399
G1 X2.4343 Y2.7649
G1 X2.4359 Y2.79
G1 X2.4411 Y2.8148
G1 X2.4464 Y2.8223
G1 X2.449 Y2.8256
G1 X2.4516 Y2.8035
G1 X2.4564 Y2.7817
G1 X2.4647 Y2.7588
G1 X2.476 Y2.7374
G1 X2.4899 Y2.7175
G1 X2.5061 Y2.6992
G1 X2.5105 Y2.6973
G1 X2.5144 Y2.6992
G1 X2.5162 Y2.7032
G1 X2.5147 Y2.7078
G1 X2.5018 Y2.7259
G1 X2.4913 Y2.7454
G1 X2.483 Y2.7661
G1 X2.4769 Y2.7874
G1 X2.4731 Y2.8085
G1 X2.4719 Y2.8299
G1 X2.4728 Y2.8442
G1 X2.4749 Y2.8583
G1 X2.4839 Y2.8692
G1 X2.4875 Y2.8717
G1 X2.4896 Y2.8751
G1 X2.4958 Y2.8769
G1 X2.4939 Y2.8711
G1 X2.4926 Y2.8648
G1 X2.4916 Y2.855
G1  Y2.8451
G1 X2.4925 Y2.8353
G1 X2.4942 Y2.8255
G1 X2.5003 Y2.8058
G1 X2.5092 Y2.7873
G1 X2.5199 Y2.7698
G1 X2.5315 Y2.7527
G1 X2.5339 Y2.7511
G1 X2.5363 Y2.7515
G1 X2.5379 Y2.7535
G1  Y2.7564
G1 X2.5307 Y2.773
G1 X2.5241 Y2.79
G1 X2.5187 Y2.8074
G1 X2.5153 Y2.8251
G1 X2.5148 Y2.8404
G1 X2.5166 Y2.8558
G1 X2.5207 Y2.8707
G1 X2.5268 Y2.8848
G1 X2.5279 Y2.8883
G1  Y2.8917
G1 X2.5414 Y2.901
G1 X2.554 Y2.9117
G1 X2.5655 Y2.9237
G1 X2.5758 Y2.9369
G1 X2.5838 Y2.9225
G1 X2.5941 Y2.9094
G1 X2.6062 Y2.8982
G1 X2.6197 Y2.8892
G1 X2.6252 Y2.8864
G1 X2.6308 Y2.8839
G1 X2.6367 Y2.87
G1 X2.6406 Y2.8553
G1 X2.6424 Y2.8402
G1 X2.6419 Y2.8251
G1 X2.6385 Y2.8074
G1 X2.6331 Y2.79
G1 X2.6265 Y2.773
G1 X2.6194 Y2.7564
G1  Y2.7535
G1 X2.6209 Y2.7515
G1 X2.6233 Y2.7511
G1 X2.6257 Y2.7527
G1 X2.6373 Y2.7698
G1 X2.648 Y2.7873
G1 X2.6569 Y2.8058
G1 X2.663 Y2.8255
G1 X2.6647 Y2.8348
G1 X2.6656 Y2.8442
G1  Y2.8537
G1 X2.6649 Y2.8631
G1 X2.6643 Y2.8662
G1 X2.6636 Y2.8692
G1 X2.6661 Y2.8662
G1 X2.668 Y2.8624
G1 X2.6714 Y2.8596
G1 X2.678 Y2.8514
G1 X2.6845 Y2.8431
G1 X2.6851 Y2.8372
G1  Y2.8312
G1 X2.6842 Y2.8091
G1 X2.6803 Y2.7874
G1 X2.6742 Y2.7661
G1 X2.6659 Y2.7454
G1 X2.6554 Y2.7259
G1 X2.6425 Y2.7078
G1 X2.641 Y2.7032
G1 X2.6428 Y2.6992
G1 X2.6467 Y2.6973
G1 X2.6511 Y2.6992
G1 X2.6673 Y2.7175
G1 X2.6812 Y2.7374
G1 X2.6925 Y2.7588
G1 X2.7008 Y2.7817
G1 X2.7045 Y2.7972
G1 X2.707 Y2.813
G1 X2.7141 Y2.803
G1 X2.721 Y2.793
G1 X2.7229 Y2.7706
G1 X2.722 Y2.7483
G1 X2.7182 Y2.7264
G1 X2.7117 Y2.7051
G1 X2.7025 Y2.6849
G1 X2.6907 Y2.666
G1 X2.6763 Y2.6488
G1 X2.6594 Y2.6336
G1 X2.6576 Y2.6315
G1 X2.657 Y2.629
G1 X2.6575 Y2.6264
G1 X2.6588 Y2.6241
G1 X2.6608 Y2.6222
G1 X2.6632 Y2.621
G1 X2.6658
G1 X2.6684 Y2.6219
G1 X2.6839 Y2.634
G1 X2.6979 Y2.6476
G1 X2.7104 Y2.6626
G1 X2.7213 Y2.6788
G1 X2.7305 Y2.696
G1 X2.738 Y2.714
G1 X2.7435 Y2.7327
G1 X2.7471 Y2.7518
G1 X2.753 Y2.7418
G1 X2.7589 Y2.7316
G1 X2.7604 Y2.7121
G1  Y2.6924
G1 X2.758 Y2.673
G1 X2.754 Y2.6544
G1 X2.7499 Y2.6415
G1 X2.7447 Y2.6291
G1 X2.7385 Y2.6172
G1 X2.7312 Y2.6059
G1 X2.723 Y2.5952
G1 X2.7139 Y2.5853
G1 X2.704 Y2.5762
G1 X2.6933 Y2.568
G1 X2.6907 Y2.564
G1 X2.6914 Y2.5597
G1 X2.6947 Y2.557
G1 X2.6993 Y2.5576
G1 X2.7119 Y2.5658
G1 X2.7236 Y2.575
G1 X2.7343 Y2.5852
G1 X2.7441 Y2.5962
G1 X2.753 Y2.6081
G1 X2.761 Y2.6206
G1 X2.768 Y2.6338
G1 X2.7741 Y2.6474
G1 X2.7799 Y2.6644
G1 X2.784 Y2.6819
G1 X2.7936 Y2.6604
G1 X2.8025 Y2.6386
G1 X2.8001 Y2.6199
G1 X2.7954 Y2.6016
G1 X2.7883 Y2.5839
G1 X2.7788 Y2.567
G1 X2.7704 Y2.5555
G1 X2.761 Y2.5449
G1 X2.7506 Y2.5352
G1 X2.7394 Y2.5266
G1 X2.7275 Y2.519
G1 X2.7149 Y2.5125
G1 X2.7018 Y2.5072
G1 X2.6883 Y2.503
G1 X2.6855 Y2.5016
G1 X2.6838 Y2.4995
G1 X2.6831 Y2.497
G1  Y2.4944
G1 X2.6845 Y2.492
G1 X2.6864 Y2.4901
G1 X2.689 Y2.489
G1 X2.6921
G1 X2.7135 Y2.4952
G1 X2.7335 Y2.5041
G1 X2.7521 Y2.5153
G1 X2.7689 Y2.5288
G1 X2.7839 Y2.5441
G1 X2.7968 Y2.5612
G1 X2.8076 Y2.5796
G1 X2.8161 Y2.5993
G1 X2.8244 Y2.5721
G1 X2.8316 Y2.5446
G1 X2.8306 Y2.5397
G1 X2.8274 Y2.5289
G1 X2.8232 Y2.5185
G1 X2.8179 Y2.5085
G1 X2.8117 Y2.4991
G1 X2.7972 Y2.4817
G1 X2.7803 Y2.4669
G1 X2.7595 Y2.4533
G1 X2.7374 Y2.4426
G1 X2.7142 Y2.4344
G1 X2.69 Y2.4286
G1 X2.6622 Y2.4244
G1 X2.6344 Y2.4219
G1 X2.6065 Y2.4202
G1 X2.5786 Y2.4182
G1 X2.5507 Y2.4202
G1 X2.5228 Y2.422
G1 X2.4949 Y2.4244
G1 X2.4672 Y2.4286
G1 X2.443 Y2.4344
G1 X2.4198 Y2.4426
G1 X2.3977 Y2.4533
G1 X2.3769 Y2.4669
G1 X2.36 Y2.4818
G1 X2.3454 Y2.4991
G1 X2.3393 Y2.5086
G1 X2.334 Y2.5185
G1 X2.3297 Y2.5289
G1 X2.3265 Y2.5397
G1 X2.3246 Y2.5501
G1 X2.3235 Y2.5605
G1  Y2.5709
G1  Y2.5814
M67 E0 Q0
G0 X2.3117 Y2.4957 F0
M67 E0 Q1
G1 X2.3195 Y2.4811 F96
G1 X2.3288 Y2.4674
G1 X2.3397 Y2.4547
G1 X2.3519 Y2.4432
G1 X2.3661 Y2.4322
G1 X2.3813 Y2.4226
G1 X2.3748 Y2.4184
G1 X2.368 Y2.415
G1 X2.3608 Y2.4126
G1 X2.3536 Y2.4113
G1 X2.3464
G1 X2.3395 Y2.4133
G1 X2.333 Y2.4169
G1 X2.3272 Y2.4225
G1 X2.3208 Y2.4325
G1 X2.3164 Y2.4439
G1 X2.3136 Y2.4558
G1 X2.3119 Y2.4675
G1 X2.3111 Y2.4801
G1  Y2.4927
G1 X2.3117 Y2.4957
M67 E0 Q0
G0 X2.2965 Y2.453 F0
M67 E0 Q1
G1 X2.2993 Y2.4397 F96
G1 X2.3035 Y2.4266
G1 X2.3096 Y2.4144
G1 X2.3179 Y2.4039
G1 X2.3252 Y2.3982
G1 X2.3331 Y2.3943
G1 X2.3416 Y2.3921
G1 X2.3504 Y2.3915
G1 X2.3592 Y2.3923
G1 X2.3679 Y2.3946
G1 X2.3761 Y2.3982
G1 X2.3836 Y2.4031
G1 X2.3841 Y2.3948
G1 X2.3856 Y2.3867
G1 X2.3881 Y2.379
G1 X2.3918 Y2.3719
G1 X2.3965 Y2.3655
G1 X2.4023 Y2.3599
G1 X2.4093 Y2.3554
G1 X2.4175 Y2.3521
G1 X2.4254 Y2.3506
G1 X2.4332
G1 X2.4406 Y2.3523
G1 X2.4478 Y2.3551
G1 X2.4608 Y2.3638
G1 X2.4717 Y2.3756
G1 X2.474 Y2.3621
G1 X2.477 Y2.3486
G1 X2.485 Y2.3221
G1 X2.4953 Y2.2965
G1 X2.5007 Y2.2854
G1 X2.5068 Y2.2746
G1 X2.5137 Y2.2644
G1 X2.5215 Y2.2548
G1 X2.5274 Y2.2487
G1 X2.5342 Y2.243
G1 X2.5191 Y2.2441
G1 X2.4742 Y2.2469
G1 X2.4441 Y2.2485
G1 X2.4169 Y2.2506
G1 X2.3901 Y2.2548
G1 X2.377 Y2.258
G1 X2.3642 Y2.2621
G1 X2.3517 Y2.2673
G1 X2.3396 Y2.2738
G1 X2.3299 Y2.2804
G1 X2.3214 Y2.2877
G1 X2.314 Y2.2956
G1 X2.3076 Y2.3041
G1 X2.2979 Y2.3225
G1 X2.2916 Y2.3426
G1  Y2.3513
G1 X2.2912 Y2.3599
G1  Y2.3833
G1 X2.2923 Y2.4067
G1 X2.294 Y2.4299
G1 X2.2965 Y2.453
M67 E0 Q0
G0 X2.3995 Y2.4134 F0
M67 E0 Q1
G1 X2.4151 Y2.4071 F96
G1 X2.4312 Y2.402
G1 X2.4477 Y2.3979
G1 X2.4645 Y2.395
G1 X2.4557 Y2.3851
G1 X2.4454 Y2.3765
G1 X2.4399 Y2.3733
G1 X2.4342 Y2.3711
G1 X2.4284 Y2.3703
G1 X2.4227 Y2.371
G1 X2.4163 Y2.3735
G1 X2.4112 Y2.3772
G1 X2.4072 Y2.382
G1 X2.4041 Y2.3875
G1 X2.4006 Y2.4001
G1 X2.3995 Y2.4134
M67 E0 Q0
G0 X2.4878 Y2.3928 F0
M67 E0 Q1
G1 X2.5108 Y2.3923 F96
G1 X2.5337 Y2.3935
G1 X2.5564 Y2.3961
G1 X2.5786 Y2.4002
G1 X2.6008 Y2.3961
G1 X2.6235 Y2.3935
G1 X2.6464 Y2.3923
G1 X2.6694 Y2.3928
G1 X2.6678 Y2.383
G1 X2.6654 Y2.3704
G1 X2.6625 Y2.3579
G1 X2.6553 Y2.3339
G1 X2.6459 Y2.3107
G1 X2.6412 Y2.3008
G1 X2.6362 Y2.291
G1 X2.6306 Y2.2815
G1 X2.6243 Y2.2725
G1 X2.6175 Y2.2647
G1 X2.6097 Y2.2579
G1 X2.6007 Y2.2531
G1 X2.5913 Y2.2488
G1 X2.5883 Y2.246
G1 X2.5871 Y2.2425
G1 X2.5877 Y2.2388
G1 X2.5897 Y2.2356
G1 X2.5876 Y2.2316
G1  Y2.2272
G1 X2.5894 Y2.2234
G1 X2.5935 Y2.2211
G1 X2.6152 Y2.218
G1 X2.6376 Y2.217
G1 X2.6418 Y2.2042
G1 X2.6474 Y2.1915
G1 X2.6484 Y2.174
G1 X2.6477 Y2.1565
G1 X2.6452 Y2.1391
G1 X2.6406 Y2.1217
G1 X2.6365 Y2.1108
G1 X2.6318 Y2.1003
G1 X2.6263 Y2.0901
G1 X2.6202 Y2.0803
G1 X2.6129 Y2.0705
G1 X2.6049 Y2.0614
G1 X2.5967 Y2.0525
G1 X2.5886 Y2.0435
G1 X2.5862 Y2.0388
G1  Y2.034
G1 X2.5847 Y2.0289
G1 X2.5855 Y2.0237
G1 X2.5882 Y2.0195
G1 X2.593 Y2.0173
G1 X2.6129 Y2.015
G1 X2.6332 Y2.0139
G1 X2.6536
G1 X2.6739 Y2.0158
G1 X2.678 Y2.0049
G1 X2.6825 Y1.9942
G1 X2.6884 Y1.9845
G1 X2.6965 Y1.9761
G1 X2.6997 Y1.9738
G1 X2.703 Y1.9718
G1 X2.6805 Y1.9622
G1 X2.6594 Y1.9498
G1 X2.6403 Y1.9344
G1 X2.6233 Y1.9161
G1 X2.6125 Y1.9012
G1 X2.6031 Y1.8855
G1 X2.595 Y1.869
G1 X2.588 Y1.8519
G1 X2.5832 Y1.8385
G1 X2.5785 Y1.8247
G1 X2.5741 Y1.8377
G1 X2.5696 Y1.8504
G1 X2.5627 Y1.8679
G1 X2.5544 Y1.8848
G1 X2.5449 Y1.9009
G1 X2.5338 Y1.9161
G1 X2.5169 Y1.9344
G1 X2.4977 Y1.9498
G1 X2.4767 Y1.9622
G1 X2.4541 Y1.9718
G1 X2.4575 Y1.9738
G1 X2.4606 Y1.9761
G1 X2.4688 Y1.9845
G1 X2.4746 Y1.9942
G1 X2.4791 Y2.0049
G1 X2.4832 Y2.0158
G1 X2.5036 Y2.0142
G1 X2.524
G1 X2.5442 Y2.015
G1 X2.5642 Y2.0173
G1 X2.5689 Y2.0195
G1 X2.5717 Y2.0237
G1 X2.5725 Y2.0288
G1 X2.5713 Y2.034
G1  Y2.0388
G1 X2.5685 Y2.0435
G1 X2.5527 Y2.0609
G1 X2.5377 Y2.0792
G1 X2.5314 Y2.0892
G1 X2.5257 Y2.0997
G1 X2.5207 Y2.1105
G1 X2.5166 Y2.1217
G1 X2.512 Y2.1392
G1 X2.5094 Y2.1566
G1 X2.5087 Y2.174
G1 X2.5097 Y2.1915
G1 X2.5154 Y2.2042
G1 X2.5196 Y2.217
G1 X2.5419 Y2.218
G1 X2.5636 Y2.2211
G1 X2.5677 Y2.2234
G1 X2.5697 Y2.2272
G1  Y2.2316
G1 X2.5675 Y2.2356
G1 X2.5695 Y2.2388
G1 X2.57 Y2.2425
G1 X2.5689 Y2.246
G1 X2.5658 Y2.2488
G1 X2.557 Y2.2528
G1 X2.5484 Y2.2573
G1 X2.5404 Y2.2639
G1 X2.5335 Y2.2717
G1 X2.527 Y2.2808
G1 X2.5212 Y2.2905
G1 X2.516 Y2.3005
G1 X2.5112 Y2.3107
G1 X2.5021 Y2.3332
G1 X2.495 Y2.3565
G1 X2.4921 Y2.369
G1 X2.4896 Y2.3816
G1 X2.4878 Y2.3928
M67 E0 Q0
G0 X2.6854 Y2.3756 F0
M67 E0 Q1
G1 X2.6963 Y2.3638 F96
G1 X2.7093 Y2.3551
G1 X2.7165 Y2.3523
G1 X2.7239 Y2.3507
G1 X2.7317
G1 X2.7396 Y2.3521
G1 X2.7478 Y2.3554
G1 X2.7548 Y2.3599
G1 X2.7606 Y2.3655
G1 X2.7653 Y2.3719
G1 X2.769 Y2.379
G1 X2.7715 Y2.3867
G1 X2.773 Y2.3948
G1 X2.7735 Y2.4031
G1 X2.781 Y2.3982
G1 X2.7892 Y2.3946
G1 X2.7979 Y2.3923
G1 X2.8067 Y2.3915
G1 X2.8155 Y2.3921
G1 X2.824 Y2.3943
G1 X2.832 Y2.3982
G1 X2.8392 Y2.4039
G1 X2.8458 Y2.4119
G1 X2.851 Y2.421
G1 X2.8525 Y2.3997
G1 X2.8534 Y2.3784
G1  Y2.3438
G1 X2.8527 Y2.3092
G1 X2.846 Y2.2992
G1 X2.838 Y2.2899
G1 X2.8285 Y2.2814
G1 X2.8175 Y2.2738
G1 X2.8056 Y2.2675
G1 X2.7934 Y2.2623
G1 X2.7809 Y2.2582
G1 X2.7681 Y2.255
G1 X2.7419 Y2.2508
G1 X2.7153 Y2.2486
G1 X2.6852 Y2.247
G1 X2.6551 Y2.2452
G1 X2.6392 Y2.2442
G1 X2.6228 Y2.2429
G1 X2.6297 Y2.2487
G1 X2.6356 Y2.2548
G1 X2.6434 Y2.2643
G1 X2.6503 Y2.2746
G1 X2.6564 Y2.2853
G1 X2.6618 Y2.2965
G1 X2.6721 Y2.3221
G1 X2.6801 Y2.3486
G1 X2.6831 Y2.362
G1 X2.6854 Y2.3756
M67 E0 Q0
G0 X2.7001 Y2.3871 F0
M67 E0 Q1
G1 X2.6929 Y2.3951 F96
G1 X2.7096 Y2.398
G1 X2.726 Y2.402
G1 X2.7421 Y2.4071
G1 X2.7576 Y2.4134
G1 X2.7565 Y2.4001
G1 X2.753 Y2.3875
G1 X2.7499 Y2.382
G1 X2.7459 Y2.3773
G1 X2.7408 Y2.3735
G1 X2.7344 Y2.371
G1 X2.7272 Y2.3704
G1 X2.7204 Y2.3724
G1 X2.7141 Y2.3759
G1 X2.7082 Y2.3801
G1 X2.7001 Y2.3871
M67 E0 Q0
G0 X2.7759 Y2.4226 F0
M67 E0 Q1
G1 X2.791 Y2.4322 F96
G1 X2.8052 Y2.4432
G1 X2.8163 Y2.4536
G1 X2.8263 Y2.4649
G1 X2.835 Y2.4771
G1 X2.8426 Y2.49
G1 X2.8441 Y2.4809
G1 X2.8455 Y2.4717
G1  Y2.4675
G1 X2.8435 Y2.4558
G1 X2.8407 Y2.4439
G1 X2.8363 Y2.4325
G1 X2.8299 Y2.4225
G1 X2.8241 Y2.4169
G1 X2.8176 Y2.4133
G1 X2.8107 Y2.4115
G1 X2.8036
G1 X2.7963 Y2.4126
G1 X2.7892 Y2.415
G1 X2.7823 Y2.4184
G1 X2.7759 Y2.4226
M67 E0 Q0
G0 X2.9657 Y2.479 F0
M67 E0 Q1
G1 X2.922 Y2.5446 F96
G1 X2.9071 Y2.5676
G1 X2.9161 Y2.5625
G1 X2.9255 Y2.558
G1 X2.9373 Y2.5534
G1 X2.9494 Y2.55
G1 X2.9617 Y2.548
G1 X2.974 Y2.5474
G1 X2.995 Y2.5235
G1 X3.0178 Y2.5014
G1 X3.0441 Y2.4795
G1 X3.0713 Y2.4587
G1 X3.074 Y2.4582
G1 X3.0762 Y2.4597
G1 X3.0771 Y2.4622
G1 X3.076 Y2.4648
G1 X3.0551 Y2.4848
G1 X3.0355 Y2.5061
G1 X3.0169 Y2.5285
G1 X2.9993 Y2.5515
G1 X3.004 Y2.5532
G1 X3.0087 Y2.5552
G1 X3.0157 Y2.559
G1 X3.0223 Y2.5635
G1 X3.0283 Y2.5685
G1 X3.0338 Y2.5741
G1 X3.0506 Y2.561
G1 X3.0671 Y2.5476
G1 X3.0838 Y2.5348
G1 X3.1014 Y2.523
G1 X3.1093 Y2.5143
G1 X3.1163 Y2.5052
G1 X3.1222 Y2.4955
G1 X3.1269 Y2.4853
G1 X3.1303 Y2.4745
G1 X3.1321 Y2.463
G1  Y2.4509
G1 X3.1306 Y2.4381
G1 X3.1273 Y2.427
G1 X3.1223 Y2.4173
G1 X3.1157 Y2.4091
G1 X3.1078 Y2.4024
G1 X3.0987 Y2.3974
G1 X3.0887 Y2.394
G1 X3.0778 Y2.3925
G1 X3.0663
G1 X3.0512 Y2.3956
G1 X3.0371 Y2.4004
G1 X3.0238 Y2.4069
G1 X3.0112 Y2.4146
G1 X2.9657 Y2.479
M67 E0 Q0
G0 X2.9753 Y2.5766 F0
M67 E0 Q1
G1 X2.9662 F96
G1 X2.948 Y2.5804
G1 X2.9311 Y2.587
G1 X2.9167 Y2.5949
G1 X2.9033 Y2.6042
G1 X2.8907 Y2.6146
G1 X2.879 Y2.626
G1 X2.8578 Y2.6512
G1 X2.8392 Y2.6784
G1 X2.8498 Y2.6767
G1 X2.8608
G1 X2.8709 Y2.6786
G1 X2.8805 Y2.6819
G1 X2.8896 Y2.6866
G1 X2.8979 Y2.6926
G1 X2.9158 Y2.6797
G1 X2.9263 Y2.6716
G1 X2.9364 Y2.6631
G1 X2.977 Y2.6275
G1 X2.9792 Y2.6267
G1 X2.981 Y2.6275
G1 X2.9819 Y2.6294
G1 X2.9811 Y2.6316
G1 X2.9633 Y2.6519
G1 X2.9359 Y2.6811
G1 X2.9271 Y2.6908
G1 X2.9193 Y2.6998
G1 X2.9114 Y2.7086
G1 X2.9142 Y2.7142
G1 X2.9164 Y2.7201
G1 X2.9178 Y2.7263
G1 X2.9185 Y2.7327
G1 X2.9174 Y2.7443
G1 X2.9136 Y2.7551
G1 X2.9079 Y2.7652
G1 X2.901 Y2.7746
G1 X2.8933 Y2.7838
G1 X2.8851 Y2.7926
G1 X2.9031 Y2.7852
G1 X2.9263 Y2.7728
G1 X2.9491 Y2.7595
G1 X2.9649 Y2.749
G1 X2.9805 Y2.737
G1 X2.9953 Y2.7236
G1 X3.0085 Y2.7087
G1 X3.0195 Y2.6924
G1 X3.0276 Y2.6749
G1 X3.0304 Y2.6657
G1 X3.0322 Y2.6562
G1 X3.0329 Y2.6464
G1 X3.0325 Y2.6364
G1 X3.0293 Y2.621
G1 X3.0229 Y2.6065
G1 X3.0186 Y2.5998
G1 X3.0136 Y2.5938
G1 X3.0078 Y2.5885
G1 X3.0013 Y2.584
G1 X2.993 Y2.58
G1 X2.9843 Y2.5777
G1 X2.9753 Y2.5766
M67 E0 Q0
G0 X3.0463 Y2.5914 F0
M67 E0 Q1
G1 X3.0509 Y2.6004 F96
G1 X3.0546 Y2.6098
G1 X3.0573 Y2.6193
G1 X3.059 Y2.6288
G1 X3.0597 Y2.6382
G1  Y2.6475
G1 X3.0853 Y2.6345
G1 X3.1107 Y2.621
G1 X3.1462 Y2.5999
G1 X3.1805 Y2.5769
G1 X3.1835 Y2.5763
G1 X3.186 Y2.578
G1 X3.1871 Y2.5809
G1 X3.1857 Y2.5836
G1 X3.153 Y2.6091
G1 X3.1197 Y2.6337
G1 X3.0874 Y2.6562
G1 X3.0539 Y2.6769
G1 X3.047 Y2.6935
G1 X3.038 Y2.7092
G1 X3.0271 Y2.7239
G1 X3.0148 Y2.7375
G1 X3.0826 Y2.7065
G1 X3.1498 Y2.6742
G1 X3.1653 Y2.6624
G1 X3.1804 Y2.6501
G1 X3.1947 Y2.6372
G1 X3.2084 Y2.6237
G1 X3.2166 Y2.6142
G1 X3.2241 Y2.6031
G1 X3.2302 Y2.5911
G1 X3.2343 Y2.5786
G1 X3.2358 Y2.566
G1 X3.234 Y2.5539
G1 X3.2317 Y2.5482
G1 X3.2284 Y2.5428
G1 X3.2239 Y2.5377
G1 X3.2182 Y2.5331
G1 X3.2084 Y2.5275
G1 X3.1979 Y2.5238
G1 X3.187 Y2.5218
G1 X3.1757 Y2.5213
G1 X3.1531 Y2.524
G1 X3.1317 Y2.5302
G1 X3.1275 Y2.5319
G1 X3.1233 Y2.5337
G1 X3.1065 Y2.551
G1 X3.0877 Y2.5663
G1 X3.0675 Y2.5797
G1 X3.0463 Y2.5914
M67 E0 Q0
G0 X3.1415 Y2.5052 F0
M67 E0 Q1
G1 X3.1618 Y2.5008 F96
G1 X3.1824 Y2.4997
G1 X3.1927 Y2.5006
G1 X3.2028 Y2.5026
G1 X3.2127 Y2.5058
G1 X3.2223 Y2.5102
G1 X3.2333 Y2.5176
G1 X3.242 Y2.5267
G1 X3.2484 Y2.5372
G1 X3.2526 Y2.5487
G1 X3.2547 Y2.5608
G1  Y2.5733
G1 X3.2523 Y2.5859
G1 X3.2479 Y2.5982
G1 X3.2416 Y2.61
G1 X3.2339 Y2.621
G1 X3.225 Y2.6313
G1 X3.2152 Y2.641
G1 X3.2193 Y2.6389
G1 X3.2429 Y2.6263
G1 X3.2489 Y2.6182
G1 X3.2542 Y2.6095
G1 X3.2587 Y2.6004
G1 X3.2622 Y2.5908
G1 X3.2656 Y2.577
G1 X3.2675 Y2.563
G1  Y2.556
G1  Y2.549
G1  Y2.5414
G1  Y2.5339
G1 X3.2693 Y2.5314
G1 X3.2717 Y2.5306
G1 X3.2744 Y2.5311
G1 X3.2765 Y2.5328
G1 X3.2799 Y2.5396
G1 X3.2817 Y2.5477
G1 X3.2823 Y2.556
G1  Y2.5638
G1 X3.2812 Y2.58
G1 X3.2775 Y2.5959
G1 X3.275 Y2.6034
G1 X3.272 Y2.6108
G1 X3.2885 Y2.6018
G1 X3.2951 Y2.5927
G1 X3.3009 Y2.5833
G1 X3.3057 Y2.5735
G1 X3.3094 Y2.5633
G1 X3.3118 Y2.5527
G1 X3.3128 Y2.5418
G1 X3.3121 Y2.5306
G1 X3.3097 Y2.5189
G1 X3.3034 Y2.5031
G1 X3.2943 Y2.4897
G1 X3.283 Y2.4789
G1 X3.2699 Y2.4707
G1 X3.2553 Y2.4655
G1 X3.2398 Y2.4632
G1 X3.2236 Y2.4641
G1 X3.2074 Y2.4684
G1 X3.2036 Y2.4691
G1 X3.2003 Y2.4685
G1 X3.1976 Y2.4669
G1 X3.1955 Y2.4644
G1 X3.1933 Y2.458
G1 X3.1942 Y2.4513
G1 X3.1992 Y2.4372
G1 X3.2024 Y2.4222
G1 X3.2036 Y2.4068
G1 X3.2026 Y2.3915
G1 X3.1992 Y2.3768
G1 X3.1931 Y2.3633
G1 X3.184 Y2.3514
G1 X3.1719 Y2.3416
G1 X3.1621 Y2.3366
G1 X3.1522 Y2.3332
G1 X3.1421 Y2.3313
G1 X3.132 Y2.3308
G1 X3.1218 Y2.3316
G1 X3.1116 Y2.3335
G1 X3.1016 Y2.3363
G1 X3.0917 Y2.3401
G1 X3.1033
G1 X3.1149 Y2.3417
G1 X3.1262 Y2.3443
G1 X3.1372 Y2.348
G1 X3.1476 Y2.3529
G1 X3.1574 Y2.3588
G1 X3.1663 Y2.3658
G1 X3.1742 Y2.3739
G1 X3.1754 Y2.3773
G1 X3.174 Y2.3803
G1 X3.1711 Y2.3817
G1 X3.1678 Y2.3803
G1 X3.1548 Y2.3695
G1 X3.14 Y2.3612
G1 X3.1239 Y2.3556
G1 X3.1071 Y2.3532
G1 X3.0909 Y2.3539
G1 X3.0755 Y2.3576
G1 X3.0608 Y2.3639
G1 X3.047 Y2.3723
G1 X3.0574 Y2.37
G1 X3.0679 Y2.3688
G1 X3.0785
G1 X3.089 Y2.3701
G1 X3.0993 Y2.3726
G1 X3.1091 Y2.3763
G1 X3.1183 Y2.3814
G1 X3.1268 Y2.3878
G1 X3.138 Y2.3998
G1 X3.146 Y2.4133
G1 X3.1512 Y2.4279
G1 X3.1537 Y2.4433
G1  Y2.459
G1 X3.1516 Y2.4748
G1 X3.1474 Y2.4903
G1 X3.1415 Y2.5052
M67 E0 Q0
G0 X3.2217 Y2.4413 F0
M67 E0 Q1
G1 X3.2389 Y2.4408 F96
G1 X3.2557 Y2.4432
G1 X3.2718 Y2.4482
G1 X3.2869 Y2.4558
G1 X3.3005 Y2.4658
G1 X3.3123 Y2.4779
G1 X3.3219 Y2.4921
G1 X3.329 Y2.508
G1 X3.3318 Y2.5183
G1 X3.3334 Y2.5283
G1 X3.3338 Y2.5381
G1 X3.3332 Y2.5477
G1 X3.3291 Y2.5661
G1 X3.3215 Y2.5834
G1 X3.3241 Y2.5819
G1 X3.33 Y2.5732
G1 X3.3354 Y2.5642
G1 X3.34 Y2.5548
G1 X3.3438 Y2.5449
G1 X3.347 Y2.5325
G1 X3.3487 Y2.5198
G1  Y2.5071
G1 X3.3478 Y2.4943
G1 X3.3487 Y2.4905
G1 X3.3516 Y2.4884
G1 X3.3549
G1 X3.3572 Y2.4917
G1 X3.3598 Y2.5057
G1 X3.3606 Y2.5197
G1 X3.3598 Y2.5339
G1 X3.3573 Y2.5478
G1 X3.3546 Y2.5572
G1 X3.3512 Y2.5666
G1 X3.3647 Y2.5586
G1 X3.3708 Y2.5491
G1 X3.376 Y2.539
G1 X3.38 Y2.5284
G1 X3.3828 Y2.5176
G1 X3.3844 Y2.5064
G1  Y2.4951
G1 X3.3832 Y2.4836
G1 X3.3804 Y2.4722
G1 X3.3738 Y2.457
G1 X3.3644 Y2.4434
G1 X3.3528 Y2.4316
G1 X3.3392 Y2.4218
G1 X3.3243 Y2.4144
G1 X3.3083 Y2.4094
G1 X3.2919 Y2.4073
G1 X3.2755 Y2.4082
G1 X3.2693
G1 X3.2648 Y2.4052
G1 X3.2621 Y2.4006
G1  Y2.3945
G1 X3.2631 Y2.3793
G1  Y2.3638
G1 X3.2611 Y2.3484
G1 X3.2575 Y2.3335
G1 X3.2521 Y2.3192
G1 X3.2447 Y2.306
G1 X3.2352 Y2.2941
G1 X3.2234 Y2.2838
G1 X3.2121 Y2.2768
G1 X3.1999 Y2.2716
G1 X3.1871 Y2.268
G1 X3.174 Y2.2658
G1 X3.1593
G1 X3.1455 Y2.2679
G1 X3.1512 Y2.2689
G1 X3.1569 Y2.2702
G1 X3.1691 Y2.2741
G1 X3.181 Y2.2791
G1 X3.1924 Y2.2851
G1 X3.2032 Y2.2919
G1 X3.2044 Y2.2938
G1  Y2.2958
G1 X3.2025 Y2.2971
G1 X3.2003
G1 X3.1897 Y2.2912
G1 X3.1787 Y2.2869
G1 X3.1672 Y2.2838
G1 X3.1553 Y2.2819
G1 X3.137 Y2.2808
G1 X3.1187 Y2.2817
G1 X3.1078 Y2.294
G1 X3.097 Y2.3064
G1 X3.1084 Y2.3037
G1 X3.1198 Y2.3022
G1 X3.1313 Y2.3017
G1 X3.1427 Y2.3026
G1 X3.154 Y2.3048
G1 X3.1652 Y2.3084
G1 X3.176 Y2.3135
G1 X3.1865 Y2.3202
G1 X3.1992 Y2.3315
G1 X3.2093 Y2.3446
G1 X3.217 Y2.3591
G1 X3.2223 Y2.3748
G1 X3.2253 Y2.3912
G1 X3.2261 Y2.408
G1 X3.2249 Y2.4248
G1 X3.2217 Y2.4413
M67 E0 Q0
G0 X3.2846 Y2.3855 F0
M67 E0 Q1
G1 X3.3032 Y2.3865 F96
G1 X3.3212 Y2.3904
G1 X3.3384 Y2.3969
G1 X3.3544 Y2.4059
G1 X3.3687 Y2.4173
G1 X3.3811 Y2.4308
G1 X3.3912 Y2.4464
G1 X3.3986 Y2.4638
G1 X3.4027 Y2.4827
G1 X3.4034 Y2.5023
G1 X3.4007 Y2.5219
G1 X3.3949 Y2.5408
G1 X3.4015 Y2.5369
G1 X3.4098 Y2.5186
G1 X3.4161 Y2.4992
G1 X3.419 Y2.4865
G1 X3.4209 Y2.4734
G1 X3.4218 Y2.4603
G1  Y2.4473
G1 X3.4226 Y2.4445
G1 X3.4252 Y2.4432
G1 X3.4281 Y2.4437
G1 X3.4297 Y2.4462
G1 X3.4318 Y2.4602
G1 X3.4328 Y2.4742
G1  Y2.4882
G1 X3.4309 Y2.5024
G1 X3.4289 Y2.5119
G1 X3.4262 Y2.5215
G1 X3.4347 Y2.5161
G1 X3.4411 Y2.498
G1 X3.4451 Y2.4793
G1 X3.4465 Y2.4601
G1 X3.445 Y2.4405
G1 X3.4423 Y2.4282
G1 X3.4382 Y2.4164
G1 X3.4327 Y2.4051
G1 X3.4259 Y2.3946
G1 X3.4179 Y2.385
G1 X3.4088 Y2.3764
G1 X3.3987 Y2.369
G1 X3.3875 Y2.363
G1 X3.3765 Y2.3592
G1 X3.3653 Y2.357
G1 X3.3541 Y2.3551
G1 X3.3428 Y2.3526
G1 X3.3338 Y2.3483
G1 X3.3275 Y2.3417
G1 X3.3255 Y2.3376
G1 X3.3245 Y2.3332
G1  Y2.3284
G1 X3.3255 Y2.3232
G1 X3.3288 Y2.3098
G1 X3.3298 Y2.297
G1 X3.328 Y2.2842
G1 X3.323 Y2.2711
G1 X3.3158 Y2.2597
G1 X3.307 Y2.2498
G1 X3.2968 Y2.2413
G1 X3.2855 Y2.2342
G1 X3.2689 Y2.2261
G1 X3.2511 Y2.2198
G1 X3.2326 Y2.216
G1 X3.214 Y2.2152
G1 X3.2331 Y2.221
G1 X3.2511 Y2.2298
G1 X3.2674 Y2.2412
G1 X3.2813 Y2.2546
G1 X3.2827 Y2.2586
G1 X3.2811 Y2.262
G1 X3.2777 Y2.2635
G1 X3.274 Y2.262
G1 X3.2627 Y2.2521
G1 X3.2502 Y2.244
G1 X3.2367 Y2.2378
G1 X3.2224 Y2.2334
G1 X3.2079 Y2.2312
G1 X3.1933 Y2.2307
G1 X3.1786 Y2.2315
G1 X3.1639 Y2.2333
G1 X3.1604 Y2.2368
G1 X3.1709
G1 X3.1814
G1 X3.1919 Y2.2388
G1 X3.2022 Y2.2415
G1 X3.2121 Y2.2452
G1 X3.2216 Y2.2498
G1 X3.2305 Y2.2552
G1 X3.2386 Y2.2614
G1 X3.2507 Y2.2734
G1 X3.2609 Y2.287
G1 X3.2692 Y2.3018
G1 X3.2757 Y2.3177
G1 X3.2804 Y2.3343
G1 X3.2834 Y2.3513
G1 X3.2848 Y2.3684
G1  Y2.3855
M67 E0 Q0
G0 X3.3467 Y2.333 F0
M67 E0 Q1
G1 X3.3516 Y2.3345 F96
G1 X3.3585
G1 X3.3654
G1 X3.3709
G1 X3.3854 Y2.3377
G1 X3.3992 Y2.343
G1 X3.4116 Y2.3497
G1 X3.4231 Y2.3578
G1 X3.4335 Y2.3673
G1 X3.4429 Y2.3779
G1 X3.4511 Y2.3894
G1 X3.4579 Y2.4018
G1 X3.4633 Y2.4148
G1 X3.4671 Y2.4283
G1 X3.4694 Y2.443
G1 X3.47 Y2.4577
G1 X3.469 Y2.4723
G1 X3.4664 Y2.4867
G1 X3.4727 Y2.4686
G1 X3.477 Y2.4498
G1 X3.4792 Y2.4356
G1 X3.4805 Y2.4211
G1  Y2.4066
G1 X3.4799 Y2.3923
G1  Y2.3911
G1 X3.4814 Y2.3906
G1 X3.4827
G1 X3.4835 Y2.3919
G1 X3.4865 Y2.4067
G1 X3.4886 Y2.4214
G1 X3.4895 Y2.4363
G1 X3.4889 Y2.4514
G1 X3.4862 Y2.4687
G1 X3.4821 Y2.4856
G1 X3.4927 Y2.4784
G1 X3.4976 Y2.4665
G1 X3.5015 Y2.4543
G1 X3.5045 Y2.442
G1 X3.5064 Y2.4295
G1 X3.5072 Y2.4169
G1  Y2.4042
G1 X3.5056 Y2.3915
G1 X3.503 Y2.3788
G1 X3.5035 Y2.3752
G1 X3.5062 Y2.3734
G1 X3.5094
G1 X3.5117 Y2.3764
G1 X3.5167 Y2.398
G1 X3.5186 Y2.4202
G1 X3.5173 Y2.4425
G1 X3.5128 Y2.4643
G1 X3.5266 Y2.4542
G1 X3.5308 Y2.4437
G1 X3.5339 Y2.433
G1 X3.5361 Y2.4221
G1 X3.5372 Y2.4109
G1  Y2.3997
G1 X3.5362 Y2.3885
G1 X3.5339 Y2.3773
G1 X3.5304 Y2.3662
G1 X3.5229 Y2.3506
G1 X3.5126 Y2.336
G1 X3.5001 Y2.3229
G1 X3.4857 Y2.3116
G1 X3.4698 Y2.3026
G1 X3.453 Y2.2962
G1 X3.4356 Y2.2929
G1 X3.418
G1 X3.4132 Y2.2922
G1 X3.4092 Y2.2893
G1 X3.4066 Y2.2851
G1 X3.4055 Y2.2804
G1 X3.4046 Y2.2652
G1 X3.4025 Y2.2508
G1 X3.3986 Y2.237
G1 X3.3918 Y2.2232
G1 X3.3826 Y2.2105
G1 X3.3716 Y2.1994
G1 X3.359 Y2.1902
G1 X3.345 Y2.1831
G1 X3.3301 Y2.1781
G1 X3.3147 Y2.1749
G1 X3.2988 Y2.1733
G1 X3.2828
G1 X3.2668 Y2.175
G1 X3.251 Y2.178
G1 X3.2356 Y2.1824
G1 X3.2209 Y2.1881
G1 X3.2335 Y2.1886
G1 X3.246 Y2.1902
G1 X3.2583 Y2.1929
G1 X3.27 Y2.1965
G1 X3.2842 Y2.2022
G1 X3.298 Y2.2093
G1 X3.311 Y2.2178
G1 X3.323 Y2.2277
G1 X3.3334 Y2.2388
G1 X3.3421 Y2.2514
G1 X3.3487 Y2.2652
G1 X3.3527 Y2.2803
G1 X3.354 Y2.2943
G1 X3.3529 Y2.3083
G1 X3.3513 Y2.3153
G1 X3.349 Y2.3221
G1 X3.345 Y2.3313
G1  Y2.3319
G1 X3.3467 Y2.333
M67 E0 Q0
G0 X3.3965 Y2.1836 F0
M67 E0 Q1
G1 X3.389 Y2.1752 F96
G1 X3.3806 Y2.1678
G1 X3.3672 Y2.1593
G1 X3.3524 Y2.153
G1 X3.3571 Y2.1551
G1 X3.3618 Y2.1574
G1 X3.3707 Y2.1626
G1 X3.3796 Y2.1688
G1 X3.3882 Y2.1758
G1 X3.3965 Y2.1836
M67 E0 Q0
G0 X3.3724 Y2.0695 F0
M67 E0 Q0
G0 X3.4757 Y2.0564 F0
M67 E0 Q1
G1 X3.4749 Y2.0516 F96
G1 X3.4757 Y2.0469
G1 X3.478 Y2.0428
G1 X3.4819 Y2.0399
G1 X3.4873 Y2.0388
G1 X3.4928 Y2.0399
G1 X3.4967 Y2.0428
G1 X3.499 Y2.0469
G1 X3.4998 Y2.0516
G1 X3.499 Y2.0564
G1 X3.4967 Y2.0605
G1 X3.4928 Y2.0634
G1 X3.4873 Y2.0645
G1 X3.4819 Y2.0634
G1 X3.478 Y2.0605
G1 X3.4757 Y2.0564
M67 E0 Q0
G0 X3.5306 Y2.0736 F0
M67 E0 Q1
G1 X3.5339 Y2.0711 F96
G1 X3.5379 Y2.0694
G1 X3.5452 Y2.0685
G1 X3.5485
G1 X3.5516 Y2.0699
G1 X3.5544 Y2.0713
G1 X3.5569 Y2.0734
G1 X3.559 Y2.0758
G1 X3.5603 Y2.0787
G1 X3.5615 Y2.0818
G1  Y2.0851
G1  Y2.0895
G1 X3.5595 Y2.0935
G1 X3.5569 Y2.0968
G1 X3.5535 Y2.0994
G1 X3.5495 Y2.1011
G1 X3.5451 Y2.1017
G1 X3.5389 Y2.1011
G1 X3.5358 Y2.1
G1 X3.533 Y2.0986
G1 X3.5306 Y2.0966
G1 X3.5286 Y2.0942
G1 X3.5273 Y2.0914
G1 X3.5261 Y2.0884
G1  Y2.0851
G1  Y2.0808
G1 X3.5281 Y2.0769
G1 X3.5306 Y2.0736
M67 E0 Q0
G0 X3.5898 Y2.0426 F0
M67 E0 Q1
G1 X3.6033 Y2.0534 F96
G1 X3.6159 Y2.0648
G1 X3.6274 Y2.0764
G1 X3.6378 Y2.088
G1 X3.6531 Y2.1077
G1 X3.6669 Y2.1288
G1 X3.6788 Y2.151
G1 X3.6887 Y2.1741
G1 X3.6963 Y2.1981
G1 X3.7013 Y2.2226
G1 X3.7037 Y2.2475
G1 X3.7031 Y2.2727
G1 X3.7116 Y2.2586
G1 X3.7197 Y2.2441
G1  Y2.224
G1 X3.7171 Y2.2044
G1 X3.7116 Y2.1788
G1 X3.7034 Y2.1538
G1  Y2.15
G1 X3.7065 Y2.1476
G1 X3.7103 Y2.1472
G1 X3.7133 Y2.1497
G1 X3.7192 Y2.1624
G1 X3.7242 Y2.1754
G1 X3.7282 Y2.1888
G1 X3.7313 Y2.2025
G1 X3.7325 Y2.2097
G1 X3.7335 Y2.217
G1 X3.7403 Y2.2012
G1 X3.7464 Y2.185
G1 X3.7456 Y2.1694
G1 X3.7434 Y2.154
G1 X3.7408 Y2.144
G1 X3.7377 Y2.1342
G1 X3.736 Y2.1296
G1 X3.7341 Y2.1251
G1 X3.7332 Y2.1223
G1 X3.7326 Y2.1196
G1 X3.7315 Y2.1171
G1 X3.73 Y2.1147
G1 X3.7294 Y2.1113
G1 X3.7314 Y2.109
G1 X3.7346 Y2.1084
G1 X3.7376 Y2.1102
G1 X3.7393 Y2.1124
G1 X3.7413 Y2.1144
G1 X3.7435 Y2.1163
G1 X3.7455 Y2.1184
G1 X3.7487 Y2.1232
G1 X3.7517 Y2.1283
G1 X3.7542 Y2.133
G1 X3.7564 Y2.1379
G1  Y2.123
G1 X3.7548 Y2.108
G1 X3.7503 Y2.091
G1 X3.7437 Y2.0758
G1 X3.7351 Y2.0622
G1 X3.7247 Y2.0503
G1 X3.7128 Y2.0398
G1 X3.6995 Y2.0309
G1 X3.6851 Y2.0234
G1 X3.6698 Y2.0172
G1 X3.6727 Y2.0194
G1 X3.6808 Y2.0274
G1 X3.6878 Y2.0364
G1 X3.6937 Y2.0461
G1 X3.6984 Y2.0565
G1  Y2.0594
G1 X3.6961 Y2.0612
G1 X3.6933
G1 X3.691 Y2.0597
G1 X3.6815 Y2.0458
G1 X3.6698 Y2.0338
G1 X3.6563 Y2.0238
G1 X3.6414 Y2.0161
G1 X3.6502 Y2.0265
G1 X3.6571 Y2.038
G1  Y2.0406
G1 X3.6558 Y2.0425
G1 X3.6535
G1 X3.6515 Y2.0413
G1 X3.6473 Y2.0346
G1 X3.6424 Y2.0286
G1 X3.6368 Y2.0233
G1 X3.6304 Y2.0188
G1 X3.6235 Y2.0152
G1 X3.6163 Y2.0123
G1 X3.6089 Y2.0101
G1 X3.6013 Y2.0086
G1 X3.5984 Y2.007
G1 X3.5967 Y2.0041
G1 X3.5803
G1 X3.5642 Y2.0045
G1 X3.5486 Y2.006
G1 X3.5338 Y2.0082
G1 X3.5293 Y2.0092
G1 X3.5451 Y2.0155
G1 X3.5606 Y2.0234
G1 X3.5755 Y2.0325
G1 X3.5898 Y2.0426
M67 E0 Q0
G0 X3.5908 Y2.1253 F0
M67 E0 Q1
G1 X3.5982 Y2.1268 F96
G1 X3.6035 Y2.1308
G1 X3.6067 Y2.1364
G1 X3.6078 Y2.1429
G1 X3.6067 Y2.1494
G1 X3.6036 Y2.155
G1 X3.5982 Y2.159
G1 X3.5908 Y2.1605
G1 X3.5833 Y2.159
G1 X3.578 Y2.155
G1 X3.5748 Y2.1494
G1 X3.5738 Y2.1429
G1 X3.5748 Y2.1364
G1 X3.578 Y2.1308
G1 X3.5833 Y2.1268
G1 X3.5908 Y2.1253
M67 E0 Q0
G0 X3.6196 Y2.187 F0
M67 E0 Q1
G1 X3.6231 Y2.1864 F96
G1 X3.6266
G1 X3.6299 Y2.1873
G1 X3.633 Y2.1887
G1 X3.6368 Y2.1906
G1 X3.6406 Y2.1935
G1 X3.6435 Y2.1973
G1 X3.6454 Y2.2019
G1 X3.6461 Y2.2068
G1 X3.6454 Y2.2118
G1 X3.6435 Y2.2162
G1 X3.6405 Y2.2201
G1 X3.6378 Y2.2224
G1 X3.6345 Y2.2239
G1 X3.631 Y2.2252
G1 X3.6273
G1 X3.6224
G1 X3.6178 Y2.223
G1 X3.614 Y2.2201
G1 X3.6111 Y2.2163
G1 X3.6092 Y2.2125
G1 X3.6075 Y2.2084
G1 X3.6069 Y2.2049
G1  Y2.2014
G1 X3.6075 Y2.1992
G1 X3.6084 Y2.1971
G1 X3.6098 Y2.194
G1 X3.612 Y2.1915
G1 X3.6155 Y2.1887
G1 X3.6196 Y2.187
M67 E0 Q0
G0 X3.6402 Y2.2575 F0
M67 E0 Q1
G1 X3.6452 Y2.2569 F96
G1 X3.6509 Y2.2575
G1 X3.6526 Y2.2579
G1 X3.6594 Y2.2606
G1 X3.6639 Y2.2651
G1 X3.6662 Y2.2706
G1 X3.6666 Y2.2767
G1  Y2.2829
G1 X3.6639 Y2.2885
G1 X3.6594 Y2.2929
G1 X3.6526 Y2.2957
G1 X3.6509
G1 X3.6452 Y2.2967
G1 X3.6403 Y2.2961
G1 X3.6361 Y2.2945
G1 X3.6327 Y2.292
G1 X3.6282 Y2.2851
G1 X3.6266 Y2.2768
G1 X3.6281 Y2.2685
G1 X3.6327 Y2.2616
G1 X3.6361 Y2.2591
G1 X3.6402 Y2.2575
M67 E0 Q0
G0 X3.5977 Y2.2527 F0
M67 E0 Q1
G1 X3.6064 Y2.2764 F96
G1 X3.6132 Y2.3006
G1 X3.6178 Y2.3252
G1 X3.6201 Y2.3501
G1  Y2.3749
G1 X3.6377 Y2.3566
G1 X3.6548 Y2.3377
G1 X3.6665 Y2.3237
G1 X3.6776 Y2.3093
G1 X3.6805 Y2.2951
G1 X3.6823 Y2.2806
G1 X3.6829 Y2.2659
G1 X3.6825 Y2.2512
G1 X3.6788 Y2.222
G1 X3.6715 Y2.1938
G1 X3.6635 Y2.1725
G1 X3.6535 Y2.152
G1 X3.6418 Y2.1327
G1 X3.6284 Y2.1144
G1 X3.6133 Y2.0975
G1 X3.5968 Y2.082
G1 X3.5789 Y2.0681
G1 X3.5596 Y2.0559
G1 X3.536 Y2.0438
G1 X3.5115 Y2.0348
G1 X3.4989 Y2.0317
G1 X3.486 Y2.0295
G1 X3.473 Y2.0285
G1 X3.4598
G1 X3.4336 Y2.039
G1 X3.408 Y2.0508
G1 X3.4321 Y2.0597
G1 X3.455 Y2.0721
G1 X3.4765 Y2.0875
G1 X3.4966 Y2.1051
G1 X3.5152 Y2.1244
G1 X3.5325 Y2.1448
G1 X3.5482 Y2.1657
G1 X3.5625 Y2.1864
G1 X3.5755 Y2.2076
G1 X3.5873 Y2.2297
G1 X3.5977 Y2.2527
M67 E0 Q0
G0 X3.6042 Y2.3687 F0
M67 E0 Q1
G1  Y2.3714 F96
G1  Y2.3687
M67 E0 Q0
G0 X3.7516 Y2.515 F0
M67 E0 Q1
G1 X3.76 Y2.5114 F96
G1 X3.7685 Y2.5098
G1 X3.7755 Y2.5104
G1 X3.778
G1 X3.7803 Y2.5111
G1 X3.7868 Y2.5135
G1 X3.7924 Y2.5175
G1 X3.7976 Y2.5218
G1 X3.8015 Y2.5274
G1 X3.8051 Y2.5359
G1 X3.8063 Y2.5453
G1 X3.8057 Y2.5524
G1 X3.8033 Y2.559
G1 X3.8015 Y2.5632
G1 X3.7987 Y2.5668
G1 X3.7944 Y2.572
G1 X3.7888 Y2.5759
G1 X3.7803 Y2.5795
G1 X3.7757 Y2.5807
G1 X3.7708
G1 X3.7614 Y2.5795
G1 X3.76
G1 X3.7536 Y2.5768
G1 X3.7481 Y2.5729
G1 X3.7429 Y2.5686
G1 X3.739 Y2.563
G1 X3.7355 Y2.5546
G1 X3.7342 Y2.5453
G1 X3.7348 Y2.5383
G1 X3.7373 Y2.5318
G1 X3.739 Y2.5276
G1 X3.7418 Y2.524
G1 X3.7461 Y2.5189
G1 X3.7516 Y2.515
M67 E0 Q0
G0 X3.7003 Y2.5616 F0
M67 E0 Q1
G1 X3.7064 Y2.5662 F96
G1 X3.7111 Y2.5723
G1 X3.714 Y2.5794
G1 X3.7151 Y2.5873
G1 X3.714 Y2.5953
G1 X3.7129 Y2.5992
G1 X3.711 Y2.6044
G1 X3.7078 Y2.6089
G1 X3.7043 Y2.6131
G1 X3.6997 Y2.6163
G1 X3.6929 Y2.6192
G1 X3.6853 Y2.6202
G1 X3.6795 Y2.6197
G1 X3.6742 Y2.6177
G1 X3.6708 Y2.6163
G1 X3.6679 Y2.6141
G1 X3.6637 Y2.6105
G1 X3.6605 Y2.606
G1 X3.6576 Y2.5992
G1 X3.6565 Y2.5953
G1 X3.6554 Y2.5873
G1 X3.6565 Y2.5794
G1 X3.6595 Y2.5723
G1 X3.6642 Y2.5662
G1 X3.6686 Y2.5625
G1 X3.6738 Y2.5601
G1 X3.6793 Y2.558
G1 X3.6853 Y2.5575
G1 X3.6931 Y2.5585
G1 X3.7003 Y2.5616
M67 E0 Q0
G0 X3.597 Y2.6233 F0
M67 E0 Q1
G1 X3.5987 Y2.6246 F96
G1 X3.6012 Y2.6267
G1 X3.603 Y2.6293
G1 X3.6041 Y2.6319
G1 X3.6056 Y2.6343
G1 X3.6066 Y2.637
G1 X3.6073 Y2.642
G1 X3.6066 Y2.6469
G1 X3.6047 Y2.6514
G1 X3.6018 Y2.6552
G1 X3.598 Y2.6582
G1 X3.5935 Y2.6601
G1 X3.5886 Y2.6607
G1 X3.5848
G1 X3.5814 Y2.6591
G1 X3.5781 Y2.6576
G1 X3.5753 Y2.6552
G1 X3.573 Y2.6524
G1 X3.5714 Y2.6492
G1 X3.5702 Y2.6457
G1  Y2.642
G1  Y2.6383
G1 X3.5714 Y2.6348
G1 X3.5722 Y2.633
G1 X3.5731 Y2.6314
G1 X3.5741 Y2.6294
G1 X3.5754 Y2.6276
G1 X3.5775 Y2.6252
G1 X3.5801 Y2.6233
G1 X3.5841 Y2.6216
G1 X3.5886 Y2.621
G1 X3.5919
G1 X3.595 Y2.6225
G1 X3.597 Y2.6233
M67 E0 Q0
G0 X3.635 Y2.715 F0
M67 E0 Q1
G1 X3.6786 Y2.7137 F96
G1 X3.7223 Y2.716
G1 X3.7655 Y2.7222
G1 X3.7867 Y2.7269
G1 X3.8076 Y2.7326
G1 X3.8282 Y2.7395
G1 X3.8483 Y2.7475
G1 X3.8678 Y2.7567
G1 X3.8868 Y2.7672
G1 X3.9051 Y2.7789
G1 X3.9227 Y2.792
G1 X3.9293 Y2.7986
G1 X3.9338 Y2.8056
G1 X3.9362 Y2.813
G1 X3.9368 Y2.8204
G1 X3.9356 Y2.8278
G1 X3.933 Y2.835
G1 X3.9291 Y2.8417
G1 X3.924 Y2.8478
G1 X3.9179 Y2.853
G1 X3.9111 Y2.8573
G1 X3.9036 Y2.8604
G1 X3.8957 Y2.8621
G1 X3.8875
G1 X3.8793 Y2.8606
G1 X3.8711 Y2.8571
G1 X3.8632 Y2.8515
G1 X3.8455 Y2.8372
G1 X3.8272 Y2.8248
G1 X3.8084 Y2.8143
G1 X3.7891 Y2.8056
G1 X3.7693 Y2.7985
G1 X3.7492 Y2.7929
G1 X3.7287 Y2.7888
G1 X3.7079 Y2.786
G1 X3.6869 Y2.7844
G1 X3.6656 Y2.7839
G1 X3.6442 Y2.7844
G1 X3.6227 Y2.7858
G1 X3.5794 Y2.7909
G1 X3.5363 Y2.7984
G1 X3.4989 Y2.8063
G1 X3.4619 Y2.8152
G1 X3.4249 Y2.8247
G1 X3.3881 Y2.8345
G1 X3.4122 Y2.8365
G1 X3.4363 Y2.8397
G1 X3.4605 Y2.8444
G1 X3.4848 Y2.8507
G1 X3.5154 Y2.8612
G1 X3.5447 Y2.8744
G1 X3.5724 Y2.89
G1 X3.5983 Y2.9083
G1 X3.6221 Y2.9292
G1 X3.6433 Y2.9526
G1 X3.6529 Y2.9653
G1 X3.6618 Y2.9786
G1 X3.6699 Y2.9925
G1 X3.6772 Y3.0072
G1 X3.6798 Y3.0146
G1 X3.6807 Y3.0219
G1 X3.6802 Y3.0288
G1 X3.6783 Y3.0353
G1 X3.6753 Y3.0412
G1 X3.6714 Y3.0466
G1 X3.6667 Y3.0512
G1 X3.6613 Y3.0549
G1 X3.6556 Y3.0577
G1 X3.6495 Y3.0595
G1 X3.6434 Y3.0601
G1 X3.6373 Y3.0594
G1 X3.6315 Y3.0574
G1 X3.6261 Y3.0539
G1 X3.6213 Y3.0489
G1 X3.6173 Y3.0422
G1 X3.6026 Y3.015
G1 X3.5853 Y2.9901
G1 X3.5655 Y2.9675
G1 X3.5434 Y2.9471
G1 X3.5194 Y2.9291
G1 X3.4935 Y2.9136
G1 X3.466 Y2.9005
G1 X3.4371 Y2.8899
G1 X3.4172 Y2.8844
G1 X3.3973 Y2.8802
G1 X3.3774 Y2.8772
G1 X3.3574 Y2.8752
G1 X3.3175 Y2.8734
G1 X3.2775
G1 X3.3067 Y2.8858
G1 X3.3353 Y2.9002
G1 X3.3635 Y2.9173
G1 X3.3913 Y2.9374
G1 X3.4152 Y2.9576
G1 X3.4371 Y2.9792
G1 X3.4569 Y3.0024
G1 X3.4741 Y3.0271
G1 X3.4884 Y3.0534
G1 X3.4996 Y3.0813
G1 X3.5039 Y3.0959
G1 X3.5073 Y3.1108
G1 X3.5098 Y3.1262
G1 X3.5113 Y3.142
G1  Y3.1497
G1 X3.5092 Y3.1565
G1 X3.5062 Y3.1625
G1 X3.5021 Y3.1676
G1 X3.4971 Y3.1717
G1 X3.4914 Y3.175
G1 X3.4851 Y3.1773
G1 X3.4786 Y3.1786
G1 X3.4719
G1 X3.4652
G1 X3.4588 Y3.1766
G1 X3.4528 Y3.1739
G1 X3.4474 Y3.1701
G1 X3.4428 Y3.1652
G1 X3.4392 Y3.1592
G1 X3.4367 Y3.1521
G1 X3.4299 Y3.1252
G1 X3.422 Y3.0988
G1 X3.4128 Y3.0732
G1 X3.402 Y3.0485
G1 X3.3891 Y3.0249
G1 X3.3741 Y3.0027
G1 X3.3564 Y2.9818
G1 X3.3359 Y2.9627
G1 X3.319 Y2.9498
G1 X3.3014 Y2.9383
G1 X3.2831 Y2.9279
G1 X3.2643 Y2.9185
G1 X3.2254 Y2.9019
G1 X3.1857 Y2.8871
G1 X3.2029 Y2.906
G1 X3.2192 Y2.9259
G1 X3.2347 Y2.9465
G1 X3.2491 Y2.968
G1 X3.2625 Y2.9902
G1 X3.2747 Y3.013
G1 X3.2858 Y3.0364
G1 X3.2956 Y3.0602
G1 X3.304 Y3.0845
G1 X3.3111 Y3.1091
G1 X3.3166 Y3.134
G1 X3.3206 Y3.1592
G1 X3.323 Y3.1844
G1 X3.3238 Y3.2097
G1 X3.3227 Y3.2349
G1 X3.3199 Y3.2601
G1 X3.3182 Y3.2665
G1 X3.3154 Y3.2719
G1 X3.3116 Y3.2762
G1 X3.307 Y3.2795
G1 X3.2963 Y3.2833
G1 X3.2845
G1 X3.273 Y3.28
G1 X3.2634 Y3.2734
G1 X3.2596 Y3.2689
G1 X3.2569 Y3.2637
G1 X3.2553 Y3.2579
G1  Y3.2513
G1 X3.2573 Y3.1982
G1 X3.2565 Y3.1455
G1 X3.2543 Y3.1193
G1 X3.2505 Y3.0933
G1 X3.2448 Y3.0674
G1 X3.2369 Y3.0418
G1 X3.2265 Y3.0155
G1 X3.2142 Y2.9903
G1 X3.2002 Y2.9662
G1 X3.1844 Y2.9432
G1 X3.1671 Y2.9212
G1 X3.1484 Y2.9004
G1 X3.1283 Y2.8808
G1 X3.1071 Y2.8623
G1 X3.103 Y2.8571
G1 X3.1018 Y2.8512
G1 X3.103 Y2.8452
G1 X3.1061 Y2.8398
G1 X3.1106 Y2.8354
G1 X3.116 Y2.8328
G1 X3.122
G1 X3.1279 Y2.8353
G1 X3.1298 Y2.8367
G1 X3.1333
G1 X3.1373
G1 X3.1468 Y2.8386
G1 X3.1506 Y2.8374
G1 X3.1551
G1 X3.1586
G1 X3.1867 Y2.8334
G1 X3.2144 Y2.8283
G1 X3.2418 Y2.822
G1 X3.2689 Y2.8149
G1 X3.3226 Y2.7983
G1 X3.3759 Y2.7802
G1 X3.429 Y2.7618
G1 X3.4825 Y2.7446
G1 X3.5095 Y2.7369
G1 X3.5367 Y2.73
G1 X3.5641 Y2.7242
G1 X3.5919 Y2.7195
G1 X3.635 Y2.715
M67 E0 Q0
G0 X3.9513 Y2.5775 F0
M67 E0 Q1
G1 X3.9208 Y2.544 F96
G1 X3.9181 Y2.5406
G1 X3.9159 Y2.5369
G1 X3.9147 Y2.533
G1  Y2.529
G1 X3.9367 Y2.5253
G1 X3.9586 Y2.5224
G1 X3.9806 Y2.5203
G1 X4.0027 Y2.519
G1 X4.014 Y2.5383
G1 X4.0274 Y2.5556
G1 X4.0425 Y2.5716
G1 X4.0588 Y2.5869
G1 X4.0734 Y2.5978
G1 X4.0893 Y2.6077
G1 X4.1049 Y2.6179
G1 X4.1185 Y2.6298
G1 X4.0956 Y2.6034
G1 X4.0738 Y2.5763
G1 X4.0312 Y2.5209
G1 X4.0295 Y2.5185
G1 X4.0286 Y2.5157
G1 X4.0292 Y2.513
G1 X4.0309 Y2.5107
G1 X4.0333 Y2.5089
G1 X4.036 Y2.5074
G1 X4.1059 Y2.4735
G1 X4.127 Y2.4992
G1 X4.147 Y2.5253
G1 X4.1653 Y2.5527
G1 X4.1812 Y2.582
G1 X4.1824 Y2.5851
G1 X4.1843 Y2.5904
G1 X4.1868 Y2.5977
G1 X4.1896 Y2.6065
G1 X4.1962 Y2.6274
G1 X4.2031 Y2.6506
G1 X4.2094 Y2.6733
G1 X4.2143 Y2.6929
G1 X4.2159 Y2.7006
G1 X4.2168 Y2.7066
G1  Y2.7104
G1 X4.216 Y2.7117
G1 X4.1941
G1 X4.1725 Y2.7103
G1 X4.1513 Y2.7066
G1 X4.1306 Y2.701
G1 X4.1104 Y2.6937
G1 X4.0907 Y2.6848
G1 X4.0718 Y2.6743
G1 X4.0536 Y2.6622
G1 X4.0174 Y2.6355
G1 X3.9834 Y2.6076
G1 X3.9513 Y2.5775
M67 E0 Q0
G0 X3.9358 Y2.5077 F0
M67 E0 Q1
G1 X3.9174 Y2.5068 F96
G1 X3.8998 Y2.5041
G1 X3.8831 Y2.4993
G1 X3.9054 Y2.4855
G1 X3.9302 Y2.474
G1 X3.9553 Y2.4626
G1 X3.979 Y2.4491
G1 X3.9936 Y2.4379
G1 X4.0069 Y2.4261
G1 X4.019 Y2.4138
G1 X4.0304 Y2.4009
G1 X4.0523 Y2.3743
G1 X4.0752 Y2.347
G1 X4.0558 Y2.3671
G1 X4.035 Y2.3856
G1 X4.0128 Y2.4025
G1 X3.9894 Y2.4177
G1 X3.965 Y2.431
G1 X3.9395 Y2.4425
G1 X3.9133 Y2.4519
G1 X3.8865 Y2.4593
G1 X3.8962 Y2.4127
G1 X3.9093 Y2.367
G1 X3.918 Y2.3452
G1 X3.9285 Y2.3245
G1 X3.9411 Y2.3052
G1 X3.9563 Y2.2875
G1 X3.9742 Y2.2719
G1 X3.9938 Y2.2588
G1 X4.0148 Y2.248
G1 X4.037 Y2.2391
G1 X4.0836 Y2.2256
G1 X4.131 Y2.2157
G1 X4.2005 Y2.2023
G1 X4.2022 Y2.2283
G1  Y2.2544
G1 X4.1996 Y2.2804
G1 X4.195 Y2.3061
G1 X4.1882 Y2.3312
G1 X4.1791 Y2.3555
G1 X4.1676 Y2.3787
G1 X4.1538 Y2.4007
G1 X4.1436 Y2.4136
G1 X4.1316 Y2.4261
G1 X4.1179 Y2.4382
G1 X4.1028 Y2.4498
G1 X4.0865 Y2.4606
G1 X4.0692 Y2.4706
G1 X4.051 Y2.4797
G1 X4.0322 Y2.4877
G1 X4.013 Y2.4945
G1 X3.9935 Y2.5001
G1 X3.974 Y2.5042
G1 X3.9547 Y2.5068
G1 X3.9358 Y2.5077
M67 E0 Q0
G0 X4.4962 Y2.373 F0
M67 E0 Q1
G1 X4.4955 Y2.3711 F96
G1  Y2.3691
G1 X4.4965 Y2.3672
G1 X4.498 Y2.3659
G1 X4.5299 Y2.3508
G1 X4.5318 Y2.3503
G1 X4.5336
G1 X4.5353 Y2.3511
G1 X4.5366 Y2.3525
G1 X4.5372 Y2.3543
G1  Y2.3562
G1 X4.5363 Y2.3579
G1 X4.5348 Y2.3592
G1 X4.5033 Y2.3749
G1 X4.5013 Y2.3755
G1 X4.4994
G1 X4.4976 Y2.3746
G1 X4.4962 Y2.373
M67 E0 Q0
G0 X4.5705 Y2.372 F0
M67 E0 Q1
G1 X4.5716 Y2.3707 F96
G1 X4.6151 Y2.3465
G1 X4.6588 Y2.3225
G1 X4.7035 Y2.2987
G1 X4.7127 Y2.2937
G1 X4.6353 Y2.3031
G1 X4.5579 Y2.3124
G1 X4.5559 Y2.3117
G1 X4.555 Y2.3098
G1  Y2.3077
G1 X4.5571 Y2.3064
G1 X4.6895 Y2.2782
G1 X4.6517 Y2.2759
G1 X4.614 Y2.2723
G1 X4.5864 Y2.2717
G1 X4.5589 Y2.2695
G1 X4.5316 Y2.2651
G1 X4.5047 Y2.2579
G1 X4.4963 Y2.2548
G1 X4.4879 Y2.2513
G1 X4.4766 Y2.2506
G1 X4.4655 Y2.2521
G1 X4.4565 Y2.2557
G1 X4.4486 Y2.2614
G1 X4.4418 Y2.2687
G1 X4.4358 Y2.2772
G1 X4.4261 Y2.296
G1 X4.4185 Y2.314
G1 X4.4116 Y2.3325
G1 X4.4064 Y2.3519
G1 X4.4048 Y2.3618
G1 X4.404 Y2.3717
G1  Y2.3816
G1 X4.4057 Y2.3914
G1 X4.4085 Y2.4008
G1 X4.4125 Y2.4094
G1 X4.4177 Y2.417
G1 X4.4239 Y2.4238
G1 X4.431 Y2.4296
G1 X4.439 Y2.4344
G1 X4.4477 Y2.4381
G1 X4.4571 Y2.4408
G1 X4.4676 Y2.4425
G1 X4.4779 Y2.443
G1 X4.4882 Y2.4424
G1 X4.4983 Y2.4408
G1 X4.5182 Y2.435
G1 X4.5375 Y2.4263
G1 X4.5741 Y2.4038
G1 X4.6076 Y2.3797
G1 X4.6447 Y2.3528
G1 X4.6814 Y2.3254
G1 X4.6634 Y2.3339
G1 X4.6186 Y2.3542
G1 X4.5738 Y2.3744
G1 X4.5721
G1 X4.5708 Y2.3735
G1  Y2.372
M67 E0 Q0
G0 X4.5956 Y2.4604 F0
M67 E0 Q1
G1 X4.5975 F96
G1 X4.5992 Y2.4619
G1 X4.6003 Y2.4635
G1 X4.6007 Y2.4655
G1  Y2.4675
G1 X4.5992 Y2.4691
G1 X4.5523 Y2.5074
G1 X4.5503 Y2.5086
G1 X4.5482 Y2.5091
G1 X4.546
G1 X4.5441 Y2.5074
G1 X4.5429 Y2.5055
G1 X4.5424 Y2.5032
G1  Y2.501
G1 X4.5441 Y2.4991
G1 X4.5919 Y2.4619
G1 X4.5937 Y2.4608
G1 X4.5956
M67 E0 Q0
G0 X4.5836 Y2.5664 F0
M67 E0 Q1
G1 X4.586 Y2.5672 F96
G1 X4.5878 Y2.5688
G1 X4.5889 Y2.571
G1  Y2.5735
G1 X4.5882 Y2.5757
G1 X4.576 Y2.5949
G1 X4.5742 Y2.5968
G1 X4.5719 Y2.5979
G1 X4.5694
G1 X4.5669 Y2.5972
G1 X4.565 Y2.5955
G1 X4.5638 Y2.5933
G1  Y2.5907
G1 X4.5645 Y2.5882
G1 X4.5775 Y2.5694
G1 X4.5792 Y2.5676
G1 X4.5813 Y2.5666
G1 X4.5836
M67 E0 Q0
G0 X4.6258 Y2.5889 F0
M67 E0 Q1
G1 X4.6448 Y2.5438 F96
G1 X4.6601 Y2.4973
G1 X4.6632 Y2.475
G1 X4.6673 Y2.4527
G1 X4.6726 Y2.4307
G1 X4.679 Y2.4089
G1 X4.6743 Y2.4156
G1 X4.6697 Y2.4224
G1 X4.6536 Y2.4483
G1 X4.6387 Y2.4747
G1 X4.6245 Y2.5015
G1 X4.6106 Y2.5286
G1 X4.607 Y2.5316
G1 X4.6025 Y2.5312
G1 X4.5991 Y2.5282
G1  Y2.5236
G1 X4.6077 Y2.5001
G1 X4.618 Y2.477
G1 X4.6297 Y2.4545
G1 X4.6424 Y2.4325
G1 X4.6563 Y2.4111
G1 X4.6711 Y2.3903
G1 X4.6867 Y2.3702
G1 X4.703 Y2.3507
G1 X4.7073 Y2.3426
G1 X4.6898 Y2.3582
G1 X4.6713 Y2.3731
G1 X4.6456 Y2.3911
G1 X4.6192 Y2.4074
G1 X4.592 Y2.4225
G1 X4.5642 Y2.4369
G1 X4.5395 Y2.4495
G1 X4.5151 Y2.4636
G1 X4.5036 Y2.4716
G1 X4.4929 Y2.4805
G1 X4.4833 Y2.4905
G1 X4.4751 Y2.5017
G1 X4.4684 Y2.5148
G1 X4.4641 Y2.5285
G1 X4.4622 Y2.5427
G1  Y2.557
G1 X4.4646 Y2.5713
G1 X4.4687 Y2.5852
G1 X4.4745 Y2.5986
G1 X4.4819 Y2.6111
G1 X4.4908 Y2.6225
G1 X4.5009 Y2.6328
G1 X4.5121 Y2.642
G1 X4.5241 Y2.6501
G1 X4.5501 Y2.6636
G1 X4.5773 Y2.6738
G1 X4.5907 Y2.6534
G1 X4.6032 Y2.6324
G1 X4.6149 Y2.6109
G1 X4.6258 Y2.5889
M67 E0 Q0
G0 X4.7125 Y2.5743 F0
M67 E0 Q1
G1  Y2.5717 F96
G1 X4.7132 Y2.5693
G1 X4.7148 Y2.5674
G1 X4.7171 Y2.5663
G1 X4.7196
G1 X4.722 Y2.567
G1 X4.7239 Y2.5686
G1 X4.725 Y2.5709
G1 X4.7281 Y2.5898
G1  Y2.5923
G1 X4.7275 Y2.5947
G1 X4.7258 Y2.5966
G1 X4.7236 Y2.5977
G1 X4.7211
G1 X4.7187 Y2.597
G1 X4.7169 Y2.5954
G1 X4.7158 Y2.5932
G1 X4.7125 Y2.5743
M67 E0 Q0
G0 X4.7712 Y2.5942 F0
M67 E0 Q1
G1 X4.7742 Y2.5919 F96
G1 X4.7784 Y2.5911
G1 X4.7826 Y2.5919
G1 X4.7855 Y2.5942
G1 X4.7873 Y2.5974
G1 X4.7879 Y2.601
G1 X4.7873 Y2.6046
G1 X4.7855 Y2.6078
G1 X4.7826 Y2.61
G1 X4.7784 Y2.6109
G1 X4.7742 Y2.61
G1 X4.7712 Y2.6078
G1 X4.7694 Y2.6046
G1 X4.7688 Y2.601
G1 X4.7694 Y2.5974
G1 X4.7712 Y2.5942
M67 E0 Q0
G0 X4.7296 Y2.65 F0
M67 E0 Q1
G1 X4.73 Y2.6506 F96
G1  Y2.6512
G1  Y2.65
M67 E0 Q0
G0 X4.7308 Y2.6502 F0
M67 E0 Q1
G1  Y2.6521 F96
G1 X4.7312 Y2.6529
G1  Y2.655
G1  Y2.6564
G1 X4.7306 Y2.658
G1 X4.7295 Y2.6593
G1 X4.7282 Y2.6604
G1 X4.7266 Y2.6611
G1 X4.7248
G1 X4.7234
G1 X4.7214 Y2.6604
G1 X4.72 Y2.6593
G1 X4.719 Y2.658
G1 X4.7183 Y2.6564
G1  Y2.6542
G1  Y2.6528
G1  Y2.6521
G1 X4.7189 Y2.6499
G1 X4.7195 Y2.6484
G1 X4.7205 Y2.6471
G1 X4.7217 Y2.6462
G1 X4.7232 Y2.6456
G1 X4.7248
G1 X4.726
G1 X4.7271
G1 X4.7282 Y2.6464
G1 X4.7291 Y2.6471
G1 X4.7298 Y2.648
G1 X4.7303 Y2.6491
G1 X4.7308 Y2.6502
M67 E0 Q0
G0 X4.8022 Y2.6912 F0
M67 E0 Q1
G1 X4.8068 Y2.6893 F96
G1 X4.8113 Y2.6912
G1 X4.8129 Y2.6956
G1 X4.8113 Y2.6999
G1 X4.8068 Y2.7019
G1 X4.8022 Y2.6999
G1 X4.8006 Y2.6956
G1 X4.8022 Y2.6912
M67 E0 Q0
G0 X4.829 Y2.684 F0
M67 E0 Q1
G1 X4.8297 Y2.6676 F96
G1 X4.8291 Y2.6313
G1 X4.8254 Y2.5953
G1 X4.8193 Y2.5595
G1 X4.8115 Y2.5239
G1 X4.7942 Y2.4529
G1 X4.7793 Y2.3819
G1 X4.7765 Y2.3615
G1 X4.7741 Y2.341
G1 X4.7705 Y2.3609
G1 X4.7674 Y2.3808
G1 X4.765 Y2.4008
G1 X4.7635 Y2.4211
G1 X4.763 Y2.4597
G1 X4.7651 Y2.4982
G1 X4.77 Y2.5364
G1 X4.7775 Y2.5742
G1 X4.7766 Y2.5792
G1 X4.7727 Y2.5819
G1 X4.7704
G1 X4.7682
G1 X4.7664 Y2.58
G1 X4.7653 Y2.5776
G1 X4.7579 Y2.5389
G1 X4.7527 Y2.4998
G1 X4.7497 Y2.4605
G1 X4.7491 Y2.4211
G1 X4.7499 Y2.3943
G1 X4.7516 Y2.3671
G1 X4.7446 Y2.4026
G1 X4.738 Y2.438
G1 X4.7323 Y2.4737
G1 X4.728 Y2.5095
G1 X4.7255 Y2.5143
G1 X4.7208 Y2.5159
G1 X4.7185
G1 X4.7165 Y2.5143
G1 X4.7151 Y2.5123
G1  Y2.5095
G1 X4.7175 Y2.4677
G1 X4.7215 Y2.4259
G1 X4.7272 Y2.3843
G1 X4.7353 Y2.3432
G1 X4.7202 Y2.3756
G1 X4.7059 Y2.4084
G1 X4.7023 Y2.4175
G1 X4.699 Y2.4267
G1 X4.6917 Y2.4688
G1 X4.6818 Y2.51
G1 X4.6771 Y2.5496
G1 X4.6748 Y2.5894
G1  Y2.6056
G1 X4.6757 Y2.6219
G1 X4.6777 Y2.638
G1 X4.6812 Y2.6537
G1 X4.6863 Y2.6687
G1 X4.6933 Y2.6829
G1 X4.7026 Y2.696
G1 X4.7142 Y2.7079
G1 X4.731 Y2.7216
G1 X4.7496 Y2.7345
G1 X4.7595 Y2.7401
G1 X4.7697 Y2.7447
G1 X4.78 Y2.7482
G1 X4.7906 Y2.7503
G1 X4.8003
G1 X4.8084 Y2.7472
G1 X4.815 Y2.7415
G1 X4.8198 Y2.7331
G1 X4.8247 Y2.7173
G1 X4.8275 Y2.7008
G1 X4.829 Y2.684
M67 E0 Q0
G0 X4.6293 Y3.0098 F0
M67 E0 Q1
G1 X4.6127 Y3.0055 F96
G1 X4.5954 Y3.003
G1 X4.5585 Y3.0021
G1 X4.5217 Y3.0033
G1 X4.5033
G1 X4.4851 Y3.0024
G1 X4.4668 Y2.9999
G1 X4.4487 Y2.9954
G1 X4.4351 Y2.9906
G1 X4.4219 Y2.9849
G1 X4.4093 Y2.9783
G1 X4.3972 Y2.9709
G1 X4.4017 Y2.9757
G1 X4.4066 Y2.9804
G1 X4.4166 Y2.9888
G1 X4.427 Y2.9961
G1 X4.438 Y3.0025
G1 X4.4493 Y3.0079
G1 X4.4732 Y3.0164
G1 X4.4983 Y3.0222
G1 X4.5443 Y3.0294
G1 X4.5908 Y3.0397
G1 X4.6125 Y3.048
G1 X4.6321 Y3.0595
G1 X4.6409 Y3.0667
G1 X4.6489 Y3.075
G1 X4.6561 Y3.0845
G1 X4.6623 Y3.0954
G1  Y3.0995
G1 X4.6601 Y3.1024
G1 X4.6566 Y3.103
G1 X4.6534 Y3.1006
G1 X4.6461 Y3.089
G1 X4.6375 Y3.0792
G1 X4.628 Y3.071
G1 X4.6175 Y3.0642
G1 X4.6063 Y3.0586
G1 X4.5943 Y3.0541
G1 X4.5819 Y3.0505
G1 X4.569 Y3.0478
G1 X4.5155 Y3.0414
G1 X4.4649 Y3.0349
G1 X4.445 Y3.0294
G1 X4.4257 Y3.0216
G1 X4.4073 Y3.0116
G1 X4.3901 Y2.9997
G1 X4.4044 Y3.0184
G1 X4.4227 Y3.0266
G1 X4.4413 Y3.0328
G1 X4.5038 Y3.0493
G1 X4.5191 Y3.0541
G1 X4.5341 Y3.0597
G1 X4.5488 Y3.0664
G1 X4.563 Y3.0744
G1 X4.5877 Y3.0918
G1 X4.6119 Y3.1101
G1 X4.6368 Y3.1273
G1 X4.6636 Y3.1411
G1 X4.6769 Y3.1457
G1 X4.6905 Y3.149
G1 X4.7043 Y3.151
G1 X4.7182 Y3.1518
G1 X4.7462 Y3.151
G1 X4.7741 Y3.1475
G1 X4.7559 Y3.1306
G1 X4.7401 Y3.111
G1 X4.7254 Y3.0903
G1 X4.7108 Y3.0696
G1 X4.6997 Y3.0562
G1 X4.6875 Y3.044
G1 X4.6744 Y3.0331
G1 X4.6602 Y3.0238
G1 X4.6452 Y3.016
G1 X4.6293 Y3.0098
M67 E0 Q0
G0 X4.3483 Y3.0468 F0
M67 E0 Q1
G1 X4.3442 Y3.0311 F96
G1 X4.3394 Y3.0155
G1 X4.329 Y2.9846
G1 X4.3197 Y2.9538
G1 X4.3171 Y2.9427
G1 X4.3148 Y2.9315
G1 X4.3103 Y2.9389
G1 X4.3058 Y2.9464
G1 X4.301 Y2.956
G1 X4.2973 Y2.9658
G1 X4.2947 Y2.9757
G1 X4.293 Y2.9857
G1 X4.2917 Y3.0063
G1 X4.2922 Y3.0274
G1 X4.293 Y3.0483
G1  Y3.0691
G1 X4.2922 Y3.0898
G1 X4.2893 Y3.1106
G1 X4.2845 Y3.1309
G1 X4.2779 Y3.1506
G1 X4.2697 Y3.1697
G1 X4.2598 Y3.188
G1 X4.2571 Y3.19
G1 X4.254 Y3.1895
G1 X4.252 Y3.1871
G1  Y3.1836
G1 X4.2621 Y3.1633
G1 X4.2698 Y3.1421
G1 X4.2755 Y3.1203
G1 X4.2789 Y3.098
G1 X4.2798 Y3.078
G1 X4.279 Y3.0582
G1 X4.277 Y3.0384
G1 X4.2746 Y3.0186
G1 X4.2722 Y2.9967
G1 X4.2713 Y2.9742
G1 X4.2601 Y2.9837
G1 X4.2508 Y2.9931
G1 X4.2425 Y3.0032
G1 X4.2351 Y3.0143
G1 X4.2284 Y3.0272
G1 X4.2233 Y3.0407
G1 X4.2194 Y3.0544
G1 X4.2167 Y3.0685
G1 X4.2134 Y3.0971
G1 X4.2116 Y3.126
G1 X4.2091 Y3.1531
G1 X4.2047 Y3.1797
G1 X4.1977 Y3.2056
G1 X4.1872 Y3.2308
G1 X4.1784 Y3.2463
G1 X4.1684 Y3.261
G1 X4.1573 Y3.2748
G1 X4.145 Y3.2876
G1 X4.158 Y3.2849
G1 X4.1707 Y3.2807
G1 X4.183 Y3.2754
G1 X4.195 Y3.2695
G1 X4.2208 Y3.2555
G1 X4.246 Y3.2404
G1 X4.267 Y3.2262
G1 X4.2872 Y3.2102
G1 X4.3058 Y3.1926
G1 X4.3223 Y3.1732
G1 X4.3359 Y3.1521
G1 X4.346 Y3.1293
G1 X4.3495 Y3.1172
G1 X4.3519 Y3.1047
G1 X4.3531 Y3.0918
G1  Y3.0785
G1 X4.3513 Y3.0626
G1 X4.3483 Y3.0468
M67 E0 Q0
G0 X4.2497 Y3.3897 F0
M67 E0 Q1
G1 X4.2395 F96
G1 X4.2302 Y3.3919
G1 X4.2222 Y3.3971
G1 X4.2189 Y3.4015
G1 X4.2171 Y3.4067
G1 X4.2167 Y3.4124
G1 X4.2172 Y3.4185
G1 X4.2201 Y3.4307
G1 X4.2233 Y3.4414
G1 X4.229 Y3.46
G1 X4.2365 Y3.4779
G1 X4.2427 Y3.4886
G1 X4.2499 Y3.4976
G1 X4.2579 Y3.5051
G1 X4.2668 Y3.5108
G1 X4.2765 Y3.5149
G1 X4.2872 Y3.5173
G1 X4.2988 Y3.5179
G1 X4.3113 Y3.5168
G1 X4.3227 Y3.5149
G1 X4.3396 Y3.5038
G1 X4.3579 Y3.4955
G1 X4.3773 Y3.4896
G1 X4.3975 Y3.4857
G1 X4.4387 Y3.4824
G1 X4.4789
G1 X4.4887
G1 X4.5246 Y3.4754
G1 X4.5007 Y3.4724
G1 X4.4766 Y3.4713
G1 X4.4524 Y3.4719
G1 X4.428 Y3.4742
G1 X4.3981 Y3.4776
G1 X4.3685 Y3.479
G1 X4.3539 Y3.4783
G1 X4.3393 Y3.4763
G1 X4.3248 Y3.4728
G1 X4.3104 Y3.4676
G1 X4.3083 Y3.4653
G1  Y3.4621
G1 X4.3107 Y3.4597
G1 X4.3138
G1 X4.3293 Y3.4642
G1 X4.3451 Y3.4663
G1 X4.3611
G1 X4.3772 Y3.4646
G1 X4.4093 Y3.4584
G1 X4.4408 Y3.4516
G1 X4.4683 Y3.4476
G1 X4.4957 Y3.446
G1 X4.5232 Y3.4469
G1 X4.5506 Y3.4502
G1 X4.545 Y3.4477
G1 X4.5394 Y3.4454
G1 X4.5265 Y3.4416
G1 X4.5136 Y3.4397
G1 X4.5004
G1 X4.487 Y3.4406
G1 X4.4597 Y3.4446
G1 X4.4322 Y3.4471
G1 X4.4209
G1 X4.4096 Y3.4457
G1 X4.3984 Y3.4439
G1 X4.3874 Y3.4414
G1 X4.3644 Y3.4343
G1 X4.3421 Y3.4254
G1 X4.2981 Y3.4057
G1 X4.2809 Y3.3983
G1 X4.2602 Y3.3915
G1 X4.2497 Y3.3897
M67 E0 Q0
G0 X4.3346 Y3.5294 F0
M67 E0 Q1
G1 X4.3228 Y3.5397 F96
G1 X4.3141 Y3.5521
G1 X4.3113 Y3.559
G1 X4.3099 Y3.5663
G1  Y3.574
G1 X4.312 Y3.5819
G1 X4.3166 Y3.5908
G1 X4.3231 Y3.597
G1 X4.3311 Y3.6009
G1 X4.34 Y3.6028
G1 X4.3592 Y3.6025
G1 X4.3775 Y3.5989
G1 X4.3998 Y3.593
G1 X4.4222 Y3.5867
G1 X4.434 Y3.5824
G1 X4.4463 Y3.5795
G1 X4.4732 Y3.5706
G1 X4.4997 Y3.5607
G1 X4.5258 Y3.5497
G1 X4.5511 Y3.5374
G1 X4.5457 Y3.5386
G1 X4.5404 Y3.5396
G1 X4.5172 Y3.5426
G1 X4.4939 Y3.5444
G1 X4.4706 Y3.547
G1 X4.4479 Y3.5524
G1 X4.4444
G1 X4.4426 Y3.5495
G1  Y3.5461
G1 X4.4455 Y3.5436
G1 X4.4662 Y3.5362
G1 X4.4873 Y3.5306
G1 X4.5087 Y3.5259
G1 X4.5302 Y3.5214
G1 X4.5414 Y3.5188
G1 X4.5523 Y3.5155
G1 X4.5628 Y3.5115
G1 X4.5729 Y3.5067
G1 X4.5535 Y3.5083
G1 X4.5339 Y3.5089
G1 X4.5142
G1 X4.4946 Y3.508
G1 X4.4743 Y3.507
G1 X4.4223 Y3.5149
G1 X4.3703 Y3.5229
G1 X4.3529 Y3.526
G1 X4.3346 Y3.5294
M67 E0 Q0
G0 X4.4293 Y3.6093 F0
M67 E0 Q1
G1 X4.4228 Y3.6131 F96
G1 X4.4173 Y3.6184
G1 X4.4136 Y3.6251
G1 X4.4132 Y3.6309
G1 X4.4154 Y3.6359
G1 X4.4195 Y3.6401
G1 X4.4313 Y3.6464
G1 X4.4435 Y3.65
G1 X4.4775 Y3.6572
G1 X4.5117 Y3.6635
G1 X4.5289 Y3.6668
G1 X4.5464 Y3.6703
G1 X4.564 Y3.6729
G1 X4.5814 Y3.6736
G1 X4.5887 Y3.6726
G1 X4.5953 Y3.6704
G1 X4.6012 Y3.6671
G1 X4.6065 Y3.6628
G1 X4.6149 Y3.6518
G1 X4.6203 Y3.6386
G1 X4.6226 Y3.6249
G1  Y3.6111
G1 X4.6205 Y3.5973
G1 X4.6174 Y3.5836
G1 X4.6098 Y3.5893
G1 X4.6025 Y3.5955
G1 X4.5953 Y3.6026
G1 X4.5889 Y3.6104
G1 X4.5834 Y3.6188
G1 X4.5792 Y3.628
G1 X4.5776 Y3.6306
G1 X4.5754 Y3.6321
G1 X4.5729 Y3.6328
G1 X4.5703
G1 X4.568 Y3.6315
G1 X4.5663 Y3.6297
G1 X4.5654 Y3.6273
G1  Y3.6242
G1 X4.5688 Y3.6149
G1 X4.5729 Y3.6061
G1 X4.5779 Y3.5977
G1 X4.5836 Y3.5897
G1 X4.5954 Y3.5745
G1 X4.6074 Y3.5596
G1 X4.6156 Y3.5496
G1 X4.6235 Y3.5394
G1 X4.6033 Y3.5546
G1 X4.5819 Y3.5679
G1 X4.5568 Y3.5802
G1 X4.5306 Y3.5902
G1 X4.5036 Y3.5978
G1 X4.4761 Y3.6028
G1 X4.4609 Y3.6039
G1 X4.4445 Y3.6053
G1 X4.4366 Y3.6068
G1 X4.4293 Y3.6093
M67 E0 Q0
G0 X4.6485 Y3.6332 F0
M67 E0 Q1
G1 X4.6435 Y3.6525 F96
G1 X4.6402 Y3.6725
G1  Y3.6824
G1 X4.6416 Y3.6919
G1 X4.6452 Y3.701
G1 X4.6511 Y3.7094
G1 X4.6646 Y3.7213
G1 X4.68 Y3.7309
G1 X4.6962 Y3.7394
G1 X4.712 Y3.7478
G1 X4.7224 Y3.7541
G1 X4.7327 Y3.7612
G1 X4.7424 Y3.7692
G1 X4.7512 Y3.7781
G1 X4.7559 Y3.7691
G1 X4.7584 Y3.7591
G1 X4.7594 Y3.7485
G1  Y3.7378
G1 X4.7569 Y3.7176
G1 X4.7521 Y3.6973
G1 X4.7459 Y3.6774
G1 X4.7395 Y3.658
G1 X4.7295 Y3.6305
G1 X4.7181 Y3.6035
G1 X4.7054 Y3.5771
G1 X4.6915 Y3.5513
G1 X4.6935 Y3.5573
G1 X4.7032 Y3.5921
G1 X4.7114 Y3.6275
G1 X4.7144 Y3.6454
G1 X4.7163 Y3.6634
G1 X4.7171 Y3.6814
G1 X4.7164 Y3.6996
G1 X4.7154 Y3.7031
G1 X4.7133 Y3.7056
G1 X4.7106 Y3.7071
G1 X4.7075 Y3.7077
G1 X4.7045 Y3.7072
G1 X4.7019 Y3.7057
G1 X4.7001 Y3.7031
G1 X4.6995 Y3.6996
G1  Y3.6822
G1 X4.6974 Y3.6651
G1 X4.6944 Y3.6483
G1 X4.6904 Y3.6317
G1 X4.6799 Y3.5991
G1 X4.6673 Y3.5669
G1 X4.6627 Y3.5546
G1 X4.6588 Y3.5422
G1 X4.6514 Y3.5528
G1 X4.643 Y3.5624
G1 X4.648 Y3.5704
G1 X4.6514 Y3.5788
G1 X4.6533 Y3.5874
G1 X4.654 Y3.5963
G1 X4.6525 Y3.6146
G1 X4.6485 Y3.6332
M67 E0 Q0
G0 X4.7638 Y3.6273 F0
M67 E0 Q1
G1 X4.7794 Y3.6648 F96
G1 X4.7882 Y3.6899
G1 X4.7948 Y3.7158
G1 X4.8073 Y3.7062
G1 X4.82 Y3.6971
G1 X4.8312 Y3.6924
G1 X4.8431 Y3.6901
G1 X4.8545
G1 X4.8605 Y3.689
G1 X4.8651 Y3.6866
G1 X4.8671 Y3.6834
G1 X4.868 Y3.6793
G1  Y3.6745
G1 X4.8672 Y3.6694
G1 X4.8644 Y3.6594
G1 X4.8617 Y3.6517
G1 X4.8554 Y3.6383
G1 X4.8478 Y3.6256
G1 X4.8294 Y3.6004
G1 X4.8096 Y3.5762
G1 X4.7894 Y3.5537
G1 X4.7674 Y3.5331
G1 X4.7556 Y3.5238
G1 X4.7432 Y3.5152
G1 X4.7303 Y3.5075
G1 X4.7168 Y3.5007
G1 X4.7186 Y3.5026
G1 X4.7442 Y3.5313
G1 X4.7674 Y3.5614
G1 X4.7777 Y3.5772
G1 X4.7871 Y3.5937
G1 X4.7954 Y3.6109
G1 X4.8025 Y3.6291
G1 X4.8029 Y3.6317
G1 X4.8022 Y3.6339
G1 X4.8007 Y3.6355
G1 X4.7986 Y3.6364
G1 X4.7939
G1 X4.7904 Y3.6324
G1 X4.7817 Y3.6125
G1 X4.7714 Y3.5933
G1 X4.7594 Y3.5751
G1 X4.7456 Y3.5583
G1 X4.7357 Y3.5483
G1 X4.7254 Y3.5391
G1 X4.7146 Y3.5304
G1 X4.7034 Y3.5221
G1 X4.7258 Y3.5559
G1 X4.7459 Y3.591
G1 X4.7638 Y3.6273
M67 E0 Q0
G0 X4.6042 Y3.4449 F0
M67 E0 Q1
G1 X4.6031 Y3.4427 F96
G1 X4.6026 Y3.4403
G1 X4.6017 Y3.4382
G1 X4.6001 Y3.4398
