%
(TOOLRACK2)
(T9  D=0.25 CR=0. - ZMIN=-0.75 - FLAT END MILL)
N10 G90 G94 G17 G91.1
N15 G20
(WHEN USING FUSION FOR PERSONAL USE, THE FEEDRATE OF RAPID)
(MOVES IS REDUCED TO MATCH THE FEEDRATE OF CUTTING MOVES,)
(WHICH CAN INCREASE MACHINING TIME. UNRESTRICTED RAPID MOVES)
(ARE AVAILABLE WITH A FUSION SUBSCRIPTION.)
N20 G53 G0 Z0.
(2D CONTOUR2)
N25 T9 M6
N30 S11999 M3
N35 G54
N40 M8
N45 G0 X13.6773 Y-1.375
N50 G43 Z1. H9
N55 G1 Z0.2 F99.457
N60 Z0.1 F33.152
N65 X-17.7874 Z-0.1301 F99.464
N70 G2 X-17.9124 Y-1.25 Z-0.1315 I0. J0.125
N75 G1 Y1.25 Z-0.1498
N80 G2 X-17.7874 Y1.375 Z-0.1512 I0.125 J0.
N85 G1 X17.7874 Z-0.4113
N90 G2 X17.9124 Y1.25 Z-0.4127 I0. J-0.125
N95 G1 Y-1.25 Z-0.431
N100 G2 X17.7874 Y-1.375 Z-0.4324 I-0.125 J0.
N105 G1 X0. Z-0.5625
N110 X-17.7874 F99.457
N115 G2 X-17.9124 Y-1.25 I0. J0.125
N120 G1 Y1.25
N125 G2 X-17.7874 Y1.375 I0.125 J0.
N130 G1 X17.7874
N135 G2 X17.9124 Y1.25 I0. J-0.125
N140 G1 Y-1.25
N145 G2 X17.7874 Y-1.375 I-0.125 J0.
N150 G1 X0.
N155 X-9.0157 Z-0.6284 F99.464
N160 Z-0.625
N165 X-9.5157
N170 Z-0.6321 F33.152
N175 X-11.0197 Z-0.6431 F99.464
N180 Z-0.625
N185 X-11.5197
N190 Z-0.6467 F33.152
N195 X-13.0236 Z-0.6577 F99.464
N200 Z-0.625
N205 X-13.5236
N210 Z-0.6614 F33.152
N215 X-15.0276 Z-0.6724 F99.464
N220 Z-0.625
N225 X-15.5276
N230 Z-0.676 F33.152
N235 X-17.0315 Z-0.687 F99.464
N240 Z-0.625
N245 X-17.5315
N250 Z-0.6907 F33.152
N255 X-17.7874 Z-0.6926 F99.464
N260 G2 X-17.9124 Y-1.25 Z-0.694 I0. J0.125
N265 G1 Y-0.002 Z-0.7031
N270 Z-0.625
N275 Y0.498
N280 Z-0.7068 F33.152
N285 Y1.25 Z-0.7123 F99.464
N290 G2 X-17.7874 Y1.375 Z-0.7137 I0.125 J0.
N295 G1 X-17.0354 Z-0.7192
N300 Z-0.625
N305 X-16.5354
N310 Z-0.7229 F33.152
N315 X-15.0315 Z-0.7338 F99.464
N320 Z-0.625
N325 X-14.5315
N330 Z-0.7375 F33.152
N335 X-13.0276 Z-0.7485 F99.464
N340 Z-0.625
N345 X-12.8225
N350 X-12.5276 F99.457
N355 Z-0.75 F33.152
N360 X-11.0236 F99.457
N365 Z-0.625
N370 X-10.5236
N375 Z-0.75 F33.152
N380 X-9.0197 F99.457
N385 Z-0.625
N390 X-8.5197
N395 Z-0.75 F33.152
N400 X-7.0157 F99.457
N405 Z-0.625
N410 X-6.5157
N415 Z-0.75 F33.152
N420 X-5.0118 F99.457
N425 Z-0.625
N430 X-4.5118
N435 Z-0.75 F33.152
N440 X-3.0079 F99.457
N445 Z-0.625
N450 X-2.5079
N455 Z-0.75 F33.152
N460 X-1.0039 F99.457
N465 Z-0.625
N470 X-0.5039
N475 Z-0.75 F33.152
N480 X1. F99.457
N485 Z-0.625
N490 X1.5
N495 Z-0.75 F33.152
N500 X3.0039 F99.457
N505 Z-0.625
N510 X3.5039
N515 Z-0.75 F33.152
N520 X5.0079 F99.457
N525 Z-0.625
N530 X5.5079
N535 Z-0.75 F33.152
N540 X7.0118 F99.457
N545 Z-0.625
N550 X7.5118
N555 Z-0.75 F33.152
N560 X9.0157 F99.457
N565 Z-0.625
N570 X9.5157
N575 Z-0.75 F33.152
N580 X11.0197 F99.457
N585 Z-0.625
N590 X11.5197
N595 Z-0.75 F33.152
N600 X13.0236 F99.457
N605 Z-0.625
N610 X13.5236
N615 Z-0.75 F33.152
N620 X15.0276 F99.457
N625 Z-0.625
N630 X15.5276
N635 Z-0.75 F33.152
N640 X17.0315 F99.457
N645 Z-0.625
N650 X17.5315
N655 Z-0.75 F33.152
N660 X17.7874 F99.457
N665 G2 X17.9124 Y1.25 I0. J-0.125
N670 G1 Y0.002
N675 Z-0.625
N680 Y-0.498
N685 Z-0.75 F33.152
N690 Y-1.25 F99.457
N695 G2 X17.7874 Y-1.375 I-0.125 J0.
N700 G1 X17.0354
N705 Z-0.625
N710 X16.5354
N715 Z-0.75 F33.152
N720 X15.0315 F99.457
N725 Z-0.625
N730 X14.5315
N735 Z-0.75 F33.152
N740 X13.0276 F99.457
N745 Z-0.625
N750 X12.5276
N755 Z-0.75 F33.152
N760 X11.0236 F99.457
N765 Z-0.625
N770 X10.5236
N775 Z-0.75 F33.152
N780 X9.0197 F99.457
N785 Z-0.625
N790 X8.5197
N795 Z-0.75 F33.152
N800 X7.0157 F99.457
N805 Z-0.625
N810 X6.5157
N815 Z-0.75 F33.152
N820 X5.0118 F99.457
N825 Z-0.625
N830 X4.5118
N835 Z-0.75 F33.152
N840 X3.0079 F99.457
N845 Z-0.625
N850 X2.5079
N855 Z-0.75 F33.152
N860 X1.0039 F99.457
N865 Z-0.625
N870 X0.5039
N875 Z-0.75 F33.152
N880 X-1. F99.457
N885 Z-0.625
N890 X-1.5
N895 Z-0.75 F33.152
N900 X-3.0039 F99.457
N905 Z-0.625
N910 X-3.5039
N915 Z-0.75 F33.152
N920 X-5.0079 F99.457
N925 Z-0.625
N930 X-5.5079
N935 Z-0.75 F33.152
N940 X-7.0118 F99.457
N945 Z-0.625
N950 X-7.5118
N955 Z-0.75 F33.152
N960 X-9.0157 F99.457
N965 Z-0.625
N970 X-9.5157
N975 Z-0.75 F33.152
N980 X-11.0197 F99.457
N985 Z-0.625
N990 X-11.5197
N995 Z-0.75 F33.152
N1000 X-13.0236 F99.457
N1005 Z-0.625
N1010 X-13.5236
N1015 Z-0.75 F33.152
N1020 X-15.0276 F99.457
N1025 Z-0.625
N1030 X-15.5276
N1035 Z-0.75 F33.152
N1040 X-17.0315 F99.457
N1045 Z-0.625
N1050 X-17.5315
N1055 Z-0.75 F33.152
N1060 X-17.7874 F99.457
N1065 G2 X-17.9124 Y-1.25 I0. J0.125
N1070 G1 Y-0.002
N1075 Z-0.625
N1080 Y0.498
N1085 Z-0.75 F33.152
N1090 Y1.25 F99.457
N1095 G2 X-17.7874 Y1.375 I0.125 J0.
N1100 G1 X-17.0354
N1105 Z-0.625
N1110 X-16.5354
N1115 Z-0.75 F33.152
N1120 X-15.0315 F99.457
N1125 Z-0.625
N1130 X-14.5315
N1135 Z-0.75 F33.152
N1140 X-13.0276 F99.457
N1145 Z-0.625
N1150 X-12.8225
N1155 Z1.
(WHEN USING FUSION FOR PERSONAL USE, THE FEEDRATE OF RAPID)
(MOVES IS REDUCED TO MATCH THE FEEDRATE OF CUTTING MOVES,)
(WHICH CAN INCREASE MACHINING TIME. UNRESTRICTED RAPID MOVES)
(ARE AVAILABLE WITH A FUSION SUBSCRIPTION.)
(2D CONTOUR5)
N1160 G0 X0.7399 Y0.8926
N1165 G1 Z0.7 F99.457
N1170 Z0.2
N1175 Z0.0394 F33.152
N1180 Z-0.5625
N1185 G3 X0.6853 Y0.8574 I-0.0273 J-0.0176 F99.457
N1190 X0.7399 Y0.8926 I0.0273 J0.0176
N1195 G1 Z-0.75 F33.152
N1200 G3 X0.6853 Y0.8574 I-0.0273 J-0.0176 F99.457
N1205 X0.7399 Y0.8926 I0.0273 J0.0176
N1210 G1 Z0.3
N1215 X-0.6801 Y0.875
N1220 Z0.2
N1225 Z0.0394 F33.152
N1230 Z-0.5625
N1235 G3 X-0.7451 I-0.0325 J0. F99.457
N1240 X-0.6801 I0.0325 J0.
N1245 G1 Z-0.75 F33.152
N1250 G3 X-0.7451 I-0.0325 J0. F99.457
N1255 X-0.6801 I0.0325 J0.
N1260 G1 Z0.3
N1265 X-2.2601 Y0.8926
N1270 Z0.2
N1275 Z0.0394 F33.152
N1280 Z-0.5625
N1285 G3 X-2.3147 Y0.8574 I-0.0273 J-0.0176 F99.457
N1290 X-2.2601 Y0.8926 I0.0273 J0.0176
N1295 G1 Z-0.75 F33.152
N1300 G3 X-2.3147 Y0.8574 I-0.0273 J-0.0176 F99.457
N1305 X-2.2601 Y0.8926 I0.0273 J0.0176
N1310 G1 Z0.3
N1315 X-3.6801 Y0.875
N1320 Z0.2
N1325 Z0.0394 F33.152
N1330 Z-0.5625
N1335 G3 X-3.7451 I-0.0325 J0. F99.457
N1340 X-3.6801 I0.0325 J0.
N1345 G1 Z-0.75 F33.152
N1350 G3 X-3.7451 I-0.0325 J0. F99.457
N1355 X-3.6801 I0.0325 J0.
N1360 G1 Z0.3
N1365 X-5.2601 Y0.8926
N1370 Z0.2
N1375 Z0.0394 F33.152
N1380 Z-0.5625
N1385 G3 X-5.3147 Y0.8574 I-0.0273 J-0.0176 F99.457
N1390 X-5.2601 Y0.8926 I0.0273 J0.0176
N1395 G1 Z-0.75 F33.152
N1400 G3 X-5.3147 Y0.8574 I-0.0273 J-0.0176 F99.457
N1405 X-5.2601 Y0.8926 I0.0273 J0.0176
N1410 G1 Z0.3
N1415 X-6.6801 Y0.875
N1420 Z0.2
N1425 Z0.0394 F33.152
N1430 Z-0.5625
N1435 G3 X-6.7451 I-0.0325 J0. F99.457
N1440 X-6.6801 I0.0325 J0.
N1445 G1 Z-0.75 F33.152
N1450 G3 X-6.7451 I-0.0325 J0. F99.457
N1455 X-6.6801 I0.0325 J0.
N1460 G1 Z0.3
N1465 X-8.2549
N1470 Z0.2
N1475 Z0.0394 F33.152
N1480 Z-0.5625
N1485 G3 X-8.3199 I-0.0325 J0. F99.457
N1490 X-8.2549 I0.0325 J0.
N1495 G1 Z-0.75 F33.152
N1500 G3 X-8.3199 I-0.0325 J0. F99.457
N1505 X-8.2549 I0.0325 J0.
N1510 G1 Z0.3
N1515 X-9.6801
N1520 Z0.2
N1525 Z0.0394 F33.152
N1530 Z-0.5625
N1535 G3 X-9.7451 I-0.0325 J0. F99.457
N1540 X-9.6801 I0.0325 J0.
N1545 G1 Z-0.75 F33.152
N1550 G3 X-9.7451 I-0.0325 J0. F99.457
N1555 X-9.6801 I0.0325 J0.
N1560 G1 Z0.3
N1565 X-11.2601 Y0.8926
N1570 Z0.2
N1575 Z0.0394 F33.152
N1580 Z-0.5625
N1585 G3 X-11.3147 Y0.8574 I-0.0273 J-0.0176 F99.457
N1590 X-11.2601 Y0.8926 I0.0273 J0.0176
N1595 G1 Z-0.75 F33.152
N1600 G3 X-11.3147 Y0.8574 I-0.0273 J-0.0176 F99.457
N1605 X-11.2601 Y0.8926 I0.0273 J0.0176
N1610 G1 Z0.3
N1615 X-12.6801 Y0.875
N1620 Z0.2
N1625 Z0.0394 F33.152
N1630 Z-0.5625
N1635 G3 X-12.7451 I-0.0325 J0. F99.457
N1640 X-12.6801 I0.0325 J0.
N1645 G1 Z-0.75 F33.152
N1650 G3 X-12.7451 I-0.0325 J0. F99.457
N1655 X-12.6801 I0.0325 J0.
N1660 G1 Z0.3
N1665 X-14.2549
N1670 Z0.2
N1675 Z0.0394 F33.152
N1680 Z-0.5625
N1685 G3 X-14.3199 I-0.0325 J0. F99.457
N1690 X-14.2549 I0.0325 J0.
N1695 G1 Z-0.75 F33.152
N1700 G3 X-14.3199 I-0.0325 J0. F99.457
N1705 X-14.2549 I0.0325 J0.
N1710 G1 Z0.3
N1715 X-15.6853 Y0.8926
N1720 Z0.2
N1725 Z0.0394 F33.152
N1730 Z-0.5625
N1735 G3 X-15.7399 Y0.8574 I-0.0273 J-0.0176 F99.457
N1740 X-15.6853 Y0.8926 I0.0273 J0.0176
N1745 G1 Z-0.75 F33.152
N1750 G3 X-15.7399 Y0.8574 I-0.0273 J-0.0176 F99.457
N1755 X-15.6853 Y0.8926 I0.0273 J0.0176
N1760 G1 Z0.3
N1765 X-17.2549 Y0.875
N1770 Z0.2
N1775 Z0.0394 F33.152
N1780 Z-0.5625
N1785 G3 X-17.3199 I-0.0325 J0. F99.457
N1790 X-17.2549 I0.0325 J0.
N1795 G1 Z-0.75 F33.152
N1800 G3 X-17.3199 I-0.0325 J0. F99.457
N1805 X-17.2549 I0.0325 J0.
N1810 G1 Z0.3
N1815 X2.3199
N1820 Z0.2
N1825 Z0.0394 F33.152
N1830 Z-0.5625
N1835 G3 X2.2549 I-0.0325 J0. F99.457
N1840 X2.3199 I0.0325 J0.
N1845 G1 Z-0.75 F33.152
N1850 G3 X2.2549 I-0.0325 J0. F99.457
N1855 X2.3199 I0.0325 J0.
N1860 G1 Z0.3
N1865 X3.7451
N1870 Z0.2
N1875 Z0.0394 F33.152
N1880 Z-0.5625
N1885 G3 X3.6801 I-0.0325 J0. F99.457
N1890 X3.7451 I0.0325 J0.
N1895 G1 Z-0.75 F33.152
N1900 G3 X3.6801 I-0.0325 J0. F99.457
N1905 X3.7451 I0.0325 J0.
N1910 G1 Z0.3
N1915 X5.3199
N1920 Z0.2
N1925 Z0.0394 F33.152
N1930 Z-0.5625
N1935 G3 X5.2549 I-0.0325 J0. F99.457
N1940 X5.3199 I0.0325 J0.
N1945 G1 Z-0.75 F33.152
N1950 G3 X5.2549 I-0.0325 J0. F99.457
N1955 X5.3199 I0.0325 J0.
N1960 G1 Z0.3
N1965 X6.7451
N1970 Z0.2
N1975 Z0.0394 F33.152
N1980 Z-0.5625
N1985 G3 X6.6801 I-0.0325 J0. F99.457
N1990 X6.7451 I0.0325 J0.
N1995 G1 Z-0.75 F33.152
N2000 G3 X6.6801 I-0.0325 J0. F99.457
N2005 X6.7451 I0.0325 J0.
N2010 G1 Z0.3
N2015 X8.3199
N2020 Z0.2
N2025 Z0.0394 F33.152
N2030 Z-0.5625
N2035 G3 X8.2549 I-0.0325 J0. F99.457
N2040 X8.3199 I0.0325 J0.
N2045 G1 Z-0.75 F33.152
N2050 G3 X8.2549 I-0.0325 J0. F99.457
N2055 X8.3199 I0.0325 J0.
N2060 G1 Z0.3
N2065 X9.7451
N2070 Z0.2
N2075 Z0.0394 F33.152
N2080 Z-0.5625
N2085 G3 X9.6801 I-0.0325 J0. F99.457
N2090 X9.7451 I0.0325 J0.
N2095 G1 Z-0.75 F33.152
N2100 G3 X9.6801 I-0.0325 J0. F99.457
N2105 X9.7451 I0.0325 J0.
N2110 G1 Z0.3
N2115 X11.3147 Y0.8926
N2120 Z0.2
N2125 Z0.0394 F33.152
N2130 Z-0.5625
N2135 G3 X11.2601 Y0.8574 I-0.0273 J-0.0176 F99.457
N2140 X11.3147 Y0.8926 I0.0273 J0.0176
N2145 G1 Z-0.75 F33.152
N2150 G3 X11.2601 Y0.8574 I-0.0273 J-0.0176 F99.457
N2155 X11.3147 Y0.8926 I0.0273 J0.0176
N2160 G1 Z0.3
N2165 X12.7399
N2170 Z0.2
N2175 Z0.0394 F33.152
N2180 Z-0.5625
N2185 G3 X12.6853 Y0.8574 I-0.0273 J-0.0176 F99.457
N2190 X12.7399 Y0.8926 I0.0273 J0.0176
N2195 G1 Z-0.75 F33.152
N2200 G3 X12.6853 Y0.8574 I-0.0273 J-0.0176 F99.457
N2205 X12.7399 Y0.8926 I0.0273 J0.0176
N2210 G1 Z0.3
N2215 X14.3199 Y0.875
N2220 Z0.2
N2225 Z0.0394 F33.152
N2230 Z-0.5625
N2235 G3 X14.2549 I-0.0325 J0. F99.457
N2240 X14.3199 I0.0325 J0.
N2245 G1 Z-0.75 F33.152
N2250 G3 X14.2549 I-0.0325 J0. F99.457
N2255 X14.3199 I0.0325 J0.
N2260 G1 Z0.3
N2265 X15.7451
N2270 Z0.2
N2275 Z0.0394 F33.152
N2280 Z-0.5625
N2285 G3 X15.6801 I-0.0325 J0. F99.457
N2290 X15.7451 I0.0325 J0.
N2295 G1 Z-0.75 F33.152
N2300 G3 X15.6801 I-0.0325 J0. F99.457
N2305 X15.7451 I0.0325 J0.
N2310 G1 Z0.3
N2315 X17.3199
N2320 Z0.2
N2325 Z0.0394 F33.152
N2330 Z-0.5625
N2335 G3 X17.2549 I-0.0325 J0. F99.457
N2340 X17.3199 I0.0325 J0.
N2345 G1 Z-0.75 F33.152
N2350 G3 X17.2549 I-0.0325 J0. F99.457
N2355 X17.3199 I0.0325 J0.
N2360 G1 Z0.7
N2365 M9
N2370 G53 G0 Z0.
N2375 G53 G0 X0. Y0.
N2380 M30
%
