%
(TOOL_RACK1)
(T1  D=0.125 CR=0. - ZMIN=-0.75 - FLAT END MILL)
N10 G90 G94 G17 G91.1
N15 G20
(WHEN USING FUSION FOR PERSONAL USE, THE FEEDRATE OF RAPID)
(MOVES IS REDUCED TO MATCH THE FEEDRATE OF CUTTING MOVES,)
(WHICH CAN INCREASE MACHINING TIME. UNRESTRICTED RAPID MOVES)
(ARE AVAILABLE WITH A FUSION SUBSCRIPTION.)
N20 G53 G0 Z0.
(2D CONTOUR2)
N25 T1 M6
N30 S11999 M3
N35 G54
N40 M8
N45 G0 X17.8447 Y1.275
N50 G43 Z1. H1
N55 G1 Z0.2 F50.192
N60 Z0.1 F16.731
N65 G2 X17.8499 Y1.25 Z0.0999 I-0.0573 J-0.025 F50.196
N70 G1 Y-1.25 Z0.0876
N75 G2 X17.7874 Y-1.3125 Z0.0871 I-0.0625 J0.
N80 G1 X-17.7874 Z-0.0871
N85 G2 X-17.8499 Y-1.25 Z-0.0876 I0. J0.0625
N90 G1 Y1.25 Z-0.0999
N95 G2 X-17.7874 Y1.3125 Z-0.1004 I0.0625 J0.
N100 G1 X17.7874 Z-0.2746
N105 G2 X17.8499 Y1.25 Z-0.2751 I0. J-0.0625
N110 G1 Y-1.25 Z-0.2874
N115 G2 X17.7874 Y-1.3125 Z-0.2879 I-0.0625 J0.
N120 G1 X0. Z-0.375
N125 X-17.7874 F50.192
N130 G2 X-17.8499 Y-1.25 I0. J0.0625
N135 G1 Y1.25
N140 G2 X-17.7874 Y1.3125 I0.0625 J0.
N145 G1 X17.7874
N150 G2 X17.8499 Y1.25 I0. J-0.0625
N155 G1 Y-1.25
N160 G2 X17.7874 Y-1.3125 I-0.0625 J0.
N165 G1 X0.
N170 X-17.7874 Z-0.4621 F50.196
N175 G2 X-17.8499 Y-1.25 Z-0.4626 I0. J0.0625
N180 G1 Y1.25 Z-0.4749
N185 G2 X-17.7874 Y1.3125 Z-0.4754 I0.0625 J0.
N190 G1 X12.7571 Z-0.625
N195 X12.9601
N200 Z-0.626 F16.731
N205 X13.5871 Z-0.6291 F50.196
N210 Z-0.625
N215 X13.9621
N220 Z-0.6309 F16.731
N225 X14.5891 Z-0.634 F50.196
N230 Z-0.625
N235 X14.9641
N240 Z-0.6358 F16.731
N245 X15.591 Z-0.6389 F50.196
N250 Z-0.625
N255 X15.966
N260 Z-0.6407 F16.731
N265 X16.593 Z-0.6438 F50.196
N270 Z-0.625
N275 X16.968
N280 Z-0.6456 F16.731
N285 X17.595 Z-0.6487 F50.196
N290 Z-0.625
N295 X17.7874
N300 G2 X17.8499 Y1.25 I0. J-0.0625
N305 G1 Y1.1875
N310 Z-0.6504 F16.731
N315 Y0.4405 Z-0.6541 F50.196
N320 Z-0.625
N325 Y0.0655
N330 Z-0.6559 F16.731
N335 Y-0.5615 Z-0.659 F50.196
N340 Z-0.625
N345 Y-0.9365
N350 Z-0.6608 F16.731
N355 Y-1.25 Z-0.6624 F50.196
N360 G2 X17.7874 Y-1.3125 Z-0.6629 I-0.0625 J0.
N365 G1 X17.4739 Z-0.6644
N370 Z-0.625
N375 X17.0989
N380 Z-0.6662 F16.731
N385 X16.4719 Z-0.6693 F50.196
N390 Z-0.625
N395 X16.0969
N400 Z-0.6711 F16.731
N405 X15.47 Z-0.6742 F50.196
N410 Z-0.625
N415 X15.095
N420 Z-0.676 F16.731
N425 X14.468 Z-0.6791 F50.196
N430 Z-0.625
N435 X14.093
N440 Z-0.681 F16.731
N445 X13.466 Z-0.684 F50.196
N450 Z-0.625
N455 X13.091
N460 Z-0.6859 F16.731
N465 X12.4641 Z-0.6889 F50.196
N470 Z-0.625
N475 X12.0891
N480 Z-0.6908 F16.731
N485 X11.4621 Z-0.6938 F50.196
N490 Z-0.625
N495 X11.0871
N500 Z-0.6957 F16.731
N505 X10.4601 Z-0.6988 F50.196
N510 Z-0.625
N515 X10.0851
N520 Z-0.7006 F16.731
N525 X9.4582 Z-0.7037 F50.196
N530 Z-0.625
N535 X9.0832
N540 Z-0.7055 F16.731
N545 X8.4562 Z-0.7086 F50.196
N550 Z-0.625
N555 X8.0812
N560 Z-0.7104 F16.731
N565 X7.4542 Z-0.7135 F50.196
N570 Z-0.625
N575 X7.0792
N580 Z-0.7153 F16.731
N585 X6.4523 Z-0.7184 F50.196
N590 Z-0.625
N595 X6.0773
N600 Z-0.7202 F16.731
N605 X5.4503 Z-0.7233 F50.196
N610 Z-0.625
N615 X5.0753
N620 Z-0.7251 F16.731
N625 X4.4483 Z-0.7282 F50.196
N630 Z-0.625
N635 X4.0733
N640 Z-0.73 F16.731
N645 X3.4464 Z-0.7331 F50.196
N650 Z-0.625
N655 X3.0714
N660 Z-0.735 F16.731
N665 X2.4444 Z-0.738 F50.196
N670 Z-0.625
N675 X2.0694
N680 Z-0.7399 F16.731
N685 X1.4424 Z-0.7429 F50.196
N690 Z-0.625
N695 X1.0674
N700 Z-0.7448 F16.731
N705 X0.4405 Z-0.7478 F50.196
N710 Z-0.625
N715 X0.0655
N720 Z-0.7497 F16.731
N725 X0. Z-0.75 F50.196
N730 X-0.5615 F50.192
N735 Z-0.625
N740 X-0.9365
N745 Z-0.75 F16.731
N750 X-1.5635 F50.192
N755 Z-0.625
N760 X-1.9385
N765 Z-0.75 F16.731
N770 X-2.5655 F50.192
N775 Z-0.625
N780 X-2.9405
N785 Z-0.75 F16.731
N790 X-3.5674 F50.192
N795 Z-0.625
N800 X-3.9424
N805 Z-0.75 F16.731
N810 X-4.5694 F50.192
N815 Z-0.625
N820 X-4.9444
N825 Z-0.75 F16.731
N830 X-5.5714 F50.192
N835 Z-0.625
N840 X-5.9464
N845 Z-0.75 F16.731
N850 X-6.5733 F50.192
N855 Z-0.625
N860 X-6.9483
N865 Z-0.75 F16.731
N870 X-7.5753 F50.192
N875 Z-0.625
N880 X-7.9503
N885 Z-0.75 F16.731
N890 X-8.5773 F50.192
N895 Z-0.625
N900 X-8.9523
N905 Z-0.75 F16.731
N910 X-9.5792 F50.192
N915 Z-0.625
N920 X-9.9542
N925 Z-0.75 F16.731
N930 X-10.5812 F50.192
N935 Z-0.625
N940 X-10.9562
N945 Z-0.75 F16.731
N950 X-11.5832 F50.192
N955 Z-0.625
N960 X-11.9582
N965 Z-0.75 F16.731
N970 X-12.5851 F50.192
N975 Z-0.625
N980 X-12.9601
N985 Z-0.75 F16.731
N990 X-13.5871 F50.192
N995 Z-0.625
N1000 X-13.9621
N1005 Z-0.75 F16.731
N1010 X-14.5891 F50.192
N1015 Z-0.625
N1020 X-14.9641
N1025 Z-0.75 F16.731
N1030 X-15.591 F50.192
N1035 Z-0.625
N1040 X-15.966
N1045 Z-0.75 F16.731
N1050 X-16.593 F50.192
N1055 Z-0.625
N1060 X-16.968
N1065 Z-0.75 F16.731
N1070 X-17.595 F50.192
N1075 Z-0.625
N1080 X-17.7874
N1085 G2 X-17.8499 Y-1.25 I0. J0.0625
N1090 G1 Y-1.1875
N1095 Z-0.75 F16.731
N1100 Y-0.4405 F50.192
N1105 Z-0.625
N1110 Y-0.0655
N1115 Z-0.75 F16.731
N1120 Y0.5615 F50.192
N1125 Z-0.625
N1130 Y0.9365
N1135 Z-0.75 F16.731
N1140 Y1.25 F50.192
N1145 G2 X-17.7874 Y1.3125 I0.0625 J0.
N1150 G1 X-17.4739
N1155 Z-0.625
N1160 X-17.0989
N1165 Z-0.75 F16.731
N1170 X-16.4719 F50.192
N1175 Z-0.625
N1180 X-16.0969
N1185 Z-0.75 F16.731
N1190 X-15.47 F50.192
N1195 Z-0.625
N1200 X-15.095
N1205 Z-0.75 F16.731
N1210 X-14.468 F50.192
N1215 Z-0.625
N1220 X-14.093
N1225 Z-0.75 F16.731
N1230 X-13.466 F50.192
N1235 Z-0.625
N1240 X-13.091
N1245 Z-0.75 F16.731
N1250 X-12.4641 F50.192
N1255 Z-0.625
N1260 X-12.0891
N1265 Z-0.75 F16.731
N1270 X-11.4621 F50.192
N1275 Z-0.625
N1280 X-11.0871
N1285 Z-0.75 F16.731
N1290 X-10.4601 F50.192
N1295 Z-0.625
N1300 X-10.0851
N1305 Z-0.75 F16.731
N1310 X-9.4582 F50.192
N1315 Z-0.625
N1320 X-9.0832
N1325 Z-0.75 F16.731
N1330 X-8.4562 F50.192
N1335 Z-0.625
N1340 X-8.0812
N1345 Z-0.75 F16.731
N1350 X-7.4542 F50.192
N1355 Z-0.625
N1360 X-7.0792
N1365 Z-0.75 F16.731
N1370 X-6.4523 F50.192
N1375 Z-0.625
N1380 X-6.0773
N1385 Z-0.75 F16.731
N1390 X-5.4503 F50.192
N1395 Z-0.625
N1400 X-5.0753
N1405 Z-0.75 F16.731
N1410 X-4.4483 F50.192
N1415 Z-0.625
N1420 X-4.0733
N1425 Z-0.75 F16.731
N1430 X-3.4464 F50.192
N1435 Z-0.625
N1440 X-3.0714
N1445 Z-0.75 F16.731
N1450 X-2.4444 F50.192
N1455 Z-0.625
N1460 X-2.0694
N1465 Z-0.75 F16.731
N1470 X-1.4424 F50.192
N1475 Z-0.625
N1480 X-1.0674
N1485 Z-0.75 F16.731
N1490 X-0.4405 F50.192
N1495 Z-0.625
N1500 X-0.0655
N1505 Z-0.75 F16.731
N1510 X0.5615 F50.192
N1515 Z-0.625
N1520 X0.9365
N1525 Z-0.75 F16.731
N1530 X1.5635 F50.192
N1535 Z-0.625
N1540 X1.9385
N1545 Z-0.75 F16.731
N1550 X2.5655 F50.192
N1555 Z-0.625
N1560 X2.9405
N1565 Z-0.75 F16.731
N1570 X3.5674 F50.192
N1575 Z-0.625
N1580 X3.9424
N1585 Z-0.75 F16.731
N1590 X4.5694 F50.192
N1595 Z-0.625
N1600 X4.9444
N1605 Z-0.75 F16.731
N1610 X5.5714 F50.192
N1615 Z-0.625
N1620 X5.9464
N1625 Z-0.75 F16.731
N1630 X6.5733 F50.192
N1635 Z-0.625
N1640 X6.9483
N1645 Z-0.75 F16.731
N1650 X7.5753 F50.192
N1655 Z-0.625
N1660 X7.9503
N1665 Z-0.75 F16.731
N1670 X8.5773 F50.192
N1675 Z-0.625
N1680 X8.9523
N1685 Z-0.75 F16.731
N1690 X9.5792 F50.192
N1695 Z-0.625
N1700 X9.9542
N1705 Z-0.75 F16.731
N1710 X10.5812 F50.192
N1715 Z-0.625
N1720 X10.9562
N1725 Z-0.75 F16.731
N1730 X11.5832 F50.192
N1735 Z-0.625
N1740 X11.9582
N1745 Z-0.75 F16.731
N1750 X12.5851 F50.192
N1755 Z-0.625
N1760 X12.9601
N1765 Z-0.75 F16.731
N1770 X13.5871 F50.192
N1775 Z-0.625
N1780 X13.9621
N1785 Z-0.75 F16.731
N1790 X14.5891 F50.192
N1795 Z-0.625
N1800 X14.9641
N1805 Z-0.75 F16.731
N1810 X15.591 F50.192
N1815 Z-0.625
N1820 X15.966
N1825 Z-0.75 F16.731
N1830 X16.593 F50.192
N1835 Z-0.625
N1840 X16.968
N1845 Z-0.75 F16.731
N1850 X17.595 F50.192
N1855 Z-0.625
N1860 X17.7874
N1865 G2 X17.8499 Y1.25 I0. J-0.0625
N1870 G1 Y1.1875
N1875 Z-0.75 F16.731
N1880 Y0.4405 F50.192
N1885 Z-0.625
N1890 Y0.0655
N1895 Z-0.75 F16.731
N1900 Y-0.5615 F50.192
N1905 Z-0.625
N1910 Y-0.9365
N1915 Z-0.75 F16.731
N1920 Y-1.25 F50.192
N1925 G2 X17.7874 Y-1.3125 I-0.0625 J0.
N1930 G1 X17.4739
N1935 Z-0.625
N1940 X17.0989
N1945 Z-0.75 F16.731
N1950 X16.4719 F50.192
N1955 Z-0.625
N1960 X16.0969
N1965 Z-0.75 F16.731
N1970 X15.47 F50.192
N1975 Z-0.625
N1980 X15.095
N1985 Z-0.75 F16.731
N1990 X14.468 F50.192
N1995 Z-0.625
N2000 X14.093
N2005 Z-0.75 F16.731
N2010 X13.466 F50.192
N2015 Z-0.625
N2020 X13.091
N2025 Z-0.75 F16.731
N2030 X12.4641 F50.192
N2035 Z-0.625
N2040 X12.0891
N2045 Z-0.75 F16.731
N2050 X11.4621 F50.192
N2055 Z-0.625
N2060 X11.0871
N2065 Z-0.75 F16.731
N2070 X10.4601 F50.192
N2075 Z-0.625
N2080 X10.0851
N2085 Z-0.75 F16.731
N2090 X9.4582 F50.192
N2095 Z-0.625
N2100 X9.0832
N2105 Z-0.75 F16.731
N2110 X8.4562 F50.192
N2115 Z-0.625
N2120 X8.0812
N2125 Z-0.75 F16.731
N2130 X7.4542 F50.192
N2135 Z-0.625
N2140 X7.0792
N2145 Z-0.75 F16.731
N2150 X6.4523 F50.192
N2155 Z-0.625
N2160 X6.0773
N2165 Z-0.75 F16.731
N2170 X5.4503 F50.192
N2175 Z-0.625
N2180 X5.0753
N2185 Z-0.75 F16.731
N2190 X4.4483 F50.192
N2195 Z-0.625
N2200 X4.0733
N2205 Z-0.75 F16.731
N2210 X3.4464 F50.192
N2215 Z-0.625
N2220 X3.0714
N2225 Z-0.75 F16.731
N2230 X2.4444 F50.192
N2235 Z-0.625
N2240 X2.0694
N2245 Z-0.75 F16.731
N2250 X1.4424 F50.192
N2255 Z-0.625
N2260 X1.0674
N2265 Z-0.75 F16.731
N2270 X0.4405 F50.192
N2275 Z-0.625
N2280 X0.0655
N2285 Z-0.75 F16.731
N2290 X0. F50.192
N2295 Z1.
(WHEN USING FUSION FOR PERSONAL USE, THE FEEDRATE OF RAPID)
(MOVES IS REDUCED TO MATCH THE FEEDRATE OF CUTTING MOVES,)
(WHICH CAN INCREASE MACHINING TIME. UNRESTRICTED RAPID MOVES)
(ARE AVAILABLE WITH A FUSION SUBSCRIPTION.)
(2D CONTOUR5)
N2300 G0 X0.7713 Y0.871
N2305 G1 Z0.7 F50.192
N2310 Z0.2
N2315 Z0.025 F16.731
N2320 Z-0.1125
N2325 X0.7716 Z-0.1153 F50.192
N2330 X0.7725 Y0.8712 Z-0.1179
N2335 X0.774 Y0.8714 Z-0.1203
N2340 X0.7759 Y0.8717 Z-0.1223
N2345 X0.7783 Y0.872 Z-0.1238
N2350 X0.7809 Y0.8724 Z-0.1247
N2355 X0.7837 Y0.8728 Z-0.125
N2360 X0.796 Y0.8746
N2365 G3 X0.8066 Y0.8888 I-0.0018 J0.0124
N2370 X0.6186 Y0.8612 I-0.094 J-0.0138
N2375 X0.8066 Y0.8888 I0.094 J0.0138
N2380 X0.7924 Y0.8994 I-0.0124 J-0.0018
N2385 G1 X0.78 Y0.8976
N2390 X0.7773 Y0.8972 Z-0.1247
N2395 X0.7746 Y0.8968 Z-0.1238
N2400 X0.7723 Y0.8964 Z-0.1223
N2405 X0.7703 Y0.8961 Z-0.1203
N2410 X0.7689 Y0.8959 Z-0.1179
N2415 X0.768 Y0.8958 Z-0.1153
N2420 X0.7676 Y0.8957 Z-0.1125
N2425 Z0.3
N2430 X0.7713 Y0.871
N2435 Z0.2
N2440 Z-0.1 F16.731
N2445 Z-0.2375
N2450 X0.7716 Z-0.2403 F50.192
N2455 X0.7725 Y0.8712 Z-0.2429
N2460 X0.774 Y0.8714 Z-0.2453
N2465 X0.7759 Y0.8717 Z-0.2473
N2470 X0.7783 Y0.872 Z-0.2488
N2475 X0.7809 Y0.8724 Z-0.2497
N2480 X0.7837 Y0.8728 Z-0.25
N2485 X0.796 Y0.8746
N2490 G3 X0.8066 Y0.8888 I-0.0018 J0.0124
N2495 X0.6186 Y0.8612 I-0.094 J-0.0138
N2500 X0.8066 Y0.8888 I0.094 J0.0138
N2505 X0.7924 Y0.8994 I-0.0124 J-0.0018
N2510 G1 X0.78 Y0.8976
N2515 X0.7773 Y0.8972 Z-0.2497
N2520 X0.7746 Y0.8968 Z-0.2488
N2525 X0.7723 Y0.8964 Z-0.2473
N2530 X0.7703 Y0.8961 Z-0.2453
N2535 X0.7689 Y0.8959 Z-0.2429
N2540 X0.768 Y0.8958 Z-0.2403
N2545 X0.7676 Y0.8957 Z-0.2375
N2550 Z0.3
N2555 X0.7713 Y0.871
N2560 Z0.2
N2565 Z-0.225 F16.731
N2570 Z-0.3625
N2575 X0.7716 Z-0.3653 F50.192
N2580 X0.7725 Y0.8712 Z-0.3679
N2585 X0.774 Y0.8714 Z-0.3703
N2590 X0.7759 Y0.8717 Z-0.3723
N2595 X0.7783 Y0.872 Z-0.3738
N2600 X0.7809 Y0.8724 Z-0.3747
N2605 X0.7837 Y0.8728 Z-0.375
N2610 X0.796 Y0.8746
N2615 G3 X0.8066 Y0.8888 I-0.0018 J0.0124
N2620 X0.6186 Y0.8612 I-0.094 J-0.0138
N2625 X0.8066 Y0.8888 I0.094 J0.0138
N2630 X0.7924 Y0.8994 I-0.0124 J-0.0018
N2635 G1 X0.78 Y0.8976
N2640 X0.7773 Y0.8972 Z-0.3747
N2645 X0.7746 Y0.8968 Z-0.3738
N2650 X0.7723 Y0.8964 Z-0.3723
N2655 X0.7703 Y0.8961 Z-0.3703
N2660 X0.7689 Y0.8959 Z-0.3679
N2665 X0.768 Y0.8958 Z-0.3653
N2670 X0.7676 Y0.8957 Z-0.3625
N2675 Z0.3
N2680 X0.7713 Y0.871
N2685 Z0.2
N2690 Z-0.35 F16.731
N2695 Z-0.4875
N2700 X0.7716 Z-0.4903 F50.192
N2705 X0.7725 Y0.8712 Z-0.4929
N2710 X0.774 Y0.8714 Z-0.4953
N2715 X0.7759 Y0.8717 Z-0.4973
N2720 X0.7783 Y0.872 Z-0.4988
N2725 X0.7809 Y0.8724 Z-0.4997
N2730 X0.7837 Y0.8728 Z-0.5
N2735 X0.796 Y0.8746
N2740 G3 X0.8066 Y0.8888 I-0.0018 J0.0124
N2745 X0.6186 Y0.8612 I-0.094 J-0.0138
N2750 X0.8066 Y0.8888 I0.094 J0.0138
N2755 X0.7924 Y0.8994 I-0.0124 J-0.0018
N2760 G1 X0.78 Y0.8976
N2765 X0.7773 Y0.8972 Z-0.4997
N2770 X0.7746 Y0.8968 Z-0.4988
N2775 X0.7723 Y0.8964 Z-0.4973
N2780 X0.7703 Y0.8961 Z-0.4953
N2785 X0.7689 Y0.8959 Z-0.4929
N2790 X0.768 Y0.8958 Z-0.4903
N2795 X0.7676 Y0.8957 Z-0.4875
N2800 Z0.3
N2805 X0.7713 Y0.871
N2810 Z0.2
N2815 Z-0.475 F16.731
N2820 Z-0.6125
N2825 X0.7716 Z-0.6153 F50.192
N2830 X0.7725 Y0.8712 Z-0.6179
N2835 X0.774 Y0.8714 Z-0.6203
N2840 X0.7759 Y0.8717 Z-0.6223
N2845 X0.7783 Y0.872 Z-0.6238
N2850 X0.7809 Y0.8724 Z-0.6247
N2855 X0.7837 Y0.8728 Z-0.625
N2860 X0.796 Y0.8746
N2865 G3 X0.8066 Y0.8888 I-0.0018 J0.0124
N2870 X0.6186 Y0.8612 I-0.094 J-0.0138
N2875 X0.8066 Y0.8888 I0.094 J0.0138
N2880 X0.7924 Y0.8994 I-0.0124 J-0.0018
N2885 G1 X0.78 Y0.8976
N2890 X0.7773 Y0.8972 Z-0.6247
N2895 X0.7746 Y0.8968 Z-0.6238
N2900 X0.7723 Y0.8964 Z-0.6223
N2905 X0.7703 Y0.8961 Z-0.6203
N2910 X0.7689 Y0.8959 Z-0.6179
N2915 X0.768 Y0.8958 Z-0.6153
N2920 X0.7676 Y0.8957 Z-0.6125
N2925 Z0.3
N2930 X0.7713 Y0.871
N2935 Z0.2
N2940 Z-0.6 F16.731
N2945 Z-0.7375
N2950 X0.7716 Z-0.7403 F50.192
N2955 X0.7725 Y0.8712 Z-0.7429
N2960 X0.774 Y0.8714 Z-0.7453
N2965 X0.7759 Y0.8717 Z-0.7473
N2970 X0.7783 Y0.872 Z-0.7488
N2975 X0.7809 Y0.8724 Z-0.7497
N2980 X0.7837 Y0.8728 Z-0.75
N2985 X0.796 Y0.8746
N2990 G3 X0.8066 Y0.8888 I-0.0018 J0.0124
N2995 X0.6186 Y0.8612 I-0.094 J-0.0138
N3000 X0.8066 Y0.8888 I0.094 J0.0138
N3005 X0.7924 Y0.8994 I-0.0124 J-0.0018
N3010 G1 X0.78 Y0.8976
N3015 X0.7773 Y0.8972 Z-0.7497
N3020 X0.7746 Y0.8968 Z-0.7488
N3025 X0.7723 Y0.8964 Z-0.7473
N3030 X0.7703 Y0.8961 Z-0.7453
N3035 X0.7689 Y0.8959 Z-0.7429
N3040 X0.768 Y0.8958 Z-0.7403
N3045 X0.7676 Y0.8957 Z-0.7375
N3050 Z0.3
N3055 X-0.6551 Y0.8625
N3060 Z0.2
N3065 Z0.025 F16.731
N3070 Z-0.1125
N3075 G18 G2 X-0.6426 Z-0.125 I0.0125 K0. F50.192
N3080 G1 X-0.6301
N3085 G17 G3 X-0.6176 Y0.875 I0. J0.0125
N3090 X-0.8076 I-0.095 J0.
N3095 X-0.6176 I0.095 J0.
N3100 X-0.6301 Y0.8875 I-0.0125 J0.
N3105 G1 X-0.6426
N3110 G18 G3 X-0.6551 Z-0.1125 I0. K0.0125
N3115 G1 Z0.3
N3120 Y0.8625
N3125 Z0.2
N3130 Z-0.1 F16.731
N3135 Z-0.2375
N3140 G2 X-0.6426 Z-0.25 I0.0125 K0. F50.192
N3145 G1 X-0.6301
N3150 G17 G3 X-0.6176 Y0.875 I0. J0.0125
N3155 X-0.8076 I-0.095 J0.
N3160 X-0.6176 I0.095 J0.
N3165 X-0.6301 Y0.8875 I-0.0125 J0.
N3170 G1 X-0.6426
N3175 G18 G3 X-0.6551 Z-0.2375 I0. K0.0125
N3180 G1 Z0.3
N3185 Y0.8625
N3190 Z0.2
N3195 Z-0.225 F16.731
N3200 Z-0.3625
N3205 G2 X-0.6426 Z-0.375 I0.0125 K0. F50.192
N3210 G1 X-0.6301
N3215 G17 G3 X-0.6176 Y0.875 I0. J0.0125
N3220 X-0.8076 I-0.095 J0.
N3225 X-0.6176 I0.095 J0.
N3230 X-0.6301 Y0.8875 I-0.0125 J0.
N3235 G1 X-0.6426
N3240 G18 G3 X-0.6551 Z-0.3625 I0. K0.0125
N3245 G1 Z0.3
N3250 Y0.8625
N3255 Z0.2
N3260 Z-0.35 F16.731
N3265 Z-0.4875
N3270 G2 X-0.6426 Z-0.5 I0.0125 K0. F50.192
N3275 G1 X-0.6301
N3280 G17 G3 X-0.6176 Y0.875 I0. J0.0125
N3285 X-0.8076 I-0.095 J0.
N3290 X-0.6176 I0.095 J0.
N3295 X-0.6301 Y0.8875 I-0.0125 J0.
N3300 G1 X-0.6426
N3305 G18 G3 X-0.6551 Z-0.4875 I0. K0.0125
N3310 G1 Z0.3
N3315 Y0.8625
N3320 Z0.2
N3325 Z-0.475 F16.731
N3330 Z-0.6125
N3335 G2 X-0.6426 Z-0.625 I0.0125 K0. F50.192
N3340 G1 X-0.6301
N3345 G17 G3 X-0.6176 Y0.875 I0. J0.0125
N3350 X-0.8076 I-0.095 J0.
N3355 X-0.6176 I0.095 J0.
N3360 X-0.6301 Y0.8875 I-0.0125 J0.
N3365 G1 X-0.6426
N3370 G18 G3 X-0.6551 Z-0.6125 I0. K0.0125
N3375 G1 Z0.3
N3380 Y0.8625
N3385 Z0.2
N3390 Z-0.6 F16.731
N3395 Z-0.7375
N3400 G2 X-0.6426 Z-0.75 I0.0125 K0. F50.192
N3405 G1 X-0.6301
N3410 G17 G3 X-0.6176 Y0.875 I0. J0.0125
N3415 X-0.8076 I-0.095 J0.
N3420 X-0.6176 I0.095 J0.
N3425 X-0.6301 Y0.8875 I-0.0125 J0.
N3430 G1 X-0.6426
N3435 G18 G3 X-0.6551 Z-0.7375 I0. K0.0125
N3440 G1 Z0.3
N3445 X-2.2287 Y0.871
N3450 Z0.2
N3455 Z0.025 F16.731
N3460 Z-0.1125
N3465 X-2.2284 Z-0.1153 F50.192
N3470 X-2.2275 Y0.8712 Z-0.1179
N3475 X-2.226 Y0.8714 Z-0.1203
N3480 X-2.2241 Y0.8717 Z-0.1223
N3485 X-2.2217 Y0.872 Z-0.1238
N3490 X-2.2191 Y0.8724 Z-0.1247
N3495 X-2.2163 Y0.8728 Z-0.125
N3500 X-2.204 Y0.8746
N3505 G17 G3 X-2.1934 Y0.8888 I-0.0018 J0.0124
N3510 X-2.3814 Y0.8612 I-0.094 J-0.0138
N3515 X-2.1934 Y0.8888 I0.094 J0.0138
N3520 X-2.2076 Y0.8994 I-0.0124 J-0.0018
N3525 G1 X-2.22 Y0.8976
N3530 X-2.2227 Y0.8972 Z-0.1247
N3535 X-2.2254 Y0.8968 Z-0.1238
N3540 X-2.2277 Y0.8964 Z-0.1223
N3545 X-2.2297 Y0.8961 Z-0.1203
N3550 X-2.2311 Y0.8959 Z-0.1179
N3555 X-2.232 Y0.8958 Z-0.1153
N3560 X-2.2324 Y0.8957 Z-0.1125
N3565 Z0.3
N3570 X-2.2287 Y0.871
N3575 Z0.2
N3580 Z-0.1 F16.731
N3585 Z-0.2375
N3590 X-2.2284 Z-0.2403 F50.192
N3595 X-2.2275 Y0.8712 Z-0.2429
N3600 X-2.226 Y0.8714 Z-0.2453
N3605 X-2.2241 Y0.8717 Z-0.2473
N3610 X-2.2217 Y0.872 Z-0.2488
N3615 X-2.2191 Y0.8724 Z-0.2497
N3620 X-2.2163 Y0.8728 Z-0.25
N3625 X-2.204 Y0.8746
N3630 G3 X-2.1934 Y0.8888 I-0.0018 J0.0124
N3635 X-2.3814 Y0.8612 I-0.094 J-0.0138
N3640 X-2.1934 Y0.8888 I0.094 J0.0138
N3645 X-2.2076 Y0.8994 I-0.0124 J-0.0018
N3650 G1 X-2.22 Y0.8976
N3655 X-2.2227 Y0.8972 Z-0.2497
N3660 X-2.2254 Y0.8968 Z-0.2488
N3665 X-2.2277 Y0.8964 Z-0.2473
N3670 X-2.2297 Y0.8961 Z-0.2453
N3675 X-2.2311 Y0.8959 Z-0.2429
N3680 X-2.232 Y0.8958 Z-0.2403
N3685 X-2.2324 Y0.8957 Z-0.2375
N3690 Z0.3
N3695 X-2.2287 Y0.871
N3700 Z0.2
N3705 Z-0.225 F16.731
N3710 Z-0.3625
N3715 X-2.2284 Z-0.3653 F50.192
N3720 X-2.2275 Y0.8712 Z-0.3679
N3725 X-2.226 Y0.8714 Z-0.3703
N3730 X-2.2241 Y0.8717 Z-0.3723
N3735 X-2.2217 Y0.872 Z-0.3738
N3740 X-2.2191 Y0.8724 Z-0.3747
N3745 X-2.2163 Y0.8728 Z-0.375
N3750 X-2.204 Y0.8746
N3755 G3 X-2.1934 Y0.8888 I-0.0018 J0.0124
N3760 X-2.3814 Y0.8612 I-0.094 J-0.0138
N3765 X-2.1934 Y0.8888 I0.094 J0.0138
N3770 X-2.2076 Y0.8994 I-0.0124 J-0.0018
N3775 G1 X-2.22 Y0.8976
N3780 X-2.2227 Y0.8972 Z-0.3747
N3785 X-2.2254 Y0.8968 Z-0.3738
N3790 X-2.2277 Y0.8964 Z-0.3723
N3795 X-2.2297 Y0.8961 Z-0.3703
N3800 X-2.2311 Y0.8959 Z-0.3679
N3805 X-2.232 Y0.8958 Z-0.3653
N3810 X-2.2324 Y0.8957 Z-0.3625
N3815 Z0.3
N3820 X-2.2287 Y0.871
N3825 Z0.2
N3830 Z-0.35 F16.731
N3835 Z-0.4875
N3840 X-2.2284 Z-0.4903 F50.192
N3845 X-2.2275 Y0.8712 Z-0.4929
N3850 X-2.226 Y0.8714 Z-0.4953
N3855 X-2.2241 Y0.8717 Z-0.4973
N3860 X-2.2217 Y0.872 Z-0.4988
N3865 X-2.2191 Y0.8724 Z-0.4997
N3870 X-2.2163 Y0.8728 Z-0.5
N3875 X-2.204 Y0.8746
N3880 G3 X-2.1934 Y0.8888 I-0.0018 J0.0124
N3885 X-2.3814 Y0.8612 I-0.094 J-0.0138
N3890 X-2.1934 Y0.8888 I0.094 J0.0138
N3895 X-2.2076 Y0.8994 I-0.0124 J-0.0018
N3900 G1 X-2.22 Y0.8976
N3905 X-2.2227 Y0.8972 Z-0.4997
N3910 X-2.2254 Y0.8968 Z-0.4988
N3915 X-2.2277 Y0.8964 Z-0.4973
N3920 X-2.2297 Y0.8961 Z-0.4953
N3925 X-2.2311 Y0.8959 Z-0.4929
N3930 X-2.232 Y0.8958 Z-0.4903
N3935 X-2.2324 Y0.8957 Z-0.4875
N3940 Z0.3
N3945 X-2.2287 Y0.871
N3950 Z0.2
N3955 Z-0.475 F16.731
N3960 Z-0.6125
N3965 X-2.2284 Z-0.6153 F50.192
N3970 X-2.2275 Y0.8712 Z-0.6179
N3975 X-2.226 Y0.8714 Z-0.6203
N3980 X-2.2241 Y0.8717 Z-0.6223
N3985 X-2.2217 Y0.872 Z-0.6238
N3990 X-2.2191 Y0.8724 Z-0.6247
N3995 X-2.2163 Y0.8728 Z-0.625
N4000 X-2.204 Y0.8746
N4005 G3 X-2.1934 Y0.8888 I-0.0018 J0.0124
N4010 X-2.3814 Y0.8612 I-0.094 J-0.0138
N4015 X-2.1934 Y0.8888 I0.094 J0.0138
N4020 X-2.2076 Y0.8994 I-0.0124 J-0.0018
N4025 G1 X-2.22 Y0.8976
N4030 X-2.2227 Y0.8972 Z-0.6247
N4035 X-2.2254 Y0.8968 Z-0.6238
N4040 X-2.2277 Y0.8964 Z-0.6223
N4045 X-2.2297 Y0.8961 Z-0.6203
N4050 X-2.2311 Y0.8959 Z-0.6179
N4055 X-2.232 Y0.8958 Z-0.6153
N4060 X-2.2324 Y0.8957 Z-0.6125
N4065 Z0.3
N4070 X-2.2287 Y0.871
N4075 Z0.2
N4080 Z-0.6 F16.731
N4085 Z-0.7375
N4090 X-2.2284 Z-0.7403 F50.192
N4095 X-2.2275 Y0.8712 Z-0.7429
N4100 X-2.226 Y0.8714 Z-0.7453
N4105 X-2.2241 Y0.8717 Z-0.7473
N4110 X-2.2217 Y0.872 Z-0.7488
N4115 X-2.2191 Y0.8724 Z-0.7497
N4120 X-2.2163 Y0.8728 Z-0.75
N4125 X-2.204 Y0.8746
N4130 G3 X-2.1934 Y0.8888 I-0.0018 J0.0124
N4135 X-2.3814 Y0.8612 I-0.094 J-0.0138
N4140 X-2.1934 Y0.8888 I0.094 J0.0138
N4145 X-2.2076 Y0.8994 I-0.0124 J-0.0018
N4150 G1 X-2.22 Y0.8976
N4155 X-2.2227 Y0.8972 Z-0.7497
N4160 X-2.2254 Y0.8968 Z-0.7488
N4165 X-2.2277 Y0.8964 Z-0.7473
N4170 X-2.2297 Y0.8961 Z-0.7453
N4175 X-2.2311 Y0.8959 Z-0.7429
N4180 X-2.232 Y0.8958 Z-0.7403
N4185 X-2.2324 Y0.8957 Z-0.7375
N4190 Z0.3
N4195 X-3.6551 Y0.8625
N4200 Z0.2
N4205 Z0.025 F16.731
N4210 Z-0.1125
N4215 G18 G2 X-3.6426 Z-0.125 I0.0125 K0. F50.192
N4220 G1 X-3.6301
N4225 G17 G3 X-3.6176 Y0.875 I0. J0.0125
N4230 X-3.8076 I-0.095 J0.
N4235 X-3.6176 I0.095 J0.
N4240 X-3.6301 Y0.8875 I-0.0125 J0.
N4245 G1 X-3.6426
N4250 G18 G3 X-3.6551 Z-0.1125 I0. K0.0125
N4255 G1 Z0.3
N4260 Y0.8625
N4265 Z0.2
N4270 Z-0.1 F16.731
N4275 Z-0.2375
N4280 G2 X-3.6426 Z-0.25 I0.0125 K0. F50.192
N4285 G1 X-3.6301
N4290 G17 G3 X-3.6176 Y0.875 I0. J0.0125
N4295 X-3.8076 I-0.095 J0.
N4300 X-3.6176 I0.095 J0.
N4305 X-3.6301 Y0.8875 I-0.0125 J0.
N4310 G1 X-3.6426
N4315 G18 G3 X-3.6551 Z-0.2375 I0. K0.0125
N4320 G1 Z0.3
N4325 Y0.8625
N4330 Z0.2
N4335 Z-0.225 F16.731
N4340 Z-0.3625
N4345 G2 X-3.6426 Z-0.375 I0.0125 K0. F50.192
N4350 G1 X-3.6301
N4355 G17 G3 X-3.6176 Y0.875 I0. J0.0125
N4360 X-3.8076 I-0.095 J0.
N4365 X-3.6176 I0.095 J0.
N4370 X-3.6301 Y0.8875 I-0.0125 J0.
N4375 G1 X-3.6426
N4380 G18 G3 X-3.6551 Z-0.3625 I0. K0.0125
N4385 G1 Z0.3
N4390 Y0.8625
N4395 Z0.2
N4400 Z-0.35 F16.731
N4405 Z-0.4875
N4410 G2 X-3.6426 Z-0.5 I0.0125 K0. F50.192
N4415 G1 X-3.6301
N4420 G17 G3 X-3.6176 Y0.875 I0. J0.0125
N4425 X-3.8076 I-0.095 J0.
N4430 X-3.6176 I0.095 J0.
N4435 X-3.6301 Y0.8875 I-0.0125 J0.
N4440 G1 X-3.6426
N4445 G18 G3 X-3.6551 Z-0.4875 I0. K0.0125
N4450 G1 Z0.3
N4455 Y0.8625
N4460 Z0.2
N4465 Z-0.475 F16.731
N4470 Z-0.6125
N4475 G2 X-3.6426 Z-0.625 I0.0125 K0. F50.192
N4480 G1 X-3.6301
N4485 G17 G3 X-3.6176 Y0.875 I0. J0.0125
N4490 X-3.8076 I-0.095 J0.
N4495 X-3.6176 I0.095 J0.
N4500 X-3.6301 Y0.8875 I-0.0125 J0.
N4505 G1 X-3.6426
N4510 G18 G3 X-3.6551 Z-0.6125 I0. K0.0125
N4515 G1 Z0.3
N4520 Y0.8625
N4525 Z0.2
N4530 Z-0.6 F16.731
N4535 Z-0.7375
N4540 G2 X-3.6426 Z-0.75 I0.0125 K0. F50.192
N4545 G1 X-3.6301
N4550 G17 G3 X-3.6176 Y0.875 I0. J0.0125
N4555 X-3.8076 I-0.095 J0.
N4560 X-3.6176 I0.095 J0.
N4565 X-3.6301 Y0.8875 I-0.0125 J0.
N4570 G1 X-3.6426
N4575 G18 G3 X-3.6551 Z-0.7375 I0. K0.0125
N4580 G1 Z0.3
N4585 X-5.2287 Y0.871
N4590 Z0.2
N4595 Z0.025 F16.731
N4600 Z-0.1125
N4605 X-5.2284 Z-0.1153 F50.192
N4610 X-5.2275 Y0.8712 Z-0.1179
N4615 X-5.226 Y0.8714 Z-0.1203
N4620 X-5.2241 Y0.8717 Z-0.1223
N4625 X-5.2217 Y0.872 Z-0.1238
N4630 X-5.2191 Y0.8724 Z-0.1247
N4635 X-5.2163 Y0.8728 Z-0.125
N4640 X-5.204 Y0.8746
N4645 G17 G3 X-5.1934 Y0.8888 I-0.0018 J0.0124
N4650 X-5.3814 Y0.8612 I-0.094 J-0.0138
N4655 X-5.1934 Y0.8888 I0.094 J0.0138
N4660 X-5.2076 Y0.8994 I-0.0124 J-0.0018
N4665 G1 X-5.22 Y0.8976
N4670 X-5.2227 Y0.8972 Z-0.1247
N4675 X-5.2254 Y0.8968 Z-0.1238
N4680 X-5.2277 Y0.8964 Z-0.1223
N4685 X-5.2297 Y0.8961 Z-0.1203
N4690 X-5.2311 Y0.8959 Z-0.1179
N4695 X-5.232 Y0.8958 Z-0.1153
N4700 X-5.2324 Y0.8957 Z-0.1125
N4705 Z0.3
N4710 X-5.2287 Y0.871
N4715 Z0.2
N4720 Z-0.1 F16.731
N4725 Z-0.2375
N4730 X-5.2284 Z-0.2403 F50.192
N4735 X-5.2275 Y0.8712 Z-0.2429
N4740 X-5.226 Y0.8714 Z-0.2453
N4745 X-5.2241 Y0.8717 Z-0.2473
N4750 X-5.2217 Y0.872 Z-0.2488
N4755 X-5.2191 Y0.8724 Z-0.2497
N4760 X-5.2163 Y0.8728 Z-0.25
N4765 X-5.204 Y0.8746
N4770 G3 X-5.1934 Y0.8888 I-0.0018 J0.0124
N4775 X-5.3814 Y0.8612 I-0.094 J-0.0138
N4780 X-5.1934 Y0.8888 I0.094 J0.0138
N4785 X-5.2076 Y0.8994 I-0.0124 J-0.0018
N4790 G1 X-5.22 Y0.8976
N4795 X-5.2227 Y0.8972 Z-0.2497
N4800 X-5.2254 Y0.8968 Z-0.2488
N4805 X-5.2277 Y0.8964 Z-0.2473
N4810 X-5.2297 Y0.8961 Z-0.2453
N4815 X-5.2311 Y0.8959 Z-0.2429
N4820 X-5.232 Y0.8958 Z-0.2403
N4825 X-5.2324 Y0.8957 Z-0.2375
N4830 Z0.3
N4835 X-5.2287 Y0.871
N4840 Z0.2
N4845 Z-0.225 F16.731
N4850 Z-0.3625
N4855 X-5.2284 Z-0.3653 F50.192
N4860 X-5.2275 Y0.8712 Z-0.3679
N4865 X-5.226 Y0.8714 Z-0.3703
N4870 X-5.2241 Y0.8717 Z-0.3723
N4875 X-5.2217 Y0.872 Z-0.3738
N4880 X-5.2191 Y0.8724 Z-0.3747
N4885 X-5.2163 Y0.8728 Z-0.375
N4890 X-5.204 Y0.8746
N4895 G3 X-5.1934 Y0.8888 I-0.0018 J0.0124
N4900 X-5.3814 Y0.8612 I-0.094 J-0.0138
N4905 X-5.1934 Y0.8888 I0.094 J0.0138
N4910 X-5.2076 Y0.8994 I-0.0124 J-0.0018
N4915 G1 X-5.22 Y0.8976
N4920 X-5.2227 Y0.8972 Z-0.3747
N4925 X-5.2254 Y0.8968 Z-0.3738
N4930 X-5.2277 Y0.8964 Z-0.3723
N4935 X-5.2297 Y0.8961 Z-0.3703
N4940 X-5.2311 Y0.8959 Z-0.3679
N4945 X-5.232 Y0.8958 Z-0.3653
N4950 X-5.2324 Y0.8957 Z-0.3625
N4955 Z0.3
N4960 X-5.2287 Y0.871
N4965 Z0.2
N4970 Z-0.35 F16.731
N4975 Z-0.4875
N4980 X-5.2284 Z-0.4903 F50.192
N4985 X-5.2275 Y0.8712 Z-0.4929
N4990 X-5.226 Y0.8714 Z-0.4953
N4995 X-5.2241 Y0.8717 Z-0.4973
N5000 X-5.2217 Y0.872 Z-0.4988
N5005 X-5.2191 Y0.8724 Z-0.4997
N5010 X-5.2163 Y0.8728 Z-0.5
N5015 X-5.204 Y0.8746
N5020 G3 X-5.1934 Y0.8888 I-0.0018 J0.0124
N5025 X-5.3814 Y0.8612 I-0.094 J-0.0138
N5030 X-5.1934 Y0.8888 I0.094 J0.0138
N5035 X-5.2076 Y0.8994 I-0.0124 J-0.0018
N5040 G1 X-5.22 Y0.8976
N5045 X-5.2227 Y0.8972 Z-0.4997
N5050 X-5.2254 Y0.8968 Z-0.4988
N5055 X-5.2277 Y0.8964 Z-0.4973
N5060 X-5.2297 Y0.8961 Z-0.4953
N5065 X-5.2311 Y0.8959 Z-0.4929
N5070 X-5.232 Y0.8958 Z-0.4903
N5075 X-5.2324 Y0.8957 Z-0.4875
N5080 Z0.3
N5085 X-5.2287 Y0.871
N5090 Z0.2
N5095 Z-0.475 F16.731
N5100 Z-0.6125
N5105 X-5.2284 Z-0.6153 F50.192
N5110 X-5.2275 Y0.8712 Z-0.6179
N5115 X-5.226 Y0.8714 Z-0.6203
N5120 X-5.2241 Y0.8717 Z-0.6223
N5125 X-5.2217 Y0.872 Z-0.6238
N5130 X-5.2191 Y0.8724 Z-0.6247
N5135 X-5.2163 Y0.8728 Z-0.625
N5140 X-5.204 Y0.8746
N5145 G3 X-5.1934 Y0.8888 I-0.0018 J0.0124
N5150 X-5.3814 Y0.8612 I-0.094 J-0.0138
N5155 X-5.1934 Y0.8888 I0.094 J0.0138
N5160 X-5.2076 Y0.8994 I-0.0124 J-0.0018
N5165 G1 X-5.22 Y0.8976
N5170 X-5.2227 Y0.8972 Z-0.6247
N5175 X-5.2254 Y0.8968 Z-0.6238
N5180 X-5.2277 Y0.8964 Z-0.6223
N5185 X-5.2297 Y0.8961 Z-0.6203
N5190 X-5.2311 Y0.8959 Z-0.6179
N5195 X-5.232 Y0.8958 Z-0.6153
N5200 X-5.2324 Y0.8957 Z-0.6125
N5205 Z0.3
N5210 X-5.2287 Y0.871
N5215 Z0.2
N5220 Z-0.6 F16.731
N5225 Z-0.7375
N5230 X-5.2284 Z-0.7403 F50.192
N5235 X-5.2275 Y0.8712 Z-0.7429
N5240 X-5.226 Y0.8714 Z-0.7453
N5245 X-5.2241 Y0.8717 Z-0.7473
N5250 X-5.2217 Y0.872 Z-0.7488
N5255 X-5.2191 Y0.8724 Z-0.7497
N5260 X-5.2163 Y0.8728 Z-0.75
N5265 X-5.204 Y0.8746
N5270 G3 X-5.1934 Y0.8888 I-0.0018 J0.0124
N5275 X-5.3814 Y0.8612 I-0.094 J-0.0138
N5280 X-5.1934 Y0.8888 I0.094 J0.0138
N5285 X-5.2076 Y0.8994 I-0.0124 J-0.0018
N5290 G1 X-5.22 Y0.8976
N5295 X-5.2227 Y0.8972 Z-0.7497
N5300 X-5.2254 Y0.8968 Z-0.7488
N5305 X-5.2277 Y0.8964 Z-0.7473
N5310 X-5.2297 Y0.8961 Z-0.7453
N5315 X-5.2311 Y0.8959 Z-0.7429
N5320 X-5.232 Y0.8958 Z-0.7403
N5325 X-5.2324 Y0.8957 Z-0.7375
N5330 Z0.3
N5335 X-6.6551 Y0.8625
N5340 Z0.2
N5345 Z0.025 F16.731
N5350 Z-0.1125
N5355 G18 G2 X-6.6426 Z-0.125 I0.0125 K0. F50.192
N5360 G1 X-6.6301
N5365 G17 G3 X-6.6176 Y0.875 I0. J0.0125
N5370 X-6.8076 I-0.095 J0.
N5375 X-6.6176 I0.095 J0.
N5380 X-6.6301 Y0.8875 I-0.0125 J0.
N5385 G1 X-6.6426
N5390 G18 G3 X-6.6551 Z-0.1125 I0. K0.0125
N5395 G1 Z0.3
N5400 Y0.8625
N5405 Z0.2
N5410 Z-0.1 F16.731
N5415 Z-0.2375
N5420 G2 X-6.6426 Z-0.25 I0.0125 K0. F50.192
N5425 G1 X-6.6301
N5430 G17 G3 X-6.6176 Y0.875 I0. J0.0125
N5435 X-6.8076 I-0.095 J0.
N5440 X-6.6176 I0.095 J0.
N5445 X-6.6301 Y0.8875 I-0.0125 J0.
N5450 G1 X-6.6426
N5455 G18 G3 X-6.6551 Z-0.2375 I0. K0.0125
N5460 G1 Z0.3
N5465 Y0.8625
N5470 Z0.2
N5475 Z-0.225 F16.731
N5480 Z-0.3625
N5485 G2 X-6.6426 Z-0.375 I0.0125 K0. F50.192
N5490 G1 X-6.6301
N5495 G17 G3 X-6.6176 Y0.875 I0. J0.0125
N5500 X-6.8076 I-0.095 J0.
N5505 X-6.6176 I0.095 J0.
N5510 X-6.6301 Y0.8875 I-0.0125 J0.
N5515 G1 X-6.6426
N5520 G18 G3 X-6.6551 Z-0.3625 I0. K0.0125
N5525 G1 Z0.3
N5530 Y0.8625
N5535 Z0.2
N5540 Z-0.35 F16.731
N5545 Z-0.4875
N5550 G2 X-6.6426 Z-0.5 I0.0125 K0. F50.192
N5555 G1 X-6.6301
N5560 G17 G3 X-6.6176 Y0.875 I0. J0.0125
N5565 X-6.8076 I-0.095 J0.
N5570 X-6.6176 I0.095 J0.
N5575 X-6.6301 Y0.8875 I-0.0125 J0.
N5580 G1 X-6.6426
N5585 G18 G3 X-6.6551 Z-0.4875 I0. K0.0125
N5590 G1 Z0.3
N5595 Y0.8625
N5600 Z0.2
N5605 Z-0.475 F16.731
N5610 Z-0.6125
N5615 G2 X-6.6426 Z-0.625 I0.0125 K0. F50.192
N5620 G1 X-6.6301
N5625 G17 G3 X-6.6176 Y0.875 I0. J0.0125
N5630 X-6.8076 I-0.095 J0.
N5635 X-6.6176 I0.095 J0.
N5640 X-6.6301 Y0.8875 I-0.0125 J0.
N5645 G1 X-6.6426
N5650 G18 G3 X-6.6551 Z-0.6125 I0. K0.0125
N5655 G1 Z0.3
N5660 Y0.8625
N5665 Z0.2
N5670 Z-0.6 F16.731
N5675 Z-0.7375
N5680 G2 X-6.6426 Z-0.75 I0.0125 K0. F50.192
N5685 G1 X-6.6301
N5690 G17 G3 X-6.6176 Y0.875 I0. J0.0125
N5695 X-6.8076 I-0.095 J0.
N5700 X-6.6176 I0.095 J0.
N5705 X-6.6301 Y0.8875 I-0.0125 J0.
N5710 G1 X-6.6426
N5715 G18 G3 X-6.6551 Z-0.7375 I0. K0.0125
N5720 G1 Z0.3
N5725 X-8.2299 Y0.8625
N5730 Z0.2
N5735 Z0.025 F16.731
N5740 Z-0.1125
N5745 G2 X-8.2174 Z-0.125 I0.0125 K0. F50.192
N5750 G1 X-8.2049
N5755 G17 G3 X-8.1924 Y0.875 I0. J0.0125
N5760 X-8.3824 I-0.095 J0.
N5765 X-8.1924 I0.095 J0.
N5770 X-8.2049 Y0.8875 I-0.0125 J0.
N5775 G1 X-8.2174
N5780 G18 G3 X-8.2299 Z-0.1125 I0. K0.0125
N5785 G1 Z0.3
N5790 Y0.8625
N5795 Z0.2
N5800 Z-0.1 F16.731
N5805 Z-0.2375
N5810 G2 X-8.2174 Z-0.25 I0.0125 K0. F50.192
N5815 G1 X-8.2049
N5820 G17 G3 X-8.1924 Y0.875 I0. J0.0125
N5825 X-8.3824 I-0.095 J0.
N5830 X-8.1924 I0.095 J0.
N5835 X-8.2049 Y0.8875 I-0.0125 J0.
N5840 G1 X-8.2174
N5845 G18 G3 X-8.2299 Z-0.2375 I0. K0.0125
N5850 G1 Z0.3
N5855 Y0.8625
N5860 Z0.2
N5865 Z-0.225 F16.731
N5870 Z-0.3625
N5875 G2 X-8.2174 Z-0.375 I0.0125 K0. F50.192
N5880 G1 X-8.2049
N5885 G17 G3 X-8.1924 Y0.875 I0. J0.0125
N5890 X-8.3824 I-0.095 J0.
N5895 X-8.1924 I0.095 J0.
N5900 X-8.2049 Y0.8875 I-0.0125 J0.
N5905 G1 X-8.2174
N5910 G18 G3 X-8.2299 Z-0.3625 I0. K0.0125
N5915 G1 Z0.3
N5920 Y0.8625
N5925 Z0.2
N5930 Z-0.35 F16.731
N5935 Z-0.4875
N5940 G2 X-8.2174 Z-0.5 I0.0125 K0. F50.192
N5945 G1 X-8.2049
N5950 G17 G3 X-8.1924 Y0.875 I0. J0.0125
N5955 X-8.3824 I-0.095 J0.
N5960 X-8.1924 I0.095 J0.
N5965 X-8.2049 Y0.8875 I-0.0125 J0.
N5970 G1 X-8.2174
N5975 G18 G3 X-8.2299 Z-0.4875 I0. K0.0125
N5980 G1 Z0.3
N5985 Y0.8625
N5990 Z0.2
N5995 Z-0.475 F16.731
N6000 Z-0.6125
N6005 G2 X-8.2174 Z-0.625 I0.0125 K0. F50.192
N6010 G1 X-8.2049
N6015 G17 G3 X-8.1924 Y0.875 I0. J0.0125
N6020 X-8.3824 I-0.095 J0.
N6025 X-8.1924 I0.095 J0.
N6030 X-8.2049 Y0.8875 I-0.0125 J0.
N6035 G1 X-8.2174
N6040 G18 G3 X-8.2299 Z-0.6125 I0. K0.0125
N6045 G1 Z0.3
N6050 Y0.8625
N6055 Z0.2
N6060 Z-0.6 F16.731
N6065 Z-0.7375
N6070 G2 X-8.2174 Z-0.75 I0.0125 K0. F50.192
N6075 G1 X-8.2049
N6080 G17 G3 X-8.1924 Y0.875 I0. J0.0125
N6085 X-8.3824 I-0.095 J0.
N6090 X-8.1924 I0.095 J0.
N6095 X-8.2049 Y0.8875 I-0.0125 J0.
N6100 G1 X-8.2174
N6105 G18 G3 X-8.2299 Z-0.7375 I0. K0.0125
N6110 G1 Z0.3
N6115 X-9.6551 Y0.8625
N6120 Z0.2
N6125 Z0.025 F16.731
N6130 Z-0.1125
N6135 G2 X-9.6426 Z-0.125 I0.0125 K0. F50.192
N6140 G1 X-9.6301
N6145 G17 G3 X-9.6176 Y0.875 I0. J0.0125
N6150 X-9.8076 I-0.095 J0.
N6155 X-9.6176 I0.095 J0.
N6160 X-9.6301 Y0.8875 I-0.0125 J0.
N6165 G1 X-9.6426
N6170 G18 G3 X-9.6551 Z-0.1125 I0. K0.0125
N6175 G1 Z0.3
N6180 Y0.8625
N6185 Z0.2
N6190 Z-0.1 F16.731
N6195 Z-0.2375
N6200 G2 X-9.6426 Z-0.25 I0.0125 K0. F50.192
N6205 G1 X-9.6301
N6210 G17 G3 X-9.6176 Y0.875 I0. J0.0125
N6215 X-9.8076 I-0.095 J0.
N6220 X-9.6176 I0.095 J0.
N6225 X-9.6301 Y0.8875 I-0.0125 J0.
N6230 G1 X-9.6426
N6235 G18 G3 X-9.6551 Z-0.2375 I0. K0.0125
N6240 G1 Z0.3
N6245 Y0.8625
N6250 Z0.2
N6255 Z-0.225 F16.731
N6260 Z-0.3625
N6265 G2 X-9.6426 Z-0.375 I0.0125 K0. F50.192
N6270 G1 X-9.6301
N6275 G17 G3 X-9.6176 Y0.875 I0. J0.0125
N6280 X-9.8076 I-0.095 J0.
N6285 X-9.6176 I0.095 J0.
N6290 X-9.6301 Y0.8875 I-0.0125 J0.
N6295 G1 X-9.6426
N6300 G18 G3 X-9.6551 Z-0.3625 I0. K0.0125
N6305 G1 Z0.3
N6310 Y0.8625
N6315 Z0.2
N6320 Z-0.35 F16.731
N6325 Z-0.4875
N6330 G2 X-9.6426 Z-0.5 I0.0125 K0. F50.192
N6335 G1 X-9.6301
N6340 G17 G3 X-9.6176 Y0.875 I0. J0.0125
N6345 X-9.8076 I-0.095 J0.
N6350 X-9.6176 I0.095 J0.
N6355 X-9.6301 Y0.8875 I-0.0125 J0.
N6360 G1 X-9.6426
N6365 G18 G3 X-9.6551 Z-0.4875 I0. K0.0125
N6370 G1 Z0.3
N6375 Y0.8625
N6380 Z0.2
N6385 Z-0.475 F16.731
N6390 Z-0.6125
N6395 G2 X-9.6426 Z-0.625 I0.0125 K0. F50.192
N6400 G1 X-9.6301
N6405 G17 G3 X-9.6176 Y0.875 I0. J0.0125
N6410 X-9.8076 I-0.095 J0.
N6415 X-9.6176 I0.095 J0.
N6420 X-9.6301 Y0.8875 I-0.0125 J0.
N6425 G1 X-9.6426
N6430 G18 G3 X-9.6551 Z-0.6125 I0. K0.0125
N6435 G1 Z0.3
N6440 Y0.8625
N6445 Z0.2
N6450 Z-0.6 F16.731
N6455 Z-0.7375
N6460 G2 X-9.6426 Z-0.75 I0.0125 K0. F50.192
N6465 G1 X-9.6301
N6470 G17 G3 X-9.6176 Y0.875 I0. J0.0125
N6475 X-9.8076 I-0.095 J0.
N6480 X-9.6176 I0.095 J0.
N6485 X-9.6301 Y0.8875 I-0.0125 J0.
N6490 G1 X-9.6426
N6495 G18 G3 X-9.6551 Z-0.7375 I0. K0.0125
N6500 G1 Z0.3
N6505 X-11.2287 Y0.871
N6510 Z0.2
N6515 Z0.025 F16.731
N6520 Z-0.1125
N6525 X-11.2284 Z-0.1153 F50.192
N6530 X-11.2275 Y0.8712 Z-0.1179
N6535 X-11.226 Y0.8714 Z-0.1203
N6540 X-11.2241 Y0.8717 Z-0.1223
N6545 X-11.2217 Y0.872 Z-0.1238
N6550 X-11.2191 Y0.8724 Z-0.1247
N6555 X-11.2163 Y0.8728 Z-0.125
N6560 X-11.204 Y0.8746
N6565 G17 G3 X-11.1934 Y0.8888 I-0.0018 J0.0124
N6570 X-11.3814 Y0.8612 I-0.094 J-0.0138
N6575 X-11.1934 Y0.8888 I0.094 J0.0138
N6580 X-11.2076 Y0.8994 I-0.0124 J-0.0018
N6585 G1 X-11.22 Y0.8976
N6590 X-11.2227 Y0.8972 Z-0.1247
N6595 X-11.2254 Y0.8968 Z-0.1238
N6600 X-11.2277 Y0.8964 Z-0.1223
N6605 X-11.2297 Y0.8961 Z-0.1203
N6610 X-11.2311 Y0.8959 Z-0.1179
N6615 X-11.232 Y0.8958 Z-0.1153
N6620 X-11.2324 Y0.8957 Z-0.1125
N6625 Z0.3
N6630 X-11.2287 Y0.871
N6635 Z0.2
N6640 Z-0.1 F16.731
N6645 Z-0.2375
N6650 X-11.2284 Z-0.2403 F50.192
N6655 X-11.2275 Y0.8712 Z-0.2429
N6660 X-11.226 Y0.8714 Z-0.2453
N6665 X-11.2241 Y0.8717 Z-0.2473
N6670 X-11.2217 Y0.872 Z-0.2488
N6675 X-11.2191 Y0.8724 Z-0.2497
N6680 X-11.2163 Y0.8728 Z-0.25
N6685 X-11.204 Y0.8746
N6690 G3 X-11.1934 Y0.8888 I-0.0018 J0.0124
N6695 X-11.3814 Y0.8612 I-0.094 J-0.0138
N6700 X-11.1934 Y0.8888 I0.094 J0.0138
N6705 X-11.2076 Y0.8994 I-0.0124 J-0.0018
N6710 G1 X-11.22 Y0.8976
N6715 X-11.2227 Y0.8972 Z-0.2497
N6720 X-11.2254 Y0.8968 Z-0.2488
N6725 X-11.2277 Y0.8964 Z-0.2473
N6730 X-11.2297 Y0.8961 Z-0.2453
N6735 X-11.2311 Y0.8959 Z-0.2429
N6740 X-11.232 Y0.8958 Z-0.2403
N6745 X-11.2324 Y0.8957 Z-0.2375
N6750 Z0.3
N6755 X-11.2287 Y0.871
N6760 Z0.2
N6765 Z-0.225 F16.731
N6770 Z-0.3625
N6775 X-11.2284 Z-0.3653 F50.192
N6780 X-11.2275 Y0.8712 Z-0.3679
N6785 X-11.226 Y0.8714 Z-0.3703
N6790 X-11.2241 Y0.8717 Z-0.3723
N6795 X-11.2217 Y0.872 Z-0.3738
N6800 X-11.2191 Y0.8724 Z-0.3747
N6805 X-11.2163 Y0.8728 Z-0.375
N6810 X-11.204 Y0.8746
N6815 G3 X-11.1934 Y0.8888 I-0.0018 J0.0124
N6820 X-11.3814 Y0.8612 I-0.094 J-0.0138
N6825 X-11.1934 Y0.8888 I0.094 J0.0138
N6830 X-11.2076 Y0.8994 I-0.0124 J-0.0018
N6835 G1 X-11.22 Y0.8976
N6840 X-11.2227 Y0.8972 Z-0.3747
N6845 X-11.2254 Y0.8968 Z-0.3738
N6850 X-11.2277 Y0.8964 Z-0.3723
N6855 X-11.2297 Y0.8961 Z-0.3703
N6860 X-11.2311 Y0.8959 Z-0.3679
N6865 X-11.232 Y0.8958 Z-0.3653
N6870 X-11.2324 Y0.8957 Z-0.3625
N6875 Z0.3
N6880 X-11.2287 Y0.871
N6885 Z0.2
N6890 Z-0.35 F16.731
N6895 Z-0.4875
N6900 X-11.2284 Z-0.4903 F50.192
N6905 X-11.2275 Y0.8712 Z-0.4929
N6910 X-11.226 Y0.8714 Z-0.4953
N6915 X-11.2241 Y0.8717 Z-0.4973
N6920 X-11.2217 Y0.872 Z-0.4988
N6925 X-11.2191 Y0.8724 Z-0.4997
N6930 X-11.2163 Y0.8728 Z-0.5
N6935 X-11.204 Y0.8746
N6940 G3 X-11.1934 Y0.8888 I-0.0018 J0.0124
N6945 X-11.3814 Y0.8612 I-0.094 J-0.0138
N6950 X-11.1934 Y0.8888 I0.094 J0.0138
N6955 X-11.2076 Y0.8994 I-0.0124 J-0.0018
N6960 G1 X-11.22 Y0.8976
N6965 X-11.2227 Y0.8972 Z-0.4997
N6970 X-11.2254 Y0.8968 Z-0.4988
N6975 X-11.2277 Y0.8964 Z-0.4973
N6980 X-11.2297 Y0.8961 Z-0.4953
N6985 X-11.2311 Y0.8959 Z-0.4929
N6990 X-11.232 Y0.8958 Z-0.4903
N6995 X-11.2324 Y0.8957 Z-0.4875
N7000 Z0.3
N7005 X-11.2287 Y0.871
N7010 Z0.2
N7015 Z-0.475 F16.731
N7020 Z-0.6125
N7025 X-11.2284 Z-0.6153 F50.192
N7030 X-11.2275 Y0.8712 Z-0.6179
N7035 X-11.226 Y0.8714 Z-0.6203
N7040 X-11.2241 Y0.8717 Z-0.6223
N7045 X-11.2217 Y0.872 Z-0.6238
N7050 X-11.2191 Y0.8724 Z-0.6247
N7055 X-11.2163 Y0.8728 Z-0.625
N7060 X-11.204 Y0.8746
N7065 G3 X-11.1934 Y0.8888 I-0.0018 J0.0124
N7070 X-11.3814 Y0.8612 I-0.094 J-0.0138
N7075 X-11.1934 Y0.8888 I0.094 J0.0138
N7080 X-11.2076 Y0.8994 I-0.0124 J-0.0018
N7085 G1 X-11.22 Y0.8976
N7090 X-11.2227 Y0.8972 Z-0.6247
N7095 X-11.2254 Y0.8968 Z-0.6238
N7100 X-11.2277 Y0.8964 Z-0.6223
N7105 X-11.2297 Y0.8961 Z-0.6203
N7110 X-11.2311 Y0.8959 Z-0.6179
N7115 X-11.232 Y0.8958 Z-0.6153
N7120 X-11.2324 Y0.8957 Z-0.6125
N7125 Z0.3
N7130 X-11.2287 Y0.871
N7135 Z0.2
N7140 Z-0.6 F16.731
N7145 Z-0.7375
N7150 X-11.2284 Z-0.7403 F50.192
N7155 X-11.2275 Y0.8712 Z-0.7429
N7160 X-11.226 Y0.8714 Z-0.7453
N7165 X-11.2241 Y0.8717 Z-0.7473
N7170 X-11.2217 Y0.872 Z-0.7488
N7175 X-11.2191 Y0.8724 Z-0.7497
N7180 X-11.2163 Y0.8728 Z-0.75
N7185 X-11.204 Y0.8746
N7190 G3 X-11.1934 Y0.8888 I-0.0018 J0.0124
N7195 X-11.3814 Y0.8612 I-0.094 J-0.0138
N7200 X-11.1934 Y0.8888 I0.094 J0.0138
N7205 X-11.2076 Y0.8994 I-0.0124 J-0.0018
N7210 G1 X-11.22 Y0.8976
N7215 X-11.2227 Y0.8972 Z-0.7497
N7220 X-11.2254 Y0.8968 Z-0.7488
N7225 X-11.2277 Y0.8964 Z-0.7473
N7230 X-11.2297 Y0.8961 Z-0.7453
N7235 X-11.2311 Y0.8959 Z-0.7429
N7240 X-11.232 Y0.8958 Z-0.7403
N7245 X-11.2324 Y0.8957 Z-0.7375
N7250 Z0.3
N7255 X-12.6551 Y0.8625
N7260 Z0.2
N7265 Z0.025 F16.731
N7270 Z-0.1125
N7275 G18 G2 X-12.6426 Z-0.125 I0.0125 K0. F50.192
N7280 G1 X-12.6301
N7285 G17 G3 X-12.6176 Y0.875 I0. J0.0125
N7290 X-12.8076 I-0.095 J0.
N7295 X-12.6176 I0.095 J0.
N7300 X-12.6301 Y0.8875 I-0.0125 J0.
N7305 G1 X-12.6426
N7310 G18 G3 X-12.6551 Z-0.1125 I0. K0.0125
N7315 G1 Z0.3
N7320 Y0.8625
N7325 Z0.2
N7330 Z-0.1 F16.731
N7335 Z-0.2375
N7340 G2 X-12.6426 Z-0.25 I0.0125 K0. F50.192
N7345 G1 X-12.6301
N7350 G17 G3 X-12.6176 Y0.875 I0. J0.0125
N7355 X-12.8076 I-0.095 J0.
N7360 X-12.6176 I0.095 J0.
N7365 X-12.6301 Y0.8875 I-0.0125 J0.
N7370 G1 X-12.6426
N7375 G18 G3 X-12.6551 Z-0.2375 I0. K0.0125
N7380 G1 Z0.3
N7385 Y0.8625
N7390 Z0.2
N7395 Z-0.225 F16.731
N7400 Z-0.3625
N7405 G2 X-12.6426 Z-0.375 I0.0125 K0. F50.192
N7410 G1 X-12.6301
N7415 G17 G3 X-12.6176 Y0.875 I0. J0.0125
N7420 X-12.8076 I-0.095 J0.
N7425 X-12.6176 I0.095 J0.
N7430 X-12.6301 Y0.8875 I-0.0125 J0.
N7435 G1 X-12.6426
N7440 G18 G3 X-12.6551 Z-0.3625 I0. K0.0125
N7445 G1 Z0.3
N7450 Y0.8625
N7455 Z0.2
N7460 Z-0.35 F16.731
N7465 Z-0.4875
N7470 G2 X-12.6426 Z-0.5 I0.0125 K0. F50.192
N7475 G1 X-12.6301
N7480 G17 G3 X-12.6176 Y0.875 I0. J0.0125
N7485 X-12.8076 I-0.095 J0.
N7490 X-12.6176 I0.095 J0.
N7495 X-12.6301 Y0.8875 I-0.0125 J0.
N7500 G1 X-12.6426
N7505 G18 G3 X-12.6551 Z-0.4875 I0. K0.0125
N7510 G1 Z0.3
N7515 Y0.8625
N7520 Z0.2
N7525 Z-0.475 F16.731
N7530 Z-0.6125
N7535 G2 X-12.6426 Z-0.625 I0.0125 K0. F50.192
N7540 G1 X-12.6301
N7545 G17 G3 X-12.6176 Y0.875 I0. J0.0125
N7550 X-12.8076 I-0.095 J0.
N7555 X-12.6176 I0.095 J0.
N7560 X-12.6301 Y0.8875 I-0.0125 J0.
N7565 G1 X-12.6426
N7570 G18 G3 X-12.6551 Z-0.6125 I0. K0.0125
N7575 G1 Z0.3
N7580 Y0.8625
N7585 Z0.2
N7590 Z-0.6 F16.731
N7595 Z-0.7375
N7600 G2 X-12.6426 Z-0.75 I0.0125 K0. F50.192
N7605 G1 X-12.6301
N7610 G17 G3 X-12.6176 Y0.875 I0. J0.0125
N7615 X-12.8076 I-0.095 J0.
N7620 X-12.6176 I0.095 J0.
N7625 X-12.6301 Y0.8875 I-0.0125 J0.
N7630 G1 X-12.6426
N7635 G18 G3 X-12.6551 Z-0.7375 I0. K0.0125
N7640 G1 Z0.3
N7645 X-14.2299 Y0.8625
N7650 Z0.2
N7655 Z0.025 F16.731
N7660 Z-0.1125
N7665 G2 X-14.2174 Z-0.125 I0.0125 K0. F50.192
N7670 G1 X-14.2049
N7675 G17 G3 X-14.1924 Y0.875 I0. J0.0125
N7680 X-14.3824 I-0.095 J0.
N7685 X-14.1924 I0.095 J0.
N7690 X-14.2049 Y0.8875 I-0.0125 J0.
N7695 G1 X-14.2174
N7700 G18 G3 X-14.2299 Z-0.1125 I0. K0.0125
N7705 G1 Z0.3
N7710 Y0.8625
N7715 Z0.2
N7720 Z-0.1 F16.731
N7725 Z-0.2375
N7730 G2 X-14.2174 Z-0.25 I0.0125 K0. F50.192
N7735 G1 X-14.2049
N7740 G17 G3 X-14.1924 Y0.875 I0. J0.0125
N7745 X-14.3824 I-0.095 J0.
N7750 X-14.1924 I0.095 J0.
N7755 X-14.2049 Y0.8875 I-0.0125 J0.
N7760 G1 X-14.2174
N7765 G18 G3 X-14.2299 Z-0.2375 I0. K0.0125
N7770 G1 Z0.3
N7775 Y0.8625
N7780 Z0.2
N7785 Z-0.225 F16.731
N7790 Z-0.3625
N7795 G2 X-14.2174 Z-0.375 I0.0125 K0. F50.192
N7800 G1 X-14.2049
N7805 G17 G3 X-14.1924 Y0.875 I0. J0.0125
N7810 X-14.3824 I-0.095 J0.
N7815 X-14.1924 I0.095 J0.
N7820 X-14.2049 Y0.8875 I-0.0125 J0.
N7825 G1 X-14.2174
N7830 G18 G3 X-14.2299 Z-0.3625 I0. K0.0125
N7835 G1 Z0.3
N7840 Y0.8625
N7845 Z0.2
N7850 Z-0.35 F16.731
N7855 Z-0.4875
N7860 G2 X-14.2174 Z-0.5 I0.0125 K0. F50.192
N7865 G1 X-14.2049
N7870 G17 G3 X-14.1924 Y0.875 I0. J0.0125
N7875 X-14.3824 I-0.095 J0.
N7880 X-14.1924 I0.095 J0.
N7885 X-14.2049 Y0.8875 I-0.0125 J0.
N7890 G1 X-14.2174
N7895 G18 G3 X-14.2299 Z-0.4875 I0. K0.0125
N7900 G1 Z0.3
N7905 Y0.8625
N7910 Z0.2
N7915 Z-0.475 F16.731
N7920 Z-0.6125
N7925 G2 X-14.2174 Z-0.625 I0.0125 K0. F50.192
N7930 G1 X-14.2049
N7935 G17 G3 X-14.1924 Y0.875 I0. J0.0125
N7940 X-14.3824 I-0.095 J0.
N7945 X-14.1924 I0.095 J0.
N7950 X-14.2049 Y0.8875 I-0.0125 J0.
N7955 G1 X-14.2174
N7960 G18 G3 X-14.2299 Z-0.6125 I0. K0.0125
N7965 G1 Z0.3
N7970 Y0.8625
N7975 Z0.2
N7980 Z-0.6 F16.731
N7985 Z-0.7375
N7990 G2 X-14.2174 Z-0.75 I0.0125 K0. F50.192
N7995 G1 X-14.2049
N8000 G17 G3 X-14.1924 Y0.875 I0. J0.0125
N8005 X-14.3824 I-0.095 J0.
N8010 X-14.1924 I0.095 J0.
N8015 X-14.2049 Y0.8875 I-0.0125 J0.
N8020 G1 X-14.2174
N8025 G18 G3 X-14.2299 Z-0.7375 I0. K0.0125
N8030 G1 Z0.3
N8035 X-15.6539 Y0.871
N8040 Z0.2
N8045 Z0.025 F16.731
N8050 Z-0.1125
N8055 X-15.6536 Z-0.1153 F50.192
N8060 X-15.6527 Y0.8712 Z-0.1179
N8065 X-15.6512 Y0.8714 Z-0.1203
N8070 X-15.6493 Y0.8717 Z-0.1223
N8075 X-15.6469 Y0.872 Z-0.1238
N8080 X-15.6443 Y0.8724 Z-0.1247
N8085 X-15.6415 Y0.8728 Z-0.125
N8090 X-15.6292 Y0.8746
N8095 G17 G3 X-15.6186 Y0.8888 I-0.0018 J0.0124
N8100 X-15.8066 Y0.8612 I-0.094 J-0.0138
N8105 X-15.6186 Y0.8888 I0.094 J0.0138
N8110 X-15.6328 Y0.8994 I-0.0124 J-0.0018
N8115 G1 X-15.6452 Y0.8976
N8120 X-15.6479 Y0.8972 Z-0.1247
N8125 X-15.6505 Y0.8968 Z-0.1238
N8130 X-15.6529 Y0.8964 Z-0.1223
N8135 X-15.6549 Y0.8961 Z-0.1203
N8140 X-15.6563 Y0.8959 Z-0.1179
N8145 X-15.6572 Y0.8958 Z-0.1153
N8150 X-15.6576 Y0.8957 Z-0.1125
N8155 Z0.3
N8160 X-15.6539 Y0.871
N8165 Z0.2
N8170 Z-0.1 F16.731
N8175 Z-0.2375
N8180 X-15.6536 Z-0.2403 F50.192
N8185 X-15.6527 Y0.8712 Z-0.2429
N8190 X-15.6512 Y0.8714 Z-0.2453
N8195 X-15.6493 Y0.8717 Z-0.2473
N8200 X-15.6469 Y0.872 Z-0.2488
N8205 X-15.6443 Y0.8724 Z-0.2497
N8210 X-15.6415 Y0.8728 Z-0.25
N8215 X-15.6292 Y0.8746
N8220 G3 X-15.6186 Y0.8888 I-0.0018 J0.0124
N8225 X-15.8066 Y0.8612 I-0.094 J-0.0138
N8230 X-15.6186 Y0.8888 I0.094 J0.0138
N8235 X-15.6328 Y0.8994 I-0.0124 J-0.0018
N8240 G1 X-15.6452 Y0.8976
N8245 X-15.6479 Y0.8972 Z-0.2497
N8250 X-15.6505 Y0.8968 Z-0.2488
N8255 X-15.6529 Y0.8964 Z-0.2473
N8260 X-15.6549 Y0.8961 Z-0.2453
N8265 X-15.6563 Y0.8959 Z-0.2429
N8270 X-15.6572 Y0.8958 Z-0.2403
N8275 X-15.6576 Y0.8957 Z-0.2375
N8280 Z0.3
N8285 X-15.6539 Y0.871
N8290 Z0.2
N8295 Z-0.225 F16.731
N8300 Z-0.3625
N8305 X-15.6536 Z-0.3653 F50.192
N8310 X-15.6527 Y0.8712 Z-0.3679
N8315 X-15.6512 Y0.8714 Z-0.3703
N8320 X-15.6493 Y0.8717 Z-0.3723
N8325 X-15.6469 Y0.872 Z-0.3738
N8330 X-15.6443 Y0.8724 Z-0.3747
N8335 X-15.6415 Y0.8728 Z-0.375
N8340 X-15.6292 Y0.8746
N8345 G3 X-15.6186 Y0.8888 I-0.0018 J0.0124
N8350 X-15.8066 Y0.8612 I-0.094 J-0.0138
N8355 X-15.6186 Y0.8888 I0.094 J0.0138
N8360 X-15.6328 Y0.8994 I-0.0124 J-0.0018
N8365 G1 X-15.6452 Y0.8976
N8370 X-15.6479 Y0.8972 Z-0.3747
N8375 X-15.6505 Y0.8968 Z-0.3738
N8380 X-15.6529 Y0.8964 Z-0.3723
N8385 X-15.6549 Y0.8961 Z-0.3703
N8390 X-15.6563 Y0.8959 Z-0.3679
N8395 X-15.6572 Y0.8958 Z-0.3653
N8400 X-15.6576 Y0.8957 Z-0.3625
N8405 Z0.3
N8410 X-15.6539 Y0.871
N8415 Z0.2
N8420 Z-0.35 F16.731
N8425 Z-0.4875
N8430 X-15.6536 Z-0.4903 F50.192
N8435 X-15.6527 Y0.8712 Z-0.4929
N8440 X-15.6512 Y0.8714 Z-0.4953
N8445 X-15.6493 Y0.8717 Z-0.4973
N8450 X-15.6469 Y0.872 Z-0.4988
N8455 X-15.6443 Y0.8724 Z-0.4997
N8460 X-15.6415 Y0.8728 Z-0.5
N8465 X-15.6292 Y0.8746
N8470 G3 X-15.6186 Y0.8888 I-0.0018 J0.0124
N8475 X-15.8066 Y0.8612 I-0.094 J-0.0138
N8480 X-15.6186 Y0.8888 I0.094 J0.0138
N8485 X-15.6328 Y0.8994 I-0.0124 J-0.0018
N8490 G1 X-15.6452 Y0.8976
N8495 X-15.6479 Y0.8972 Z-0.4997
N8500 X-15.6505 Y0.8968 Z-0.4988
N8505 X-15.6529 Y0.8964 Z-0.4973
N8510 X-15.6549 Y0.8961 Z-0.4953
N8515 X-15.6563 Y0.8959 Z-0.4929
N8520 X-15.6572 Y0.8958 Z-0.4903
N8525 X-15.6576 Y0.8957 Z-0.4875
N8530 Z0.3
N8535 X-15.6539 Y0.871
N8540 Z0.2
N8545 Z-0.475 F16.731
N8550 Z-0.6125
N8555 X-15.6536 Z-0.6153 F50.192
N8560 X-15.6527 Y0.8712 Z-0.6179
N8565 X-15.6512 Y0.8714 Z-0.6203
N8570 X-15.6493 Y0.8717 Z-0.6223
N8575 X-15.6469 Y0.872 Z-0.6238
N8580 X-15.6443 Y0.8724 Z-0.6247
N8585 X-15.6415 Y0.8728 Z-0.625
N8590 X-15.6292 Y0.8746
N8595 G3 X-15.6186 Y0.8888 I-0.0018 J0.0124
N8600 X-15.8066 Y0.8612 I-0.094 J-0.0138
N8605 X-15.6186 Y0.8888 I0.094 J0.0138
N8610 X-15.6328 Y0.8994 I-0.0124 J-0.0018
N8615 G1 X-15.6452 Y0.8976
N8620 X-15.6479 Y0.8972 Z-0.6247
N8625 X-15.6505 Y0.8968 Z-0.6238
N8630 X-15.6529 Y0.8964 Z-0.6223
N8635 X-15.6549 Y0.8961 Z-0.6203
N8640 X-15.6563 Y0.8959 Z-0.6179
N8645 X-15.6572 Y0.8958 Z-0.6153
N8650 X-15.6576 Y0.8957 Z-0.6125
N8655 Z0.3
N8660 X-15.6539 Y0.871
N8665 Z0.2
N8670 Z-0.6 F16.731
N8675 Z-0.7375
N8680 X-15.6536 Z-0.7403 F50.192
N8685 X-15.6527 Y0.8712 Z-0.7429
N8690 X-15.6512 Y0.8714 Z-0.7453
N8695 X-15.6493 Y0.8717 Z-0.7473
N8700 X-15.6469 Y0.872 Z-0.7488
N8705 X-15.6443 Y0.8724 Z-0.7497
N8710 X-15.6415 Y0.8728 Z-0.75
N8715 X-15.6292 Y0.8746
N8720 G3 X-15.6186 Y0.8888 I-0.0018 J0.0124
N8725 X-15.8066 Y0.8612 I-0.094 J-0.0138
N8730 X-15.6186 Y0.8888 I0.094 J0.0138
N8735 X-15.6328 Y0.8994 I-0.0124 J-0.0018
N8740 G1 X-15.6452 Y0.8976
N8745 X-15.6479 Y0.8972 Z-0.7497
N8750 X-15.6505 Y0.8968 Z-0.7488
N8755 X-15.6529 Y0.8964 Z-0.7473
N8760 X-15.6549 Y0.8961 Z-0.7453
N8765 X-15.6563 Y0.8959 Z-0.7429
N8770 X-15.6572 Y0.8958 Z-0.7403
N8775 X-15.6576 Y0.8957 Z-0.7375
N8780 Z0.3
N8785 X-17.2299 Y0.8625
N8790 Z0.2
N8795 Z0.025 F16.731
N8800 Z-0.1125
N8805 G18 G2 X-17.2174 Z-0.125 I0.0125 K0. F50.192
N8810 G1 X-17.2049
N8815 G17 G3 X-17.1924 Y0.875 I0. J0.0125
N8820 X-17.3824 I-0.095 J0.
N8825 X-17.1924 I0.095 J0.
N8830 X-17.2049 Y0.8875 I-0.0125 J0.
N8835 G1 X-17.2174
N8840 G18 G3 X-17.2299 Z-0.1125 I0. K0.0125
N8845 G1 Z0.3
N8850 Y0.8625
N8855 Z0.2
N8860 Z-0.1 F16.731
N8865 Z-0.2375
N8870 G2 X-17.2174 Z-0.25 I0.0125 K0. F50.192
N8875 G1 X-17.2049
N8880 G17 G3 X-17.1924 Y0.875 I0. J0.0125
N8885 X-17.3824 I-0.095 J0.
N8890 X-17.1924 I0.095 J0.
N8895 X-17.2049 Y0.8875 I-0.0125 J0.
N8900 G1 X-17.2174
N8905 G18 G3 X-17.2299 Z-0.2375 I0. K0.0125
N8910 G1 Z0.3
N8915 Y0.8625
N8920 Z0.2
N8925 Z-0.225 F16.731
N8930 Z-0.3625
N8935 G2 X-17.2174 Z-0.375 I0.0125 K0. F50.192
N8940 G1 X-17.2049
N8945 G17 G3 X-17.1924 Y0.875 I0. J0.0125
N8950 X-17.3824 I-0.095 J0.
N8955 X-17.1924 I0.095 J0.
N8960 X-17.2049 Y0.8875 I-0.0125 J0.
N8965 G1 X-17.2174
N8970 G18 G3 X-17.2299 Z-0.3625 I0. K0.0125
N8975 G1 Z0.3
N8980 Y0.8625
N8985 Z0.2
N8990 Z-0.35 F16.731
N8995 Z-0.4875
N9000 G2 X-17.2174 Z-0.5 I0.0125 K0. F50.192
N9005 G1 X-17.2049
N9010 G17 G3 X-17.1924 Y0.875 I0. J0.0125
N9015 X-17.3824 I-0.095 J0.
N9020 X-17.1924 I0.095 J0.
N9025 X-17.2049 Y0.8875 I-0.0125 J0.
N9030 G1 X-17.2174
N9035 G18 G3 X-17.2299 Z-0.4875 I0. K0.0125
N9040 G1 Z0.3
N9045 Y0.8625
N9050 Z0.2
N9055 Z-0.475 F16.731
N9060 Z-0.6125
N9065 G2 X-17.2174 Z-0.625 I0.0125 K0. F50.192
N9070 G1 X-17.2049
N9075 G17 G3 X-17.1924 Y0.875 I0. J0.0125
N9080 X-17.3824 I-0.095 J0.
N9085 X-17.1924 I0.095 J0.
N9090 X-17.2049 Y0.8875 I-0.0125 J0.
N9095 G1 X-17.2174
N9100 G18 G3 X-17.2299 Z-0.6125 I0. K0.0125
N9105 G1 Z0.3
N9110 Y0.8625
N9115 Z0.2
N9120 Z-0.6 F16.731
N9125 Z-0.7375
N9130 G2 X-17.2174 Z-0.75 I0.0125 K0. F50.192
N9135 G1 X-17.2049
N9140 G17 G3 X-17.1924 Y0.875 I0. J0.0125
N9145 X-17.3824 I-0.095 J0.
N9150 X-17.1924 I0.095 J0.
N9155 X-17.2049 Y0.8875 I-0.0125 J0.
N9160 G1 X-17.2174
N9165 G18 G3 X-17.2299 Z-0.7375 I0. K0.0125
N9170 G1 Z0.3
N9175 X2.3449 Y0.8625
N9180 Z0.2
N9185 Z0.025 F16.731
N9190 Z-0.1125
N9195 G2 X2.3574 Z-0.125 I0.0125 K0. F50.192
N9200 G1 X2.3699
N9205 G17 G3 X2.3824 Y0.875 I0. J0.0125
N9210 X2.1924 I-0.095 J0.
N9215 X2.3824 I0.095 J0.
N9220 X2.3699 Y0.8875 I-0.0125 J0.
N9225 G1 X2.3574
N9230 G18 G3 X2.3449 Z-0.1125 I0. K0.0125
N9235 G1 Z0.3
N9240 Y0.8625
N9245 Z0.2
N9250 Z-0.1 F16.731
N9255 Z-0.2375
N9260 G2 X2.3574 Z-0.25 I0.0125 K0. F50.192
N9265 G1 X2.3699
N9270 G17 G3 X2.3824 Y0.875 I0. J0.0125
N9275 X2.1924 I-0.095 J0.
N9280 X2.3824 I0.095 J0.
N9285 X2.3699 Y0.8875 I-0.0125 J0.
N9290 G1 X2.3574
N9295 G18 G3 X2.3449 Z-0.2375 I0. K0.0125
N9300 G1 Z0.3
N9305 Y0.8625
N9310 Z0.2
N9315 Z-0.225 F16.731
N9320 Z-0.3625
N9325 G2 X2.3574 Z-0.375 I0.0125 K0. F50.192
N9330 G1 X2.3699
N9335 G17 G3 X2.3824 Y0.875 I0. J0.0125
N9340 X2.1924 I-0.095 J0.
N9345 X2.3824 I0.095 J0.
N9350 X2.3699 Y0.8875 I-0.0125 J0.
N9355 G1 X2.3574
N9360 G18 G3 X2.3449 Z-0.3625 I0. K0.0125
N9365 G1 Z0.3
N9370 Y0.8625
N9375 Z0.2
N9380 Z-0.35 F16.731
N9385 Z-0.4875
N9390 G2 X2.3574 Z-0.5 I0.0125 K0. F50.192
N9395 G1 X2.3699
N9400 G17 G3 X2.3824 Y0.875 I0. J0.0125
N9405 X2.1924 I-0.095 J0.
N9410 X2.3824 I0.095 J0.
N9415 X2.3699 Y0.8875 I-0.0125 J0.
N9420 G1 X2.3574
N9425 G18 G3 X2.3449 Z-0.4875 I0. K0.0125
N9430 G1 Z0.3
N9435 Y0.8625
N9440 Z0.2
N9445 Z-0.475 F16.731
N9450 Z-0.6125
N9455 G2 X2.3574 Z-0.625 I0.0125 K0. F50.192
N9460 G1 X2.3699
N9465 G17 G3 X2.3824 Y0.875 I0. J0.0125
N9470 X2.1924 I-0.095 J0.
N9475 X2.3824 I0.095 J0.
N9480 X2.3699 Y0.8875 I-0.0125 J0.
N9485 G1 X2.3574
N9490 G18 G3 X2.3449 Z-0.6125 I0. K0.0125
N9495 G1 Z0.3
N9500 Y0.8625
N9505 Z0.2
N9510 Z-0.6 F16.731
N9515 Z-0.7375
N9520 G2 X2.3574 Z-0.75 I0.0125 K0. F50.192
N9525 G1 X2.3699
N9530 G17 G3 X2.3824 Y0.875 I0. J0.0125
N9535 X2.1924 I-0.095 J0.
N9540 X2.3824 I0.095 J0.
N9545 X2.3699 Y0.8875 I-0.0125 J0.
N9550 G1 X2.3574
N9555 G18 G3 X2.3449 Z-0.7375 I0. K0.0125
N9560 G1 Z0.3
N9565 X3.7701 Y0.8625
N9570 Z0.2
N9575 Z0.025 F16.731
N9580 Z-0.1125
N9585 G2 X3.7826 Z-0.125 I0.0125 K0. F50.192
N9590 G1 X3.7951
N9595 G17 G3 X3.8076 Y0.875 I0. J0.0125
N9600 X3.6176 I-0.095 J0.
N9605 X3.8076 I0.095 J0.
N9610 X3.7951 Y0.8875 I-0.0125 J0.
N9615 G1 X3.7826
N9620 G18 G3 X3.7701 Z-0.1125 I0. K0.0125
N9625 G1 Z0.3
N9630 Y0.8625
N9635 Z0.2
N9640 Z-0.1 F16.731
N9645 Z-0.2375
N9650 G2 X3.7826 Z-0.25 I0.0125 K0. F50.192
N9655 G1 X3.7951
N9660 G17 G3 X3.8076 Y0.875 I0. J0.0125
N9665 X3.6176 I-0.095 J0.
N9670 X3.8076 I0.095 J0.
N9675 X3.7951 Y0.8875 I-0.0125 J0.
N9680 G1 X3.7826
N9685 G18 G3 X3.7701 Z-0.2375 I0. K0.0125
N9690 G1 Z0.3
N9695 Y0.8625
N9700 Z0.2
N9705 Z-0.225 F16.731
N9710 Z-0.3625
N9715 G2 X3.7826 Z-0.375 I0.0125 K0. F50.192
N9720 G1 X3.7951
N9725 G17 G3 X3.8076 Y0.875 I0. J0.0125
N9730 X3.6176 I-0.095 J0.
N9735 X3.8076 I0.095 J0.
N9740 X3.7951 Y0.8875 I-0.0125 J0.
N9745 G1 X3.7826
N9750 G18 G3 X3.7701 Z-0.3625 I0. K0.0125
N9755 G1 Z0.3
N9760 Y0.8625
N9765 Z0.2
N9770 Z-0.35 F16.731
N9775 Z-0.4875
N9780 G2 X3.7826 Z-0.5 I0.0125 K0. F50.192
N9785 G1 X3.7951
N9790 G17 G3 X3.8076 Y0.875 I0. J0.0125
N9795 X3.6176 I-0.095 J0.
N9800 X3.8076 I0.095 J0.
N9805 X3.7951 Y0.8875 I-0.0125 J0.
N9810 G1 X3.7826
N9815 G18 G3 X3.7701 Z-0.4875 I0. K0.0125
N9820 G1 Z0.3
N9825 Y0.8625
N9830 Z0.2
N9835 Z-0.475 F16.731
N9840 Z-0.6125
N9845 G2 X3.7826 Z-0.625 I0.0125 K0. F50.192
N9850 G1 X3.7951
N9855 G17 G3 X3.8076 Y0.875 I0. J0.0125
N9860 X3.6176 I-0.095 J0.
N9865 X3.8076 I0.095 J0.
N9870 X3.7951 Y0.8875 I-0.0125 J0.
N9875 G1 X3.7826
N9880 G18 G3 X3.7701 Z-0.6125 I0. K0.0125
N9885 G1 Z0.3
N9890 Y0.8625
N9895 Z0.2
N9900 Z-0.6 F16.731
N9905 Z-0.7375
N9910 G2 X3.7826 Z-0.75 I0.0125 K0. F50.192
N9915 G1 X3.7951
N9920 G17 G3 X3.8076 Y0.875 I0. J0.0125
N9925 X3.6176 I-0.095 J0.
N9930 X3.8076 I0.095 J0.
N9935 X3.7951 Y0.8875 I-0.0125 J0.
N9940 G1 X3.7826
N9945 G18 G3 X3.7701 Z-0.7375 I0. K0.0125
N9950 G1 Z0.3
N9955 X5.3449 Y0.8625
N9960 Z0.2
N9965 Z0.025 F16.731
N9970 Z-0.1125
N9975 G2 X5.3574 Z-0.125 I0.0125 K0. F50.192
N9980 G1 X5.3699
N9985 G17 G3 X5.3824 Y0.875 I0. J0.0125
N9990 X5.1924 I-0.095 J0.
N9995 X5.3824 I0.095 J0.
N10000 X5.3699 Y0.8875 I-0.0125 J0.
N10005 G1 X5.3574
N10010 G18 G3 X5.3449 Z-0.1125 I0. K0.0125
N10015 G1 Z0.3
N10020 Y0.8625
N10025 Z0.2
N10030 Z-0.1 F16.731
N10035 Z-0.2375
N10040 G2 X5.3574 Z-0.25 I0.0125 K0. F50.192
N10045 G1 X5.3699
N10050 G17 G3 X5.3824 Y0.875 I0. J0.0125
N10055 X5.1924 I-0.095 J0.
N10060 X5.3824 I0.095 J0.
N10065 X5.3699 Y0.8875 I-0.0125 J0.
N10070 G1 X5.3574
N10075 G18 G3 X5.3449 Z-0.2375 I0. K0.0125
N10080 G1 Z0.3
N10085 Y0.8625
N10090 Z0.2
N10095 Z-0.225 F16.731
N10100 Z-0.3625
N10105 G2 X5.3574 Z-0.375 I0.0125 K0. F50.192
N10110 G1 X5.3699
N10115 G17 G3 X5.3824 Y0.875 I0. J0.0125
N10120 X5.1924 I-0.095 J0.
N10125 X5.3824 I0.095 J0.
N10130 X5.3699 Y0.8875 I-0.0125 J0.
N10135 G1 X5.3574
N10140 G18 G3 X5.3449 Z-0.3625 I0. K0.0125
N10145 G1 Z0.3
N10150 Y0.8625
N10155 Z0.2
N10160 Z-0.35 F16.731
N10165 Z-0.4875
N10170 G2 X5.3574 Z-0.5 I0.0125 K0. F50.192
N10175 G1 X5.3699
N10180 G17 G3 X5.3824 Y0.875 I0. J0.0125
N10185 X5.1924 I-0.095 J0.
N10190 X5.3824 I0.095 J0.
N10195 X5.3699 Y0.8875 I-0.0125 J0.
N10200 G1 X5.3574
N10205 G18 G3 X5.3449 Z-0.4875 I0. K0.0125
N10210 G1 Z0.3
N10215 Y0.8625
N10220 Z0.2
N10225 Z-0.475 F16.731
N10230 Z-0.6125
N10235 G2 X5.3574 Z-0.625 I0.0125 K0. F50.192
N10240 G1 X5.3699
N10245 G17 G3 X5.3824 Y0.875 I0. J0.0125
N10250 X5.1924 I-0.095 J0.
N10255 X5.3824 I0.095 J0.
N10260 X5.3699 Y0.8875 I-0.0125 J0.
N10265 G1 X5.3574
N10270 G18 G3 X5.3449 Z-0.6125 I0. K0.0125
N10275 G1 Z0.3
N10280 Y0.8625
N10285 Z0.2
N10290 Z-0.6 F16.731
N10295 Z-0.7375
N10300 G2 X5.3574 Z-0.75 I0.0125 K0. F50.192
N10305 G1 X5.3699
N10310 G17 G3 X5.3824 Y0.875 I0. J0.0125
N10315 X5.1924 I-0.095 J0.
N10320 X5.3824 I0.095 J0.
N10325 X5.3699 Y0.8875 I-0.0125 J0.
N10330 G1 X5.3574
N10335 G18 G3 X5.3449 Z-0.7375 I0. K0.0125
N10340 G1 Z0.3
N10345 X6.7701 Y0.8625
N10350 Z0.2
N10355 Z0.025 F16.731
N10360 Z-0.1125
N10365 G2 X6.7826 Z-0.125 I0.0125 K0. F50.192
N10370 G1 X6.7951
N10375 G17 G3 X6.8076 Y0.875 I0. J0.0125
N10380 X6.6176 I-0.095 J0.
N10385 X6.8076 I0.095 J0.
N10390 X6.7951 Y0.8875 I-0.0125 J0.
N10395 G1 X6.7826
N10400 G18 G3 X6.7701 Z-0.1125 I0. K0.0125
N10405 G1 Z0.3
N10410 Y0.8625
N10415 Z0.2
N10420 Z-0.1 F16.731
N10425 Z-0.2375
N10430 G2 X6.7826 Z-0.25 I0.0125 K0. F50.192
N10435 G1 X6.7951
N10440 G17 G3 X6.8076 Y0.875 I0. J0.0125
N10445 X6.6176 I-0.095 J0.
N10450 X6.8076 I0.095 J0.
N10455 X6.7951 Y0.8875 I-0.0125 J0.
N10460 G1 X6.7826
N10465 G18 G3 X6.7701 Z-0.2375 I0. K0.0125
N10470 G1 Z0.3
N10475 Y0.8625
N10480 Z0.2
N10485 Z-0.225 F16.731
N10490 Z-0.3625
N10495 G2 X6.7826 Z-0.375 I0.0125 K0. F50.192
N10500 G1 X6.7951
N10505 G17 G3 X6.8076 Y0.875 I0. J0.0125
N10510 X6.6176 I-0.095 J0.
N10515 X6.8076 I0.095 J0.
N10520 X6.7951 Y0.8875 I-0.0125 J0.
N10525 G1 X6.7826
N10530 G18 G3 X6.7701 Z-0.3625 I0. K0.0125
N10535 G1 Z0.3
N10540 Y0.8625
N10545 Z0.2
N10550 Z-0.35 F16.731
N10555 Z-0.4875
N10560 G2 X6.7826 Z-0.5 I0.0125 K0. F50.192
N10565 G1 X6.7951
N10570 G17 G3 X6.8076 Y0.875 I0. J0.0125
N10575 X6.6176 I-0.095 J0.
N10580 X6.8076 I0.095 J0.
N10585 X6.7951 Y0.8875 I-0.0125 J0.
N10590 G1 X6.7826
N10595 G18 G3 X6.7701 Z-0.4875 I0. K0.0125
N10600 G1 Z0.3
N10605 Y0.8625
N10610 Z0.2
N10615 Z-0.475 F16.731
N10620 Z-0.6125
N10625 G2 X6.7826 Z-0.625 I0.0125 K0. F50.192
N10630 G1 X6.7951
N10635 G17 G3 X6.8076 Y0.875 I0. J0.0125
N10640 X6.6176 I-0.095 J0.
N10645 X6.8076 I0.095 J0.
N10650 X6.7951 Y0.8875 I-0.0125 J0.
N10655 G1 X6.7826
N10660 G18 G3 X6.7701 Z-0.6125 I0. K0.0125
N10665 G1 Z0.3
N10670 Y0.8625
N10675 Z0.2
N10680 Z-0.6 F16.731
N10685 Z-0.7375
N10690 G2 X6.7826 Z-0.75 I0.0125 K0. F50.192
N10695 G1 X6.7951
N10700 G17 G3 X6.8076 Y0.875 I0. J0.0125
N10705 X6.6176 I-0.095 J0.
N10710 X6.8076 I0.095 J0.
N10715 X6.7951 Y0.8875 I-0.0125 J0.
N10720 G1 X6.7826
N10725 G18 G3 X6.7701 Z-0.7375 I0. K0.0125
N10730 G1 Z0.3
N10735 X8.3449 Y0.8625
N10740 Z0.2
N10745 Z0.025 F16.731
N10750 Z-0.1125
N10755 G2 X8.3574 Z-0.125 I0.0125 K0. F50.192
N10760 G1 X8.3699
N10765 G17 G3 X8.3824 Y0.875 I0. J0.0125
N10770 X8.1924 I-0.095 J0.
N10775 X8.3824 I0.095 J0.
N10780 X8.3699 Y0.8875 I-0.0125 J0.
N10785 G1 X8.3574
N10790 G18 G3 X8.3449 Z-0.1125 I0. K0.0125
N10795 G1 Z0.3
N10800 Y0.8625
N10805 Z0.2
N10810 Z-0.1 F16.731
N10815 Z-0.2375
N10820 G2 X8.3574 Z-0.25 I0.0125 K0. F50.192
N10825 G1 X8.3699
N10830 G17 G3 X8.3824 Y0.875 I0. J0.0125
N10835 X8.1924 I-0.095 J0.
N10840 X8.3824 I0.095 J0.
N10845 X8.3699 Y0.8875 I-0.0125 J0.
N10850 G1 X8.3574
N10855 G18 G3 X8.3449 Z-0.2375 I0. K0.0125
N10860 G1 Z0.3
N10865 Y0.8625
N10870 Z0.2
N10875 Z-0.225 F16.731
N10880 Z-0.3625
N10885 G2 X8.3574 Z-0.375 I0.0125 K0. F50.192
N10890 G1 X8.3699
N10895 G17 G3 X8.3824 Y0.875 I0. J0.0125
N10900 X8.1924 I-0.095 J0.
N10905 X8.3824 I0.095 J0.
N10910 X8.3699 Y0.8875 I-0.0125 J0.
N10915 G1 X8.3574
N10920 G18 G3 X8.3449 Z-0.3625 I0. K0.0125
N10925 G1 Z0.3
N10930 Y0.8625
N10935 Z0.2
N10940 Z-0.35 F16.731
N10945 Z-0.4875
N10950 G2 X8.3574 Z-0.5 I0.0125 K0. F50.192
N10955 G1 X8.3699
N10960 G17 G3 X8.3824 Y0.875 I0. J0.0125
N10965 X8.1924 I-0.095 J0.
N10970 X8.3824 I0.095 J0.
N10975 X8.3699 Y0.8875 I-0.0125 J0.
N10980 G1 X8.3574
N10985 G18 G3 X8.3449 Z-0.4875 I0. K0.0125
N10990 G1 Z0.3
N10995 Y0.8625
N11000 Z0.2
N11005 Z-0.475 F16.731
N11010 Z-0.6125
N11015 G2 X8.3574 Z-0.625 I0.0125 K0. F50.192
N11020 G1 X8.3699
N11025 G17 G3 X8.3824 Y0.875 I0. J0.0125
N11030 X8.1924 I-0.095 J0.
N11035 X8.3824 I0.095 J0.
N11040 X8.3699 Y0.8875 I-0.0125 J0.
N11045 G1 X8.3574
N11050 G18 G3 X8.3449 Z-0.6125 I0. K0.0125
N11055 G1 Z0.3
N11060 Y0.8625
N11065 Z0.2
N11070 Z-0.6 F16.731
N11075 Z-0.7375
N11080 G2 X8.3574 Z-0.75 I0.0125 K0. F50.192
N11085 G1 X8.3699
N11090 G17 G3 X8.3824 Y0.875 I0. J0.0125
N11095 X8.1924 I-0.095 J0.
N11100 X8.3824 I0.095 J0.
N11105 X8.3699 Y0.8875 I-0.0125 J0.
N11110 G1 X8.3574
N11115 G18 G3 X8.3449 Z-0.7375 I0. K0.0125
N11120 G1 Z0.3
N11125 X9.7701 Y0.8625
N11130 Z0.2
N11135 Z0.025 F16.731
N11140 Z-0.1125
N11145 G2 X9.7826 Z-0.125 I0.0125 K0. F50.192
N11150 G1 X9.7951
N11155 G17 G3 X9.8076 Y0.875 I0. J0.0125
N11160 X9.6176 I-0.095 J0.
N11165 X9.8076 I0.095 J0.
N11170 X9.7951 Y0.8875 I-0.0125 J0.
N11175 G1 X9.7826
N11180 G18 G3 X9.7701 Z-0.1125 I0. K0.0125
N11185 G1 Z0.3
N11190 Y0.8625
N11195 Z0.2
N11200 Z-0.1 F16.731
N11205 Z-0.2375
N11210 G2 X9.7826 Z-0.25 I0.0125 K0. F50.192
N11215 G1 X9.7951
N11220 G17 G3 X9.8076 Y0.875 I0. J0.0125
N11225 X9.6176 I-0.095 J0.
N11230 X9.8076 I0.095 J0.
N11235 X9.7951 Y0.8875 I-0.0125 J0.
N11240 G1 X9.7826
N11245 G18 G3 X9.7701 Z-0.2375 I0. K0.0125
N11250 G1 Z0.3
N11255 Y0.8625
N11260 Z0.2
N11265 Z-0.225 F16.731
N11270 Z-0.3625
N11275 G2 X9.7826 Z-0.375 I0.0125 K0. F50.192
N11280 G1 X9.7951
N11285 G17 G3 X9.8076 Y0.875 I0. J0.0125
N11290 X9.6176 I-0.095 J0.
N11295 X9.8076 I0.095 J0.
N11300 X9.7951 Y0.8875 I-0.0125 J0.
N11305 G1 X9.7826
N11310 G18 G3 X9.7701 Z-0.3625 I0. K0.0125
N11315 G1 Z0.3
N11320 Y0.8625
N11325 Z0.2
N11330 Z-0.35 F16.731
N11335 Z-0.4875
N11340 G2 X9.7826 Z-0.5 I0.0125 K0. F50.192
N11345 G1 X9.7951
N11350 G17 G3 X9.8076 Y0.875 I0. J0.0125
N11355 X9.6176 I-0.095 J0.
N11360 X9.8076 I0.095 J0.
N11365 X9.7951 Y0.8875 I-0.0125 J0.
N11370 G1 X9.7826
N11375 G18 G3 X9.7701 Z-0.4875 I0. K0.0125
N11380 G1 Z0.3
N11385 Y0.8625
N11390 Z0.2
N11395 Z-0.475 F16.731
N11400 Z-0.6125
N11405 G2 X9.7826 Z-0.625 I0.0125 K0. F50.192
N11410 G1 X9.7951
N11415 G17 G3 X9.8076 Y0.875 I0. J0.0125
N11420 X9.6176 I-0.095 J0.
N11425 X9.8076 I0.095 J0.
N11430 X9.7951 Y0.8875 I-0.0125 J0.
N11435 G1 X9.7826
N11440 G18 G3 X9.7701 Z-0.6125 I0. K0.0125
N11445 G1 Z0.3
N11450 Y0.8625
N11455 Z0.2
N11460 Z-0.6 F16.731
N11465 Z-0.7375
N11470 G2 X9.7826 Z-0.75 I0.0125 K0. F50.192
N11475 G1 X9.7951
N11480 G17 G3 X9.8076 Y0.875 I0. J0.0125
N11485 X9.6176 I-0.095 J0.
N11490 X9.8076 I0.095 J0.
N11495 X9.7951 Y0.8875 I-0.0125 J0.
N11500 G1 X9.7826
N11505 G18 G3 X9.7701 Z-0.7375 I0. K0.0125
N11510 G1 Z0.3
N11515 X11.3461 Y0.871
N11520 Z0.2
N11525 Z0.025 F16.731
N11530 Z-0.1125
N11535 X11.3464 Z-0.1153 F50.192
N11540 X11.3473 Y0.8712 Z-0.1179
N11545 X11.3488 Y0.8714 Z-0.1203
N11550 X11.3507 Y0.8717 Z-0.1223
N11555 X11.3531 Y0.872 Z-0.1238
N11560 X11.3557 Y0.8724 Z-0.1247
N11565 X11.3585 Y0.8728 Z-0.125
N11570 X11.3708 Y0.8746
N11575 G17 G3 X11.3814 Y0.8888 I-0.0018 J0.0124
N11580 X11.1934 Y0.8612 I-0.094 J-0.0138
N11585 X11.3814 Y0.8888 I0.094 J0.0138
N11590 X11.3672 Y0.8994 I-0.0124 J-0.0018
N11595 G1 X11.3548 Y0.8976
N11600 X11.3521 Y0.8972 Z-0.1247
N11605 X11.3495 Y0.8968 Z-0.1238
N11610 X11.3471 Y0.8964 Z-0.1223
N11615 X11.3451 Y0.8961 Z-0.1203
N11620 X11.3437 Y0.8959 Z-0.1179
N11625 X11.3428 Y0.8958 Z-0.1153
N11630 X11.3424 Y0.8957 Z-0.1125
N11635 Z0.3
N11640 X11.3461 Y0.871
N11645 Z0.2
N11650 Z-0.1 F16.731
N11655 Z-0.2375
N11660 X11.3464 Z-0.2403 F50.192
N11665 X11.3473 Y0.8712 Z-0.2429
N11670 X11.3488 Y0.8714 Z-0.2453
N11675 X11.3507 Y0.8717 Z-0.2473
N11680 X11.3531 Y0.872 Z-0.2488
N11685 X11.3557 Y0.8724 Z-0.2497
N11690 X11.3585 Y0.8728 Z-0.25
N11695 X11.3708 Y0.8746
N11700 G3 X11.3814 Y0.8888 I-0.0018 J0.0124
N11705 X11.1934 Y0.8612 I-0.094 J-0.0138
N11710 X11.3814 Y0.8888 I0.094 J0.0138
N11715 X11.3672 Y0.8994 I-0.0124 J-0.0018
N11720 G1 X11.3548 Y0.8976
N11725 X11.3521 Y0.8972 Z-0.2497
N11730 X11.3495 Y0.8968 Z-0.2488
N11735 X11.3471 Y0.8964 Z-0.2473
N11740 X11.3451 Y0.8961 Z-0.2453
N11745 X11.3437 Y0.8959 Z-0.2429
N11750 X11.3428 Y0.8958 Z-0.2403
N11755 X11.3424 Y0.8957 Z-0.2375
N11760 Z0.3
N11765 X11.3461 Y0.871
N11770 Z0.2
N11775 Z-0.225 F16.731
N11780 Z-0.3625
N11785 X11.3464 Z-0.3653 F50.192
N11790 X11.3473 Y0.8712 Z-0.3679
N11795 X11.3488 Y0.8714 Z-0.3703
N11800 X11.3507 Y0.8717 Z-0.3723
N11805 X11.3531 Y0.872 Z-0.3738
N11810 X11.3557 Y0.8724 Z-0.3747
N11815 X11.3585 Y0.8728 Z-0.375
N11820 X11.3708 Y0.8746
N11825 G3 X11.3814 Y0.8888 I-0.0018 J0.0124
N11830 X11.1934 Y0.8612 I-0.094 J-0.0138
N11835 X11.3814 Y0.8888 I0.094 J0.0138
N11840 X11.3672 Y0.8994 I-0.0124 J-0.0018
N11845 G1 X11.3548 Y0.8976
N11850 X11.3521 Y0.8972 Z-0.3747
N11855 X11.3495 Y0.8968 Z-0.3738
N11860 X11.3471 Y0.8964 Z-0.3723
N11865 X11.3451 Y0.8961 Z-0.3703
N11870 X11.3437 Y0.8959 Z-0.3679
N11875 X11.3428 Y0.8958 Z-0.3653
N11880 X11.3424 Y0.8957 Z-0.3625
N11885 Z0.3
N11890 X11.3461 Y0.871
N11895 Z0.2
N11900 Z-0.35 F16.731
N11905 Z-0.4875
N11910 X11.3464 Z-0.4903 F50.192
N11915 X11.3473 Y0.8712 Z-0.4929
N11920 X11.3488 Y0.8714 Z-0.4953
N11925 X11.3507 Y0.8717 Z-0.4973
N11930 X11.3531 Y0.872 Z-0.4988
N11935 X11.3557 Y0.8724 Z-0.4997
N11940 X11.3585 Y0.8728 Z-0.5
N11945 X11.3708 Y0.8746
N11950 G3 X11.3814 Y0.8888 I-0.0018 J0.0124
N11955 X11.1934 Y0.8612 I-0.094 J-0.0138
N11960 X11.3814 Y0.8888 I0.094 J0.0138
N11965 X11.3672 Y0.8994 I-0.0124 J-0.0018
N11970 G1 X11.3548 Y0.8976
N11975 X11.3521 Y0.8972 Z-0.4997
N11980 X11.3495 Y0.8968 Z-0.4988
N11985 X11.3471 Y0.8964 Z-0.4973
N11990 X11.3451 Y0.8961 Z-0.4953
N11995 X11.3437 Y0.8959 Z-0.4929
N12000 X11.3428 Y0.8958 Z-0.4903
N12005 X11.3424 Y0.8957 Z-0.4875
N12010 Z0.3
N12015 X11.3461 Y0.871
N12020 Z0.2
N12025 Z-0.475 F16.731
N12030 Z-0.6125
N12035 X11.3464 Z-0.6153 F50.192
N12040 X11.3473 Y0.8712 Z-0.6179
N12045 X11.3488 Y0.8714 Z-0.6203
N12050 X11.3507 Y0.8717 Z-0.6223
N12055 X11.3531 Y0.872 Z-0.6238
N12060 X11.3557 Y0.8724 Z-0.6247
N12065 X11.3585 Y0.8728 Z-0.625
N12070 X11.3708 Y0.8746
N12075 G3 X11.3814 Y0.8888 I-0.0018 J0.0124
N12080 X11.1934 Y0.8612 I-0.094 J-0.0138
N12085 X11.3814 Y0.8888 I0.094 J0.0138
N12090 X11.3672 Y0.8994 I-0.0124 J-0.0018
N12095 G1 X11.3548 Y0.8976
N12100 X11.3521 Y0.8972 Z-0.6247
N12105 X11.3495 Y0.8968 Z-0.6238
N12110 X11.3471 Y0.8964 Z-0.6223
N12115 X11.3451 Y0.8961 Z-0.6203
N12120 X11.3437 Y0.8959 Z-0.6179
N12125 X11.3428 Y0.8958 Z-0.6153
N12130 X11.3424 Y0.8957 Z-0.6125
N12135 Z0.3
N12140 X11.3461 Y0.871
N12145 Z0.2
N12150 Z-0.6 F16.731
N12155 Z-0.7375
N12160 X11.3464 Z-0.7403 F50.192
N12165 X11.3473 Y0.8712 Z-0.7429
N12170 X11.3488 Y0.8714 Z-0.7453
N12175 X11.3507 Y0.8717 Z-0.7473
N12180 X11.3531 Y0.872 Z-0.7488
N12185 X11.3557 Y0.8724 Z-0.7497
N12190 X11.3585 Y0.8728 Z-0.75
N12195 X11.3708 Y0.8746
N12200 G3 X11.3814 Y0.8888 I-0.0018 J0.0124
N12205 X11.1934 Y0.8612 I-0.094 J-0.0138
N12210 X11.3814 Y0.8888 I0.094 J0.0138
N12215 X11.3672 Y0.8994 I-0.0124 J-0.0018
N12220 G1 X11.3548 Y0.8976
N12225 X11.3521 Y0.8972 Z-0.7497
N12230 X11.3495 Y0.8968 Z-0.7488
N12235 X11.3471 Y0.8964 Z-0.7473
N12240 X11.3451 Y0.8961 Z-0.7453
N12245 X11.3437 Y0.8959 Z-0.7429
N12250 X11.3428 Y0.8958 Z-0.7403
N12255 X11.3424 Y0.8957 Z-0.7375
N12260 Z0.3
N12265 X12.7713 Y0.871
N12270 Z0.2
N12275 Z0.025 F16.731
N12280 Z-0.1125
N12285 X12.7716 Z-0.1153 F50.192
N12290 X12.7725 Y0.8712 Z-0.1179
N12295 X12.774 Y0.8714 Z-0.1203
N12300 X12.7759 Y0.8717 Z-0.1223
N12305 X12.7783 Y0.872 Z-0.1238
N12310 X12.7809 Y0.8724 Z-0.1247
N12315 X12.7837 Y0.8728 Z-0.125
N12320 X12.796 Y0.8746
N12325 G3 X12.8066 Y0.8888 I-0.0018 J0.0124
N12330 X12.6186 Y0.8612 I-0.094 J-0.0138
N12335 X12.8066 Y0.8888 I0.094 J0.0138
N12340 X12.7924 Y0.8994 I-0.0124 J-0.0018
N12345 G1 X12.78 Y0.8976
N12350 X12.7773 Y0.8972 Z-0.1247
N12355 X12.7746 Y0.8968 Z-0.1238
N12360 X12.7723 Y0.8964 Z-0.1223
N12365 X12.7703 Y0.8961 Z-0.1203
N12370 X12.7689 Y0.8959 Z-0.1179
N12375 X12.768 Y0.8958 Z-0.1153
N12380 X12.7676 Y0.8957 Z-0.1125
N12385 Z0.3
N12390 X12.7713 Y0.871
N12395 Z0.2
N12400 Z-0.1 F16.731
N12405 Z-0.2375
N12410 X12.7716 Z-0.2403 F50.192
N12415 X12.7725 Y0.8712 Z-0.2429
N12420 X12.774 Y0.8714 Z-0.2453
N12425 X12.7759 Y0.8717 Z-0.2473
N12430 X12.7783 Y0.872 Z-0.2488
N12435 X12.7809 Y0.8724 Z-0.2497
N12440 X12.7837 Y0.8728 Z-0.25
N12445 X12.796 Y0.8746
N12450 G3 X12.8066 Y0.8888 I-0.0018 J0.0124
N12455 X12.6186 Y0.8612 I-0.094 J-0.0138
N12460 X12.8066 Y0.8888 I0.094 J0.0138
N12465 X12.7924 Y0.8994 I-0.0124 J-0.0018
N12470 G1 X12.78 Y0.8976
N12475 X12.7773 Y0.8972 Z-0.2497
N12480 X12.7746 Y0.8968 Z-0.2488
N12485 X12.7723 Y0.8964 Z-0.2473
N12490 X12.7703 Y0.8961 Z-0.2453
N12495 X12.7689 Y0.8959 Z-0.2429
N12500 X12.768 Y0.8958 Z-0.2403
N12505 X12.7676 Y0.8957 Z-0.2375
N12510 Z0.3
N12515 X12.7713 Y0.871
N12520 Z0.2
N12525 Z-0.225 F16.731
N12530 Z-0.3625
N12535 X12.7716 Z-0.3653 F50.192
N12540 X12.7725 Y0.8712 Z-0.3679
N12545 X12.774 Y0.8714 Z-0.3703
N12550 X12.7759 Y0.8717 Z-0.3723
N12555 X12.7783 Y0.872 Z-0.3738
N12560 X12.7809 Y0.8724 Z-0.3747
N12565 X12.7837 Y0.8728 Z-0.375
N12570 X12.796 Y0.8746
N12575 G3 X12.8066 Y0.8888 I-0.0018 J0.0124
N12580 X12.6186 Y0.8612 I-0.094 J-0.0138
N12585 X12.8066 Y0.8888 I0.094 J0.0138
N12590 X12.7924 Y0.8994 I-0.0124 J-0.0018
N12595 G1 X12.78 Y0.8976
N12600 X12.7773 Y0.8972 Z-0.3747
N12605 X12.7746 Y0.8968 Z-0.3738
N12610 X12.7723 Y0.8964 Z-0.3723
N12615 X12.7703 Y0.8961 Z-0.3703
N12620 X12.7689 Y0.8959 Z-0.3679
N12625 X12.768 Y0.8958 Z-0.3653
N12630 X12.7676 Y0.8957 Z-0.3625
N12635 Z0.3
N12640 X12.7713 Y0.871
N12645 Z0.2
N12650 Z-0.35 F16.731
N12655 Z-0.4875
N12660 X12.7716 Z-0.4903 F50.192
N12665 X12.7725 Y0.8712 Z-0.4929
N12670 X12.774 Y0.8714 Z-0.4953
N12675 X12.7759 Y0.8717 Z-0.4973
N12680 X12.7783 Y0.872 Z-0.4988
N12685 X12.7809 Y0.8724 Z-0.4997
N12690 X12.7837 Y0.8728 Z-0.5
N12695 X12.796 Y0.8746
N12700 G3 X12.8066 Y0.8888 I-0.0018 J0.0124
N12705 X12.6186 Y0.8612 I-0.094 J-0.0138
N12710 X12.8066 Y0.8888 I0.094 J0.0138
N12715 X12.7924 Y0.8994 I-0.0124 J-0.0018
N12720 G1 X12.78 Y0.8976
N12725 X12.7773 Y0.8972 Z-0.4997
N12730 X12.7746 Y0.8968 Z-0.4988
N12735 X12.7723 Y0.8964 Z-0.4973
N12740 X12.7703 Y0.8961 Z-0.4953
N12745 X12.7689 Y0.8959 Z-0.4929
N12750 X12.768 Y0.8958 Z-0.4903
N12755 X12.7676 Y0.8957 Z-0.4875
N12760 Z0.3
N12765 X12.7713 Y0.871
N12770 Z0.2
N12775 Z-0.475 F16.731
N12780 Z-0.6125
N12785 X12.7716 Z-0.6153 F50.192
N12790 X12.7725 Y0.8712 Z-0.6179
N12795 X12.774 Y0.8714 Z-0.6203
N12800 X12.7759 Y0.8717 Z-0.6223
N12805 X12.7783 Y0.872 Z-0.6238
N12810 X12.7809 Y0.8724 Z-0.6247
N12815 X12.7837 Y0.8728 Z-0.625
N12820 X12.796 Y0.8746
N12825 G3 X12.8066 Y0.8888 I-0.0018 J0.0124
N12830 X12.6186 Y0.8612 I-0.094 J-0.0138
N12835 X12.8066 Y0.8888 I0.094 J0.0138
N12840 X12.7924 Y0.8994 I-0.0124 J-0.0018
N12845 G1 X12.78 Y0.8976
N12850 X12.7773 Y0.8972 Z-0.6247
N12855 X12.7746 Y0.8968 Z-0.6238
N12860 X12.7723 Y0.8964 Z-0.6223
N12865 X12.7703 Y0.8961 Z-0.6203
N12870 X12.7689 Y0.8959 Z-0.6179
N12875 X12.768 Y0.8958 Z-0.6153
N12880 X12.7676 Y0.8957 Z-0.6125
N12885 Z0.3
N12890 X12.7713 Y0.871
N12895 Z0.2
N12900 Z-0.6 F16.731
N12905 Z-0.7375
N12910 X12.7716 Z-0.7403 F50.192
N12915 X12.7725 Y0.8712 Z-0.7429
N12920 X12.774 Y0.8714 Z-0.7453
N12925 X12.7759 Y0.8717 Z-0.7473
N12930 X12.7783 Y0.872 Z-0.7488
N12935 X12.7809 Y0.8724 Z-0.7497
N12940 X12.7837 Y0.8728 Z-0.75
N12945 X12.796 Y0.8746
N12950 G3 X12.8066 Y0.8888 I-0.0018 J0.0124
N12955 X12.6186 Y0.8612 I-0.094 J-0.0138
N12960 X12.8066 Y0.8888 I0.094 J0.0138
N12965 X12.7924 Y0.8994 I-0.0124 J-0.0018
N12970 G1 X12.78 Y0.8976
N12975 X12.7773 Y0.8972 Z-0.7497
N12980 X12.7746 Y0.8968 Z-0.7488
N12985 X12.7723 Y0.8964 Z-0.7473
N12990 X12.7703 Y0.8961 Z-0.7453
N12995 X12.7689 Y0.8959 Z-0.7429
N13000 X12.768 Y0.8958 Z-0.7403
N13005 X12.7676 Y0.8957 Z-0.7375
N13010 Z0.3
N13015 X14.3449 Y0.8625
N13020 Z0.2
N13025 Z0.025 F16.731
N13030 Z-0.1125
N13035 G18 G2 X14.3574 Z-0.125 I0.0125 K0. F50.192
N13040 G1 X14.3699
N13045 G17 G3 X14.3824 Y0.875 I0. J0.0125
N13050 X14.1924 I-0.095 J0.
N13055 X14.3824 I0.095 J0.
N13060 X14.3699 Y0.8875 I-0.0125 J0.
N13065 G1 X14.3574
N13070 G18 G3 X14.3449 Z-0.1125 I0. K0.0125
N13075 G1 Z0.3
N13080 Y0.8625
N13085 Z0.2
N13090 Z-0.1 F16.731
N13095 Z-0.2375
N13100 G2 X14.3574 Z-0.25 I0.0125 K0. F50.192
N13105 G1 X14.3699
N13110 G17 G3 X14.3824 Y0.875 I0. J0.0125
N13115 X14.1924 I-0.095 J0.
N13120 X14.3824 I0.095 J0.
N13125 X14.3699 Y0.8875 I-0.0125 J0.
N13130 G1 X14.3574
N13135 G18 G3 X14.3449 Z-0.2375 I0. K0.0125
N13140 G1 Z0.3
N13145 Y0.8625
N13150 Z0.2
N13155 Z-0.225 F16.731
N13160 Z-0.3625
N13165 G2 X14.3574 Z-0.375 I0.0125 K0. F50.192
N13170 G1 X14.3699
N13175 G17 G3 X14.3824 Y0.875 I0. J0.0125
N13180 X14.1924 I-0.095 J0.
N13185 X14.3824 I0.095 J0.
N13190 X14.3699 Y0.8875 I-0.0125 J0.
N13195 G1 X14.3574
N13200 G18 G3 X14.3449 Z-0.3625 I0. K0.0125
N13205 G1 Z0.3
N13210 Y0.8625
N13215 Z0.2
N13220 Z-0.35 F16.731
N13225 Z-0.4875
N13230 G2 X14.3574 Z-0.5 I0.0125 K0. F50.192
N13235 G1 X14.3699
N13240 G17 G3 X14.3824 Y0.875 I0. J0.0125
N13245 X14.1924 I-0.095 J0.
N13250 X14.3824 I0.095 J0.
N13255 X14.3699 Y0.8875 I-0.0125 J0.
N13260 G1 X14.3574
N13265 G18 G3 X14.3449 Z-0.4875 I0. K0.0125
N13270 G1 Z0.3
N13275 Y0.8625
N13280 Z0.2
N13285 Z-0.475 F16.731
N13290 Z-0.6125
N13295 G2 X14.3574 Z-0.625 I0.0125 K0. F50.192
N13300 G1 X14.3699
N13305 G17 G3 X14.3824 Y0.875 I0. J0.0125
N13310 X14.1924 I-0.095 J0.
N13315 X14.3824 I0.095 J0.
N13320 X14.3699 Y0.8875 I-0.0125 J0.
N13325 G1 X14.3574
N13330 G18 G3 X14.3449 Z-0.6125 I0. K0.0125
N13335 G1 Z0.3
N13340 Y0.8625
N13345 Z0.2
N13350 Z-0.6 F16.731
N13355 Z-0.7375
N13360 G2 X14.3574 Z-0.75 I0.0125 K0. F50.192
N13365 G1 X14.3699
N13370 G17 G3 X14.3824 Y0.875 I0. J0.0125
N13375 X14.1924 I-0.095 J0.
N13380 X14.3824 I0.095 J0.
N13385 X14.3699 Y0.8875 I-0.0125 J0.
N13390 G1 X14.3574
N13395 G18 G3 X14.3449 Z-0.7375 I0. K0.0125
N13400 G1 Z0.3
N13405 X15.7701 Y0.8625
N13410 Z0.2
N13415 Z0.025 F16.731
N13420 Z-0.1125
N13425 G2 X15.7826 Z-0.125 I0.0125 K0. F50.192
N13430 G1 X15.7951
N13435 G17 G3 X15.8076 Y0.875 I0. J0.0125
N13440 X15.6176 I-0.095 J0.
N13445 X15.8076 I0.095 J0.
N13450 X15.7951 Y0.8875 I-0.0125 J0.
N13455 G1 X15.7826
N13460 G18 G3 X15.7701 Z-0.1125 I0. K0.0125
N13465 G1 Z0.3
N13470 Y0.8625
N13475 Z0.2
N13480 Z-0.1 F16.731
N13485 Z-0.2375
N13490 G2 X15.7826 Z-0.25 I0.0125 K0. F50.192
N13495 G1 X15.7951
N13500 G17 G3 X15.8076 Y0.875 I0. J0.0125
N13505 X15.6176 I-0.095 J0.
N13510 X15.8076 I0.095 J0.
N13515 X15.7951 Y0.8875 I-0.0125 J0.
N13520 G1 X15.7826
N13525 G18 G3 X15.7701 Z-0.2375 I0. K0.0125
N13530 G1 Z0.3
N13535 Y0.8625
N13540 Z0.2
N13545 Z-0.225 F16.731
N13550 Z-0.3625
N13555 G2 X15.7826 Z-0.375 I0.0125 K0. F50.192
N13560 G1 X15.7951
N13565 G17 G3 X15.8076 Y0.875 I0. J0.0125
N13570 X15.6176 I-0.095 J0.
N13575 X15.8076 I0.095 J0.
N13580 X15.7951 Y0.8875 I-0.0125 J0.
N13585 G1 X15.7826
N13590 G18 G3 X15.7701 Z-0.3625 I0. K0.0125
N13595 G1 Z0.3
N13600 Y0.8625
N13605 Z0.2
N13610 Z-0.35 F16.731
N13615 Z-0.4875
N13620 G2 X15.7826 Z-0.5 I0.0125 K0. F50.192
N13625 G1 X15.7951
N13630 G17 G3 X15.8076 Y0.875 I0. J0.0125
N13635 X15.6176 I-0.095 J0.
N13640 X15.8076 I0.095 J0.
N13645 X15.7951 Y0.8875 I-0.0125 J0.
N13650 G1 X15.7826
N13655 G18 G3 X15.7701 Z-0.4875 I0. K0.0125
N13660 G1 Z0.3
N13665 Y0.8625
N13670 Z0.2
N13675 Z-0.475 F16.731
N13680 Z-0.6125
N13685 G2 X15.7826 Z-0.625 I0.0125 K0. F50.192
N13690 G1 X15.7951
N13695 G17 G3 X15.8076 Y0.875 I0. J0.0125
N13700 X15.6176 I-0.095 J0.
N13705 X15.8076 I0.095 J0.
N13710 X15.7951 Y0.8875 I-0.0125 J0.
N13715 G1 X15.7826
N13720 G18 G3 X15.7701 Z-0.6125 I0. K0.0125
N13725 G1 Z0.3
N13730 Y0.8625
N13735 Z0.2
N13740 Z-0.6 F16.731
N13745 Z-0.7375
N13750 G2 X15.7826 Z-0.75 I0.0125 K0. F50.192
N13755 G1 X15.7951
N13760 G17 G3 X15.8076 Y0.875 I0. J0.0125
N13765 X15.6176 I-0.095 J0.
N13770 X15.8076 I0.095 J0.
N13775 X15.7951 Y0.8875 I-0.0125 J0.
N13780 G1 X15.7826
N13785 G18 G3 X15.7701 Z-0.7375 I0. K0.0125
N13790 G1 Z0.3
N13795 X17.3449 Y0.8625
N13800 Z0.2
N13805 Z0.025 F16.731
N13810 Z-0.1125
N13815 G2 X17.3574 Z-0.125 I0.0125 K0. F50.192
N13820 G1 X17.3699
N13825 G17 G3 X17.3824 Y0.875 I0. J0.0125
N13830 X17.1924 I-0.095 J0.
N13835 X17.3824 I0.095 J0.
N13840 X17.3699 Y0.8875 I-0.0125 J0.
N13845 G1 X17.3574
N13850 G18 G3 X17.3449 Z-0.1125 I0. K0.0125
N13855 G1 Z0.3
N13860 Y0.8625
N13865 Z0.2
N13870 Z-0.1 F16.731
N13875 Z-0.2375
N13880 G2 X17.3574 Z-0.25 I0.0125 K0. F50.192
N13885 G1 X17.3699
N13890 G17 G3 X17.3824 Y0.875 I0. J0.0125
N13895 X17.1924 I-0.095 J0.
N13900 X17.3824 I0.095 J0.
N13905 X17.3699 Y0.8875 I-0.0125 J0.
N13910 G1 X17.3574
N13915 G18 G3 X17.3449 Z-0.2375 I0. K0.0125
N13920 G1 Z0.3
N13925 Y0.8625
N13930 Z0.2
N13935 Z-0.225 F16.731
N13940 Z-0.3625
N13945 G2 X17.3574 Z-0.375 I0.0125 K0. F50.192
N13950 G1 X17.3699
N13955 G17 G3 X17.3824 Y0.875 I0. J0.0125
N13960 X17.1924 I-0.095 J0.
N13965 X17.3824 I0.095 J0.
N13970 X17.3699 Y0.8875 I-0.0125 J0.
N13975 G1 X17.3574
N13980 G18 G3 X17.3449 Z-0.3625 I0. K0.0125
N13985 G1 Z0.3
N13990 Y0.8625
N13995 Z0.2
N14000 Z-0.35 F16.731
N14005 Z-0.4875
N14010 G2 X17.3574 Z-0.5 I0.0125 K0. F50.192
N14015 G1 X17.3699
N14020 G17 G3 X17.3824 Y0.875 I0. J0.0125
N14025 X17.1924 I-0.095 J0.
N14030 X17.3824 I0.095 J0.
N14035 X17.3699 Y0.8875 I-0.0125 J0.
N14040 G1 X17.3574
N14045 G18 G3 X17.3449 Z-0.4875 I0. K0.0125
N14050 G1 Z0.3
N14055 Y0.8625
N14060 Z0.2
N14065 Z-0.475 F16.731
N14070 Z-0.6125
N14075 G2 X17.3574 Z-0.625 I0.0125 K0. F50.192
N14080 G1 X17.3699
N14085 G17 G3 X17.3824 Y0.875 I0. J0.0125
N14090 X17.1924 I-0.095 J0.
N14095 X17.3824 I0.095 J0.
N14100 X17.3699 Y0.8875 I-0.0125 J0.
N14105 G1 X17.3574
N14110 G18 G3 X17.3449 Z-0.6125 I0. K0.0125
N14115 G1 Z0.3
N14120 Y0.8625
N14125 Z0.2
N14130 Z-0.6 F16.731
N14135 Z-0.7375
N14140 G2 X17.3574 Z-0.75 I0.0125 K0. F50.192
N14145 G1 X17.3699
N14150 G17 G3 X17.3824 Y0.875 I0. J0.0125
N14155 X17.1924 I-0.095 J0.
N14160 X17.3824 I0.095 J0.
N14165 X17.3699 Y0.8875 I-0.0125 J0.
N14170 G1 X17.3574
N14175 G18 G3 X17.3449 Z-0.7375 I0. K0.0125
N14180 G1 Z0.7
N14185 G17
N14190 M9
N14195 G53 G0 Z0.
N14200 G53 G0 X0. Y0.
N14205 M30
%
